; Benchy-style calibration boat - procedurally generated
; Inspired by the well-known 3DBenchy silhouette; not an exact model
; Features: hull, deckhouse, roof, chimney, bow box, stern recess
G21
G90
M82
M104 S200
M140 S60
G28
M109 S200
M190 S60
G92 E0
G1 Z5 F3000
;LAYER:0
G1 X110.000 Y75.996 Z0.300 F6000
G1 X117.305 Y78.330 E0.2531 F1700
G1 X120.140 Y80.664 E0.3743 F1700
G1 X121.562 Y82.998 E0.4645 F1700
G1 X122.463 Y85.333 E0.5470 F1700
G1 X123.233 Y87.667 E0.6281 F1700
G1 X123.913 Y90.001 E0.7084 F1700
G1 X124.523 Y92.335 E0.7880 F1700
G1 X125.075 Y94.670 E0.8672 F1700
G1 X125.577 Y97.004 E0.9459 F1700
G1 X126.033 Y99.338 E1.0244 F1700
G1 X126.444 Y101.673 E1.1026 F1700
G1 X126.812 Y104.007 E1.1806 F1700
G1 X127.137 Y106.341 E1.2584 F1700
G1 X127.418 Y108.675 E1.3360 F1700
G1 X127.656 Y111.010 E1.4134 F1700
G1 X127.849 Y113.344 E1.4907 F1700
G1 X127.996 Y115.678 E1.5679 F1700
G1 X128.095 Y118.012 E1.6450 F1700
G1 X128.146 Y120.347 E1.7220 F1700
G1 X128.146 Y122.681 E1.7991 F1700
G1 X128.095 Y125.015 E1.8761 F1700
G1 X127.991 Y127.349 E1.9532 F1700
G1 X127.834 Y129.684 E2.0304 F1700
G1 X127.621 Y132.018 E2.1078 F1700
G1 X127.354 Y134.352 E2.1853 F1700
G1 X127.031 Y136.686 E2.2631 F1700
G1 X126.651 Y139.021 E2.3411 F1700
G1 X126.215 Y141.355 E2.4195 F1700
G1 X125.723 Y143.689 E2.4982 F1700
G1 X125.175 Y146.023 E2.5773 F1700
G1 X124.573 Y148.358 E2.6569 F1700
G1 X123.918 Y150.692 E2.7369 F1700
G1 X123.217 Y153.026 E2.8173 F1700
G1 X122.472 Y155.360 E2.8982 F1700
G1 X121.683 Y157.695 E2.9795 F1700
G1 X120.851 Y160.029 E3.0613 F1700
G1 X119.977 Y162.363 E3.1435 F1700
G1 X119.060 Y164.697 E3.2263 F1700
G1 X118.103 Y167.032 E3.3095 F1700
G1 X117.103 Y169.366 E3.3933 F1700
G1 X116.055 Y171.700 E3.4778 F1700
G1 X114.944 Y174.035 E3.5631 F1700
G1 X113.704 Y176.369 E3.6503 F1700
G1 X110.002 Y178.703 E3.7947 F1700
G1 X109.998 Y178.703 E3.7949 F1700
G1 X106.296 Y176.369 E3.9393 F1700
G1 X105.056 Y174.035 E4.0265 F1700
G1 X103.945 Y171.700 E4.1118 F1700
G1 X102.897 Y169.366 E4.1963 F1700
G1 X101.897 Y167.032 E4.2801 F1700
G1 X100.940 Y164.697 E4.3633 F1700
G1 X100.023 Y162.363 E4.4461 F1700
G1 X99.149 Y160.029 E4.5283 F1700
G1 X98.317 Y157.695 E4.6101 F1700
G1 X97.528 Y155.360 E4.6914 F1700
G1 X96.783 Y153.026 E4.7723 F1700
G1 X96.082 Y150.692 E4.8527 F1700
G1 X95.427 Y148.358 E4.9327 F1700
G1 X94.825 Y146.023 E5.0123 F1700
G1 X94.277 Y143.689 E5.0914 F1700
G1 X93.785 Y141.355 E5.1701 F1700
G1 X93.349 Y139.021 E5.2485 F1700
G1 X92.969 Y136.686 E5.3265 F1700
G1 X92.646 Y134.352 E5.4043 F1700
G1 X92.379 Y132.018 E5.4818 F1700
G1 X92.166 Y129.684 E5.5592 F1700
G1 X92.009 Y127.349 E5.6364 F1700
G1 X91.905 Y125.015 E5.7135 F1700
G1 X91.854 Y122.681 E5.7905 F1700
G1 X91.854 Y120.347 E5.8676 F1700
G1 X91.905 Y118.012 E5.9446 F1700
G1 X92.004 Y115.678 E6.0217 F1700
G1 X92.151 Y113.344 E6.0989 F1700
G1 X92.344 Y111.010 E6.1762 F1700
G1 X92.582 Y108.675 E6.2536 F1700
G1 X92.863 Y106.341 E6.3312 F1700
G1 X93.188 Y104.007 E6.4090 F1700
G1 X93.556 Y101.673 E6.4870 F1700
G1 X93.967 Y99.338 E6.5652 F1700
G1 X94.423 Y97.004 E6.6437 F1700
G1 X94.925 Y94.670 E6.7224 F1700
G1 X95.477 Y92.335 E6.8016 F1700
G1 X96.087 Y90.001 E6.8812 F1700
G1 X96.767 Y87.667 E6.9615 F1700
G1 X97.537 Y85.333 E7.0426 F1700
G1 X98.438 Y82.998 E7.1251 F1700
G1 X99.860 Y80.664 E7.2153 F1700
G1 X102.695 Y78.330 E7.3365 F1700
G1 X110.000 Y75.996 E7.5896 F1700
G1 X110.000 Y75.996 E7.5896 F1700
G1 X82.000 Y104.000 Z0.300 F6000
G1 X138.000 Y104.000 E9.4376 F2600
G1 X82.000 Y122.000 Z0.300 F6000
G1 X138.000 Y122.000 E11.2856 F2600
G1 X82.000 Y140.000 Z0.300 F6000
G1 X138.000 Y140.000 E13.1336 F2600
;LAYER:1
G1 X110.000 Y74.601 Z0.600 F6000
G1 X117.696 Y77.006 E13.3997 F1700
G1 X120.683 Y79.411 E13.5262 F1700
G1 X122.181 Y81.816 E13.6197 F1700
G1 X123.130 Y84.221 E13.7050 F1700
G1 X123.941 Y86.626 E13.7888 F1700
G1 X124.657 Y89.031 E13.8716 F1700
G1 X125.300 Y91.436 E13.9538 F1700
G1 X125.882 Y93.841 E14.0354 F1700
G1 X126.411 Y96.246 E14.1167 F1700
G1 X126.890 Y98.651 E14.1976 F1700
G1 X127.323 Y101.056 E14.2783 F1700
G1 X127.711 Y103.461 E14.3586 F1700
G1 X128.054 Y105.866 E14.4388 F1700
G1 X128.350 Y108.271 E14.5188 F1700
G1 X128.601 Y110.676 E14.5986 F1700
G1 X128.804 Y113.081 E14.6782 F1700
G1 X128.959 Y115.486 E14.7577 F1700
G1 X129.063 Y117.891 E14.8372 F1700
G1 X129.117 Y120.296 E14.9166 F1700
G1 X129.117 Y122.701 E14.9959 F1700
G1 X129.063 Y125.106 E15.0753 F1700
G1 X128.954 Y127.511 E15.1548 F1700
G1 X128.788 Y129.916 E15.2343 F1700
G1 X128.564 Y132.321 E15.3140 F1700
G1 X128.282 Y134.726 E15.3939 F1700
G1 X127.942 Y137.131 E15.4741 F1700
G1 X127.542 Y139.536 E15.5545 F1700
G1 X127.083 Y141.941 E15.6353 F1700
G1 X126.564 Y144.346 E15.7165 F1700
G1 X125.987 Y146.751 E15.7982 F1700
G1 X125.353 Y149.156 E15.8802 F1700
G1 X124.663 Y151.561 E15.9628 F1700
G1 X123.925 Y153.967 E16.0458 F1700
G1 X123.140 Y156.372 E16.1293 F1700
G1 X122.308 Y158.777 E16.2133 F1700
G1 X121.432 Y161.182 E16.2977 F1700
G1 X120.510 Y163.587 E16.3827 F1700
G1 X119.545 Y165.992 E16.4683 F1700
G1 X118.536 Y168.397 E16.5543 F1700
G1 X117.483 Y170.802 E16.6410 F1700
G1 X116.379 Y173.207 E16.7283 F1700
G1 X115.208 Y175.612 E16.8166 F1700
G1 X113.902 Y178.017 E16.9069 F1700
G1 X110.002 Y180.422 E17.0581 F1700
G1 X109.998 Y180.422 E17.0582 F1700
G1 X106.098 Y178.017 E17.2094 F1700
G1 X104.792 Y175.612 E17.2997 F1700
G1 X103.621 Y173.207 E17.3880 F1700
G1 X102.517 Y170.802 E17.4753 F1700
G1 X101.464 Y168.397 E17.5620 F1700
G1 X100.455 Y165.992 E17.6480 F1700
G1 X99.490 Y163.587 E17.7336 F1700
G1 X98.568 Y161.182 E17.8186 F1700
G1 X97.692 Y158.777 E17.9030 F1700
G1 X96.860 Y156.372 E17.9870 F1700
G1 X96.075 Y153.967 E18.0705 F1700
G1 X95.337 Y151.561 E18.1535 F1700
G1 X94.647 Y149.156 E18.2361 F1700
G1 X94.013 Y146.751 E18.3181 F1700
G1 X93.436 Y144.346 E18.3998 F1700
G1 X92.917 Y141.941 E18.4810 F1700
G1 X92.458 Y139.536 E18.5618 F1700
G1 X92.058 Y137.131 E18.6422 F1700
G1 X91.718 Y134.726 E18.7224 F1700
G1 X91.436 Y132.321 E18.8023 F1700
G1 X91.212 Y129.916 E18.8820 F1700
G1 X91.046 Y127.511 E18.9615 F1700
G1 X90.937 Y125.106 E19.0410 F1700
G1 X90.883 Y122.701 E19.1204 F1700
G1 X90.883 Y120.296 E19.1997 F1700
G1 X90.937 Y117.891 E19.2791 F1700
G1 X91.041 Y115.486 E19.3586 F1700
G1 X91.196 Y113.081 E19.4381 F1700
G1 X91.399 Y110.676 E19.5177 F1700
G1 X91.650 Y108.271 E19.5975 F1700
G1 X91.946 Y105.866 E19.6775 F1700
G1 X92.289 Y103.461 E19.7577 F1700
G1 X92.677 Y101.056 E19.8380 F1700
G1 X93.110 Y98.651 E19.9187 F1700
G1 X93.589 Y96.246 E19.9996 F1700
G1 X94.118 Y93.841 E20.0809 F1700
G1 X94.700 Y91.436 E20.1625 F1700
G1 X95.343 Y89.031 E20.2447 F1700
G1 X96.059 Y86.626 E20.3275 F1700
G1 X96.870 Y84.221 E20.4113 F1700
G1 X97.819 Y81.816 E20.4966 F1700
G1 X99.317 Y79.411 E20.5901 F1700
G1 X102.304 Y77.006 E20.7166 F1700
G1 X110.000 Y74.601 E20.9827 F1700
G1 X110.000 Y74.601 E20.9827 F1700
;LAYER:2
G1 X110.000 Y73.503 Z0.900 F6000
G1 X117.994 Y75.963 E21.2587 F1700
G1 X121.096 Y78.424 E21.3894 F1700
G1 X122.652 Y80.885 E21.4855 F1700
G1 X123.637 Y83.346 E21.5729 F1700
G1 X124.480 Y85.806 E21.6588 F1700
G1 X125.224 Y88.267 E21.7436 F1700
G1 X125.892 Y90.728 E21.8277 F1700
G1 X126.496 Y93.189 E21.9114 F1700
G1 X127.045 Y95.649 E21.9946 F1700
G1 X127.543 Y98.110 E22.0774 F1700
G1 X127.993 Y100.571 E22.1600 F1700
G1 X128.396 Y103.032 E22.2423 F1700
G1 X128.752 Y105.492 E22.3243 F1700
G1 X129.060 Y107.953 E22.4061 F1700
G1 X129.320 Y110.414 E22.4878 F1700
G1 X129.531 Y112.875 E22.5693 F1700
G1 X129.692 Y115.335 E22.6507 F1700
G1 X129.800 Y117.796 E22.7320 F1700
G1 X129.856 Y120.257 E22.8132 F1700
G1 X129.856 Y122.718 E22.8944 F1700
G1 X129.800 Y125.178 E22.9756 F1700
G1 X129.687 Y127.639 E23.0569 F1700
G1 X129.514 Y130.100 E23.1383 F1700
G1 X129.282 Y132.561 E23.2199 F1700
G1 X128.989 Y135.022 E23.3017 F1700
G1 X128.636 Y137.482 E23.3837 F1700
G1 X128.220 Y139.943 E23.4661 F1700
G1 X127.743 Y142.404 E23.5488 F1700
G1 X127.205 Y144.865 E23.6319 F1700
G1 X126.605 Y147.325 E23.7155 F1700
G1 X125.946 Y149.786 E23.7995 F1700
G1 X125.230 Y152.247 E23.8841 F1700
G1 X124.463 Y154.708 E23.9692 F1700
G1 X123.648 Y157.168 E24.0547 F1700
G1 X122.784 Y159.629 E24.1408 F1700
G1 X121.874 Y162.090 E24.2274 F1700
G1 X120.917 Y164.551 E24.3145 F1700
G1 X119.914 Y167.011 E24.4022 F1700
G1 X118.866 Y169.472 E24.4904 F1700
G1 X117.772 Y171.933 E24.5793 F1700
G1 X116.626 Y174.394 E24.6689 F1700
G1 X115.410 Y176.854 E24.7595 F1700
G1 X114.053 Y179.315 E24.8522 F1700
G1 X110.002 Y181.776 E25.0086 F1700
G1 X109.998 Y181.776 E25.0088 F1700
G1 X105.947 Y179.315 E25.1652 F1700
G1 X104.590 Y176.854 E25.2579 F1700
G1 X103.374 Y174.394 E25.3485 F1700
G1 X102.228 Y171.933 E25.4381 F1700
G1 X101.134 Y169.472 E25.5269 F1700
G1 X100.086 Y167.011 E25.6152 F1700
G1 X99.083 Y164.551 E25.7029 F1700
G1 X98.126 Y162.090 E25.7900 F1700
G1 X97.216 Y159.629 E25.8766 F1700
G1 X96.352 Y157.168 E25.9627 F1700
G1 X95.537 Y154.708 E26.0482 F1700
G1 X94.770 Y152.247 E26.1333 F1700
G1 X94.054 Y149.786 E26.2178 F1700
G1 X93.395 Y147.325 E26.3019 F1700
G1 X92.795 Y144.865 E26.3855 F1700
G1 X92.257 Y142.404 E26.4686 F1700
G1 X91.780 Y139.943 E26.5513 F1700
G1 X91.364 Y137.482 E26.6337 F1700
G1 X91.011 Y135.022 E26.7157 F1700
G1 X90.718 Y132.561 E26.7975 F1700
G1 X90.486 Y130.100 E26.8791 F1700
G1 X90.313 Y127.639 E26.9605 F1700
G1 X90.200 Y125.178 E27.0418 F1700
G1 X90.144 Y122.718 E27.1230 F1700
G1 X90.144 Y120.257 E27.2042 F1700
G1 X90.200 Y117.796 E27.2854 F1700
G1 X90.308 Y115.335 E27.3667 F1700
G1 X90.469 Y112.875 E27.4481 F1700
G1 X90.680 Y110.414 E27.5296 F1700
G1 X90.940 Y107.953 E27.6112 F1700
G1 X91.248 Y105.492 E27.6931 F1700
G1 X91.604 Y103.032 E27.7751 F1700
G1 X92.007 Y100.571 E27.8574 F1700
G1 X92.457 Y98.110 E27.9400 F1700
G1 X92.955 Y95.649 E28.0228 F1700
G1 X93.504 Y93.189 E28.1060 F1700
G1 X94.108 Y90.728 E28.1896 F1700
G1 X94.776 Y88.267 E28.2738 F1700
G1 X95.520 Y85.806 E28.3586 F1700
G1 X96.363 Y83.346 E28.4445 F1700
G1 X97.348 Y80.885 E28.5319 F1700
G1 X98.904 Y78.424 E28.6280 F1700
G1 X102.006 Y75.963 E28.7587 F1700
G1 X110.000 Y73.503 E29.0347 F1700
G1 X110.000 Y73.503 E29.0347 F1700
;LAYER:3
G1 X110.000 Y72.560 Z1.200 F6000
G1 X118.240 Y75.069 E29.3189 F1700
G1 X121.438 Y77.577 E29.4531 F1700
G1 X123.042 Y80.086 E29.5513 F1700
G1 X124.058 Y82.594 E29.6406 F1700
G1 X124.927 Y85.103 E29.7282 F1700
G1 X125.694 Y87.612 E29.8148 F1700
G1 X126.382 Y90.120 E29.9006 F1700
G1 X127.005 Y92.629 E29.9859 F1700
G1 X127.571 Y95.137 E30.0708 F1700
G1 X128.085 Y97.646 E30.1553 F1700
G1 X128.548 Y100.154 E30.2395 F1700
G1 X128.963 Y102.663 E30.3234 F1700
G1 X129.330 Y105.172 E30.4071 F1700
G1 X129.648 Y107.680 E30.4905 F1700
G1 X129.916 Y110.189 E30.5738 F1700
G1 X130.134 Y112.697 E30.6569 F1700
G1 X130.299 Y115.206 E30.7398 F1700
G1 X130.411 Y117.715 E30.8227 F1700
G1 X130.468 Y120.223 E30.9055 F1700
G1 X130.469 Y122.732 E30.9883 F1700
G1 X130.411 Y125.240 E31.0711 F1700
G1 X130.294 Y127.749 E31.1540 F1700
G1 X130.116 Y130.257 E31.2369 F1700
G1 X129.877 Y132.766 E31.3201 F1700
G1 X129.575 Y135.275 E31.4035 F1700
G1 X129.210 Y137.783 E31.4871 F1700
G1 X128.782 Y140.292 E31.5711 F1700
G1 X128.290 Y142.800 E31.6555 F1700
G1 X127.735 Y145.309 E31.7403 F1700
G1 X127.118 Y147.817 E31.8255 F1700
G1 X126.438 Y150.326 E31.9113 F1700
G1 X125.700 Y152.835 E31.9976 F1700
G1 X124.909 Y155.343 E32.0844 F1700
G1 X124.069 Y157.852 E32.1717 F1700
G1 X123.179 Y160.360 E32.2595 F1700
G1 X122.240 Y162.869 E32.3479 F1700
G1 X121.254 Y165.378 E32.4369 F1700
G1 X120.220 Y167.886 E32.5264 F1700
G1 X119.140 Y170.395 E32.6165 F1700
G1 X118.012 Y172.903 E32.7073 F1700
G1 X116.830 Y175.412 E32.7988 F1700
G1 X115.577 Y177.920 E32.8913 F1700
G1 X114.178 Y180.429 E32.9861 F1700
G1 X110.002 Y182.938 E33.1469 F1700
G1 X109.998 Y182.938 E33.1470 F1700
G1 X105.822 Y180.429 E33.3078 F1700
G1 X104.423 Y177.920 E33.4026 F1700
G1 X103.170 Y175.412 E33.4951 F1700
G1 X101.988 Y172.903 E33.5866 F1700
G1 X100.860 Y170.395 E33.6774 F1700
G1 X99.780 Y167.886 E33.7675 F1700
G1 X98.746 Y165.378 E33.8571 F1700
G1 X97.760 Y162.869 E33.9460 F1700
G1 X96.821 Y160.360 E34.0344 F1700
G1 X95.931 Y157.852 E34.1222 F1700
G1 X95.091 Y155.343 E34.2095 F1700
G1 X94.300 Y152.835 E34.2963 F1700
G1 X93.562 Y150.326 E34.3826 F1700
G1 X92.882 Y147.817 E34.4684 F1700
G1 X92.265 Y145.309 E34.5537 F1700
G1 X91.710 Y142.800 E34.6384 F1700
G1 X91.218 Y140.292 E34.7228 F1700
G1 X90.790 Y137.783 E34.8068 F1700
G1 X90.425 Y135.275 E34.8904 F1700
G1 X90.123 Y132.766 E34.9738 F1700
G1 X89.884 Y130.257 E35.0570 F1700
G1 X89.706 Y127.749 E35.1400 F1700
G1 X89.589 Y125.240 E35.2228 F1700
G1 X89.531 Y122.732 E35.3056 F1700
G1 X89.532 Y120.223 E35.3884 F1700
G1 X89.589 Y117.715 E35.4712 F1700
G1 X89.701 Y115.206 E35.5541 F1700
G1 X89.866 Y112.697 E35.6371 F1700
G1 X90.084 Y110.189 E35.7201 F1700
G1 X90.352 Y107.680 E35.8034 F1700
G1 X90.670 Y105.172 E35.8868 F1700
G1 X91.037 Y102.663 E35.9705 F1700
G1 X91.452 Y100.154 E36.0544 F1700
G1 X91.915 Y97.646 E36.1386 F1700
G1 X92.429 Y95.137 E36.2231 F1700
G1 X92.995 Y92.629 E36.3080 F1700
G1 X93.618 Y90.120 E36.3933 F1700
G1 X94.306 Y87.612 E36.4791 F1700
G1 X95.073 Y85.103 E36.5657 F1700
G1 X95.942 Y82.594 E36.6533 F1700
G1 X96.958 Y80.086 E36.7426 F1700
G1 X98.562 Y77.577 E36.8408 F1700
G1 X101.760 Y75.069 E36.9750 F1700
G1 X110.000 Y72.560 E37.2592 F1700
G1 X110.000 Y72.560 E37.2592 F1700
G1 X82.000 Y104.000 Z1.200 F6000
G1 X138.000 Y104.000 E39.1072 F2600
G1 X82.000 Y122.000 Z1.200 F6000
G1 X138.000 Y122.000 E40.9552 F2600
G1 X82.000 Y140.000 Z1.200 F6000
G1 X138.000 Y140.000 E42.8032 F2600
;LAYER:4
G1 X110.000 Y71.719 Z1.500 F6000
G1 X118.455 Y74.270 E43.0947 F1700
G1 X121.736 Y76.822 E43.2318 F1700
G1 X123.382 Y79.373 E43.3320 F1700
G1 X124.424 Y81.924 E43.4230 F1700
G1 X125.315 Y84.475 E43.5121 F1700
G1 X126.102 Y87.027 E43.6002 F1700
G1 X126.808 Y89.578 E43.6876 F1700
G1 X127.448 Y92.129 E43.7744 F1700
G1 X128.028 Y94.680 E43.8607 F1700
G1 X128.555 Y97.232 E43.9467 F1700
G1 X129.031 Y99.783 E44.0324 F1700
G1 X129.457 Y102.334 E44.1177 F1700
G1 X129.833 Y104.885 E44.2028 F1700
G1 X130.159 Y107.437 E44.2877 F1700
G1 X130.435 Y109.988 E44.3724 F1700
G1 X130.658 Y112.539 E44.4569 F1700
G1 X130.828 Y115.090 E44.5413 F1700
G1 X130.943 Y117.642 E44.6255 F1700
G1 X131.001 Y120.193 E44.7097 F1700
G1 X131.001 Y122.744 E44.7939 F1700
G1 X130.942 Y125.295 E44.8782 F1700
G1 X130.822 Y127.847 E44.9624 F1700
G1 X130.640 Y130.398 E45.0468 F1700
G1 X130.394 Y132.949 E45.1314 F1700
G1 X130.085 Y135.500 E45.2162 F1700
G1 X129.711 Y138.052 E45.3013 F1700
G1 X129.271 Y140.603 E45.3868 F1700
G1 X128.767 Y143.154 E45.4726 F1700
G1 X128.197 Y145.705 E45.5588 F1700
G1 X127.563 Y148.257 E45.6456 F1700
G1 X126.866 Y150.808 E45.7329 F1700
G1 X126.108 Y153.359 E45.8207 F1700
G1 X125.297 Y155.910 E45.9090 F1700
G1 X124.435 Y158.462 E45.9979 F1700
G1 X123.522 Y161.013 E46.0873 F1700
G1 X122.559 Y163.564 E46.1773 F1700
G1 X121.547 Y166.115 E46.2679 F1700
G1 X120.486 Y168.667 E46.3591 F1700
G1 X119.378 Y171.218 E46.4509 F1700
G1 X118.220 Y173.769 E46.5433 F1700
G1 X117.008 Y176.320 E46.6365 F1700
G1 X115.722 Y178.872 E46.7308 F1700
G1 X114.287 Y181.423 E46.8274 F1700
G1 X110.002 Y183.974 E46.9920 F1700
G1 X109.998 Y183.974 E46.9921 F1700
G1 X105.713 Y181.423 E47.1567 F1700
G1 X104.278 Y178.872 E47.2533 F1700
G1 X102.992 Y176.320 E47.3475 F1700
G1 X101.780 Y173.769 E47.4408 F1700
G1 X100.622 Y171.218 E47.5332 F1700
G1 X99.514 Y168.667 E47.6250 F1700
G1 X98.453 Y166.115 E47.7162 F1700
G1 X97.441 Y163.564 E47.8068 F1700
G1 X96.478 Y161.013 E47.8967 F1700
G1 X95.565 Y158.462 E47.9862 F1700
G1 X94.703 Y155.910 E48.0750 F1700
G1 X93.892 Y153.359 E48.1634 F1700
G1 X93.134 Y150.808 E48.2512 F1700
G1 X92.437 Y148.257 E48.3385 F1700
G1 X91.803 Y145.705 E48.4252 F1700
G1 X91.233 Y143.154 E48.5115 F1700
G1 X90.729 Y140.603 E48.5973 F1700
G1 X90.289 Y138.052 E48.6828 F1700
G1 X89.915 Y135.500 E48.7678 F1700
G1 X89.606 Y132.949 E48.8527 F1700
G1 X89.360 Y130.398 E48.9372 F1700
G1 X89.178 Y127.847 E49.0216 F1700
G1 X89.058 Y125.295 E49.1059 F1700
G1 X88.999 Y122.744 E49.1901 F1700
G1 X88.999 Y120.193 E49.2743 F1700
G1 X89.057 Y117.642 E49.3585 F1700
G1 X89.172 Y115.090 E49.4428 F1700
G1 X89.342 Y112.539 E49.5272 F1700
G1 X89.565 Y109.988 E49.6117 F1700
G1 X89.841 Y107.437 E49.6964 F1700
G1 X90.167 Y104.885 E49.7813 F1700
G1 X90.543 Y102.334 E49.8664 F1700
G1 X90.969 Y99.783 E49.9517 F1700
G1 X91.445 Y97.232 E50.0374 F1700
G1 X91.972 Y94.680 E50.1233 F1700
G1 X92.552 Y92.129 E50.2097 F1700
G1 X93.192 Y89.578 E50.2965 F1700
G1 X93.898 Y87.027 E50.3838 F1700
G1 X94.685 Y84.475 E50.4719 F1700
G1 X95.576 Y81.924 E50.5611 F1700
G1 X96.618 Y79.373 E50.6521 F1700
G1 X98.264 Y76.822 E50.7522 F1700
G1 X101.545 Y74.270 E50.8894 F1700
G1 X110.000 Y71.719 E51.1808 F1700
G1 X110.000 Y71.719 E51.1808 F1700
;LAYER:5
G1 X110.000 Y70.951 Z1.800 F6000
G1 X118.647 Y73.541 E51.4787 F1700
G1 X122.003 Y76.132 E51.6186 F1700
G1 X123.685 Y78.722 E51.7205 F1700
G1 X124.751 Y81.312 E51.8130 F1700
G1 X125.663 Y83.902 E51.9036 F1700
G1 X126.468 Y86.492 E51.9931 F1700
G1 X127.190 Y89.083 E52.0818 F1700
G1 X127.844 Y91.673 E52.1700 F1700
G1 X128.438 Y94.263 E52.2577 F1700
G1 X128.977 Y96.853 E52.3450 F1700
G1 X129.463 Y99.444 E52.4320 F1700
G1 X129.899 Y102.034 E52.5186 F1700
G1 X130.284 Y104.624 E52.6051 F1700
G1 X130.617 Y107.214 E52.6912 F1700
G1 X130.899 Y109.804 E52.7772 F1700
G1 X131.127 Y112.395 E52.8630 F1700
G1 X131.301 Y114.985 E52.9487 F1700
G1 X131.418 Y117.575 E53.0343 F1700
G1 X131.478 Y120.165 E53.1198 F1700
G1 X131.478 Y122.755 E53.2052 F1700
G1 X131.418 Y125.346 E53.2907 F1700
G1 X131.295 Y127.936 E53.3763 F1700
G1 X131.109 Y130.526 E53.4620 F1700
G1 X130.858 Y133.116 E53.5479 F1700
G1 X130.541 Y135.707 E53.6340 F1700
G1 X130.158 Y138.297 E53.7204 F1700
G1 X129.709 Y140.887 E53.8072 F1700
G1 X129.193 Y143.477 E53.8943 F1700
G1 X128.610 Y146.067 E53.9819 F1700
G1 X127.962 Y148.658 E54.0700 F1700
G1 X127.249 Y151.248 E54.1587 F1700
G1 X126.474 Y153.838 E54.2479 F1700
G1 X125.645 Y156.428 E54.3377 F1700
G1 X124.763 Y159.018 E54.4280 F1700
G1 X123.829 Y161.609 E54.5188 F1700
G1 X122.844 Y164.199 E54.6103 F1700
G1 X121.809 Y166.789 E54.7023 F1700
G1 X120.724 Y169.379 E54.7950 F1700
G1 X119.591 Y171.970 E54.8883 F1700
G1 X118.407 Y174.560 E54.9823 F1700
G1 X117.167 Y177.150 E55.0771 F1700
G1 X115.852 Y179.740 E55.1729 F1700
G1 X114.384 Y182.330 E55.2712 F1700
G1 X110.002 Y184.921 E55.4391 F1700
G1 X109.998 Y184.921 E55.4393 F1700
G1 X105.616 Y182.330 E55.6073 F1700
G1 X104.148 Y179.740 E55.7055 F1700
G1 X102.833 Y177.150 E55.8014 F1700
G1 X101.593 Y174.560 E55.8961 F1700
G1 X100.409 Y171.970 E55.9901 F1700
G1 X99.276 Y169.379 E56.0834 F1700
G1 X98.191 Y166.789 E56.1761 F1700
G1 X97.156 Y164.199 E56.2681 F1700
G1 X96.171 Y161.609 E56.3596 F1700
G1 X95.237 Y159.018 E56.4505 F1700
G1 X94.355 Y156.428 E56.5408 F1700
G1 X93.526 Y153.838 E56.6305 F1700
G1 X92.751 Y151.248 E56.7197 F1700
G1 X92.038 Y148.658 E56.8084 F1700
G1 X91.390 Y146.067 E56.8965 F1700
G1 X90.807 Y143.477 E56.9841 F1700
G1 X90.291 Y140.887 E57.0713 F1700
G1 X89.842 Y138.297 E57.1580 F1700
G1 X89.459 Y135.707 E57.2444 F1700
G1 X89.142 Y133.116 E57.3305 F1700
G1 X88.891 Y130.526 E57.4164 F1700
G1 X88.705 Y127.936 E57.5021 F1700
G1 X88.582 Y125.346 E57.5877 F1700
G1 X88.522 Y122.755 E57.6732 F1700
G1 X88.522 Y120.165 E57.7587 F1700
G1 X88.582 Y117.575 E57.8442 F1700
G1 X88.699 Y114.985 E57.9297 F1700
G1 X88.873 Y112.395 E58.0154 F1700
G1 X89.101 Y109.804 E58.1012 F1700
G1 X89.383 Y107.214 E58.1872 F1700
G1 X89.716 Y104.624 E58.2734 F1700
G1 X90.101 Y102.034 E58.3598 F1700
G1 X90.537 Y99.444 E58.4465 F1700
G1 X91.023 Y96.853 E58.5334 F1700
G1 X91.562 Y94.263 E58.6207 F1700
G1 X92.156 Y91.673 E58.7084 F1700
G1 X92.810 Y89.083 E58.7966 F1700
G1 X93.532 Y86.492 E58.8853 F1700
G1 X94.337 Y83.902 E58.9748 F1700
G1 X95.249 Y81.312 E59.0655 F1700
G1 X96.315 Y78.722 E59.1579 F1700
G1 X97.997 Y76.132 E59.2598 F1700
G1 X101.353 Y73.541 E59.3997 F1700
G1 X110.000 Y70.951 E59.6976 F1700
G1 X110.000 Y70.951 E59.6976 F1700
;LAYER:6
G1 X110.000 Y70.239 Z2.100 F6000
G1 X118.822 Y72.865 E60.0013 F1700
G1 X122.246 Y75.492 E60.1437 F1700
G1 X123.963 Y78.118 E60.2473 F1700
G1 X125.050 Y80.744 E60.3411 F1700
G1 X125.980 Y83.371 E60.4330 F1700
G1 X126.801 Y85.997 E60.5238 F1700
G1 X127.538 Y88.623 E60.6138 F1700
G1 X128.205 Y91.250 E60.7033 F1700
G1 X128.811 Y93.876 E60.7922 F1700
G1 X129.361 Y96.503 E60.8808 F1700
G1 X129.857 Y99.129 E60.9690 F1700
G1 X130.302 Y101.755 E61.0569 F1700
G1 X130.694 Y104.382 E61.1445 F1700
G1 X131.035 Y107.008 E61.2319 F1700
G1 X131.322 Y109.634 E61.3191 F1700
G1 X131.555 Y112.261 E61.4061 F1700
G1 X131.732 Y114.887 E61.4930 F1700
G1 X131.852 Y117.513 E61.5797 F1700
G1 X131.913 Y120.140 E61.6664 F1700
G1 X131.913 Y122.766 E61.7531 F1700
G1 X131.851 Y125.392 E61.8398 F1700
G1 X131.726 Y128.019 E61.9265 F1700
G1 X131.536 Y130.645 E62.0134 F1700
G1 X131.280 Y133.271 E62.1005 F1700
G1 X130.957 Y135.898 E62.1878 F1700
G1 X130.566 Y138.524 E62.2755 F1700
G1 X130.108 Y141.150 E62.3634 F1700
G1 X129.581 Y143.777 E62.4518 F1700
G1 X128.987 Y146.403 E62.5407 F1700
G1 X128.326 Y149.030 E62.6301 F1700
G1 X127.598 Y151.656 E62.7200 F1700
G1 X126.808 Y154.282 E62.8105 F1700
G1 X125.962 Y156.909 E62.9016 F1700
G1 X125.062 Y159.535 E62.9932 F1700
G1 X124.109 Y162.161 E63.0854 F1700
G1 X123.104 Y164.788 E63.1782 F1700
G1 X122.048 Y167.414 E63.2716 F1700
G1 X120.941 Y170.040 E63.3656 F1700
G1 X119.785 Y172.667 E63.4603 F1700
G1 X118.577 Y175.293 E63.5557 F1700
G1 X117.312 Y177.919 E63.6519 F1700
G1 X115.970 Y180.546 E63.7493 F1700
G1 X114.473 Y183.172 E63.8490 F1700
G1 X110.002 Y185.798 E64.0201 F1700
G1 X109.998 Y185.798 E64.0203 F1700
G1 X105.527 Y183.172 E64.1914 F1700
G1 X104.030 Y180.546 E64.2912 F1700
G1 X102.688 Y177.919 E64.3885 F1700
G1 X101.423 Y175.293 E64.4847 F1700
G1 X100.215 Y172.667 E64.5801 F1700
G1 X99.059 Y170.040 E64.6748 F1700
G1 X97.952 Y167.414 E64.7688 F1700
G1 X96.896 Y164.788 E64.8622 F1700
G1 X95.891 Y162.161 E64.9550 F1700
G1 X94.938 Y159.535 E65.0472 F1700
G1 X94.038 Y156.909 E65.1389 F1700
G1 X93.192 Y154.282 E65.2299 F1700
G1 X92.402 Y151.656 E65.3204 F1700
G1 X91.674 Y149.030 E65.4104 F1700
G1 X91.013 Y146.403 E65.4997 F1700
G1 X90.419 Y143.777 E65.5886 F1700
G1 X89.892 Y141.150 E65.6770 F1700
G1 X89.434 Y138.524 E65.7650 F1700
G1 X89.043 Y135.898 E65.8526 F1700
G1 X88.720 Y133.271 E65.9399 F1700
G1 X88.464 Y130.645 E66.0270 F1700
G1 X88.274 Y128.019 E66.1139 F1700
G1 X88.149 Y125.392 E66.2007 F1700
G1 X88.087 Y122.766 E66.2873 F1700
G1 X88.087 Y120.140 E66.3740 F1700
G1 X88.148 Y117.513 E66.4607 F1700
G1 X88.268 Y114.887 E66.5475 F1700
G1 X88.445 Y112.261 E66.6343 F1700
G1 X88.678 Y109.634 E66.7213 F1700
G1 X88.965 Y107.008 E66.8085 F1700
G1 X89.306 Y104.382 E66.8959 F1700
G1 X89.698 Y101.755 E66.9836 F1700
G1 X90.143 Y99.129 E67.0715 F1700
G1 X90.639 Y96.503 E67.1597 F1700
G1 X91.189 Y93.876 E67.2482 F1700
G1 X91.795 Y91.250 E67.3372 F1700
G1 X92.462 Y88.623 E67.4266 F1700
G1 X93.199 Y85.997 E67.5166 F1700
G1 X94.020 Y83.371 E67.6074 F1700
G1 X94.950 Y80.744 E67.6993 F1700
G1 X96.037 Y78.118 E67.7932 F1700
G1 X97.754 Y75.492 E67.8967 F1700
G1 X101.178 Y72.865 E68.0391 F1700
G1 X110.000 Y70.239 E68.3428 F1700
G1 X110.000 Y70.239 E68.3428 F1700
G1 X82.000 Y104.000 Z2.100 F6000
G1 X138.000 Y104.000 E70.1908 F2600
G1 X82.000 Y122.000 Z2.100 F6000
G1 X138.000 Y122.000 E72.0388 F2600
G1 X82.000 Y140.000 Z2.100 F6000
G1 X138.000 Y140.000 E73.8868 F2600
;LAYER:7
G1 X110.000 Y69.571 Z2.400 F6000
G1 X118.983 Y72.232 E74.1960 F1700
G1 X122.470 Y74.892 E74.3408 F1700
G1 X124.219 Y77.552 E74.4458 F1700
G1 X125.326 Y80.212 E74.5409 F1700
G1 X126.273 Y82.873 E74.6341 F1700
G1 X127.109 Y85.533 E74.7261 F1700
G1 X127.860 Y88.193 E74.8173 F1700
G1 X128.539 Y90.853 E74.9079 F1700
G1 X129.156 Y93.513 E74.9980 F1700
G1 X129.716 Y96.174 E75.0877 F1700
G1 X130.222 Y98.834 E75.1771 F1700
G1 X130.674 Y101.494 E75.2662 F1700
G1 X131.074 Y104.154 E75.3549 F1700
G1 X131.420 Y106.815 E75.4435 F1700
G1 X131.713 Y109.475 E75.5318 F1700
G1 X131.950 Y112.135 E75.6199 F1700
G1 X132.131 Y114.795 E75.7079 F1700
G1 X132.253 Y117.455 E75.7958 F1700
G1 X132.315 Y120.116 E75.8836 F1700
G1 X132.315 Y122.776 E75.9714 F1700
G1 X132.252 Y125.436 E76.0592 F1700
G1 X132.125 Y128.096 E76.1471 F1700
G1 X131.931 Y130.757 E76.2351 F1700
G1 X131.670 Y133.417 E76.3233 F1700
G1 X131.341 Y136.077 E76.4118 F1700
G1 X130.943 Y138.737 E76.5005 F1700
G1 X130.477 Y141.397 E76.5897 F1700
G1 X129.940 Y144.058 E76.6792 F1700
G1 X129.335 Y146.718 E76.7692 F1700
G1 X128.662 Y149.378 E76.8598 F1700
G1 X127.921 Y152.038 E76.9509 F1700
G1 X127.116 Y154.699 E77.0426 F1700
G1 X126.254 Y157.359 E77.1349 F1700
G1 X125.338 Y160.019 E77.2278 F1700
G1 X124.368 Y162.679 E77.3212 F1700
G1 X123.344 Y165.340 E77.4153 F1700
G1 X122.269 Y168.000 E77.5100 F1700
G1 X121.142 Y170.660 E77.6053 F1700
G1 X119.964 Y173.320 E77.7013 F1700
G1 X118.734 Y175.980 E77.7980 F1700
G1 X117.446 Y178.641 E77.8956 F1700
G1 X116.080 Y181.301 E77.9943 F1700
G1 X114.555 Y183.961 E78.0954 F1700
G1 X110.002 Y186.621 E78.2694 F1700
G1 X109.998 Y186.621 E78.2696 F1700
G1 X105.445 Y183.961 E78.4436 F1700
G1 X103.920 Y181.301 E78.5448 F1700
G1 X102.554 Y178.641 E78.6435 F1700
G1 X101.266 Y175.980 E78.7410 F1700
G1 X100.036 Y173.320 E78.8377 F1700
G1 X98.858 Y170.660 E78.9337 F1700
G1 X97.731 Y168.000 E79.0291 F1700
G1 X96.656 Y165.340 E79.1238 F1700
G1 X95.632 Y162.679 E79.2178 F1700
G1 X94.662 Y160.019 E79.3113 F1700
G1 X93.746 Y157.359 E79.4041 F1700
G1 X92.884 Y154.699 E79.4964 F1700
G1 X92.079 Y152.038 E79.5881 F1700
G1 X91.338 Y149.378 E79.6792 F1700
G1 X90.665 Y146.718 E79.7698 F1700
G1 X90.060 Y144.058 E79.8598 F1700
G1 X89.523 Y141.397 E79.9494 F1700
G1 X89.057 Y138.737 E80.0385 F1700
G1 X88.659 Y136.077 E80.1273 F1700
G1 X88.330 Y133.417 E80.2157 F1700
G1 X88.069 Y130.757 E80.3039 F1700
G1 X87.875 Y128.096 E80.3920 F1700
G1 X87.748 Y125.436 E80.4798 F1700
G1 X87.685 Y122.776 E80.5677 F1700
G1 X87.685 Y120.116 E80.6554 F1700
G1 X87.747 Y117.455 E80.7433 F1700
G1 X87.869 Y114.795 E80.8311 F1700
G1 X88.050 Y112.135 E80.9191 F1700
G1 X88.287 Y109.475 E81.0073 F1700
G1 X88.580 Y106.815 E81.0956 F1700
G1 X88.926 Y104.154 E81.1841 F1700
G1 X89.326 Y101.494 E81.2729 F1700
G1 X89.778 Y98.834 E81.3619 F1700
G1 X90.284 Y96.174 E81.4513 F1700
G1 X90.844 Y93.513 E81.5410 F1700
G1 X91.461 Y90.853 E81.6311 F1700
G1 X92.140 Y88.193 E81.7217 F1700
G1 X92.891 Y85.533 E81.8129 F1700
G1 X93.727 Y82.873 E81.9050 F1700
G1 X94.674 Y80.212 E81.9981 F1700
G1 X95.781 Y77.552 E82.0932 F1700
G1 X97.530 Y74.892 E82.1983 F1700
G1 X101.017 Y72.232 E82.3430 F1700
G1 X110.000 Y69.571 E82.6522 F1700
G1 X110.000 Y69.571 E82.6522 F1700
;LAYER:8
G1 X110.000 Y68.940 Z2.700 F6000
G1 X119.134 Y71.633 E82.9665 F1700
G1 X122.680 Y74.325 E83.1134 F1700
G1 X124.458 Y77.017 E83.2198 F1700
G1 X125.584 Y79.709 E83.3161 F1700
G1 X126.547 Y82.402 E83.4105 F1700
G1 X127.397 Y85.094 E83.5037 F1700
G1 X128.160 Y87.786 E83.5960 F1700
G1 X128.851 Y90.478 E83.6877 F1700
G1 X129.478 Y93.171 E83.7789 F1700
G1 X130.048 Y95.863 E83.8698 F1700
G1 X130.562 Y98.555 E83.9602 F1700
G1 X131.022 Y101.247 E84.0503 F1700
G1 X131.428 Y103.940 E84.1402 F1700
G1 X131.780 Y106.632 E84.2298 F1700
G1 X132.078 Y109.324 E84.3192 F1700
G1 X132.319 Y112.016 E84.4084 F1700
G1 X132.503 Y114.709 E84.4974 F1700
G1 X132.627 Y117.401 E84.5864 F1700
G1 X132.690 Y120.093 E84.6752 F1700
G1 X132.690 Y122.785 E84.7641 F1700
G1 X132.626 Y125.477 E84.8529 F1700
G1 X132.496 Y128.170 E84.9419 F1700
G1 X132.300 Y130.862 E85.0310 F1700
G1 X132.034 Y133.554 E85.1202 F1700
G1 X131.700 Y136.246 E85.2098 F1700
G1 X131.295 Y138.939 E85.2996 F1700
G1 X130.821 Y141.631 E85.3898 F1700
G1 X130.276 Y144.323 E85.4805 F1700
G1 X129.660 Y147.015 E85.5716 F1700
G1 X128.976 Y149.708 E85.6633 F1700
G1 X128.222 Y152.400 E85.7555 F1700
G1 X127.404 Y155.092 E85.8484 F1700
G1 X126.528 Y157.784 E85.9418 F1700
G1 X125.596 Y160.477 E86.0358 F1700
G1 X124.609 Y163.169 E86.1305 F1700
G1 X123.569 Y165.861 E86.2257 F1700
G1 X122.475 Y168.553 E86.3216 F1700
G1 X121.329 Y171.246 E86.4182 F1700
G1 X120.132 Y173.938 E86.5154 F1700
G1 X118.881 Y176.630 E86.6134 F1700
G1 X117.571 Y179.322 E86.7122 F1700
G1 X116.182 Y182.015 E86.8121 F1700
G1 X114.632 Y184.707 E86.9147 F1700
G1 X110.002 Y187.399 E87.0914 F1700
G1 X109.998 Y187.399 E87.0915 F1700
G1 X105.368 Y184.707 E87.2683 F1700
G1 X103.818 Y182.015 E87.3708 F1700
G1 X102.429 Y179.322 E87.4708 F1700
G1 X101.119 Y176.630 E87.5696 F1700
G1 X99.868 Y173.938 E87.6675 F1700
G1 X98.671 Y171.246 E87.7648 F1700
G1 X97.525 Y168.553 E87.8613 F1700
G1 X96.431 Y165.861 E87.9572 F1700
G1 X95.391 Y163.169 E88.0525 F1700
G1 X94.404 Y160.477 E88.1471 F1700
G1 X93.472 Y157.784 E88.2411 F1700
G1 X92.596 Y155.092 E88.3345 F1700
G1 X91.778 Y152.400 E88.4274 F1700
G1 X91.024 Y149.708 E88.5196 F1700
G1 X90.340 Y147.015 E88.6113 F1700
G1 X89.724 Y144.323 E88.7024 F1700
G1 X89.179 Y141.631 E88.7931 F1700
G1 X88.705 Y138.939 E88.8833 F1700
G1 X88.300 Y136.246 E88.9731 F1700
G1 X87.966 Y133.554 E89.0627 F1700
G1 X87.700 Y130.862 E89.1519 F1700
G1 X87.504 Y128.170 E89.2410 F1700
G1 X87.374 Y125.477 E89.3300 F1700
G1 X87.310 Y122.785 E89.4188 F1700
G1 X87.310 Y120.093 E89.5077 F1700
G1 X87.373 Y117.401 E89.5966 F1700
G1 X87.497 Y114.709 E89.6855 F1700
G1 X87.681 Y112.016 E89.7745 F1700
G1 X87.922 Y109.324 E89.8637 F1700
G1 X88.220 Y106.632 E89.9531 F1700
G1 X88.572 Y103.940 E90.0427 F1700
G1 X88.978 Y101.247 E90.1326 F1700
G1 X89.438 Y98.555 E90.2227 F1700
G1 X89.952 Y95.863 E90.3132 F1700
G1 X90.522 Y93.171 E90.4040 F1700
G1 X91.149 Y90.478 E90.4952 F1700
G1 X91.840 Y87.786 E90.5869 F1700
G1 X92.603 Y85.094 E90.6793 F1700
G1 X93.453 Y82.402 E90.7724 F1700
G1 X94.416 Y79.709 E90.8668 F1700
G1 X95.542 Y77.017 E90.9631 F1700
G1 X97.320 Y74.325 E91.0696 F1700
G1 X100.866 Y71.633 E91.2165 F1700
G1 X110.000 Y68.940 E91.5307 F1700
G1 X110.000 Y68.940 E91.5307 F1700
;LAYER:9
G1 X110.000 Y68.340 Z3.000 F6000
G1 X119.277 Y71.063 E91.8498 F1700
G1 X122.877 Y73.786 E91.9987 F1700
G1 X124.682 Y76.508 E92.1065 F1700
G1 X125.826 Y79.231 E92.2040 F1700
G1 X126.804 Y81.954 E92.2995 F1700
G1 X127.667 Y84.676 E92.3937 F1700
G1 X128.442 Y87.399 E92.4871 F1700
G1 X129.144 Y90.122 E92.5799 F1700
G1 X129.781 Y92.844 E92.6722 F1700
G1 X130.359 Y95.567 E92.7640 F1700
G1 X130.881 Y98.290 E92.8555 F1700
G1 X131.348 Y101.013 E92.9467 F1700
G1 X131.761 Y103.735 E93.0376 F1700
G1 X132.119 Y106.458 E93.1282 F1700
G1 X132.421 Y109.181 E93.2186 F1700
G1 X132.666 Y111.903 E93.3088 F1700
G1 X132.852 Y114.626 E93.3989 F1700
G1 X132.978 Y117.349 E93.4888 F1700
G1 X133.043 Y120.071 E93.5787 F1700
G1 X133.043 Y122.794 E93.6685 F1700
G1 X132.978 Y125.517 E93.7584 F1700
G1 X132.846 Y128.240 E93.8484 F1700
G1 X132.646 Y130.962 E93.9384 F1700
G1 X132.377 Y133.685 E94.0287 F1700
G1 X132.037 Y136.408 E94.1193 F1700
G1 X131.627 Y139.130 E94.2101 F1700
G1 X131.144 Y141.853 E94.3014 F1700
G1 X130.591 Y144.576 E94.3931 F1700
G1 X129.966 Y147.298 E94.4853 F1700
G1 X129.271 Y150.021 E94.5780 F1700
G1 X128.506 Y152.744 E94.6713 F1700
G1 X127.674 Y155.466 E94.7653 F1700
G1 X126.784 Y158.189 E94.8598 F1700
G1 X125.838 Y160.912 E94.9549 F1700
G1 X124.836 Y163.635 E95.0507 F1700
G1 X123.780 Y166.357 E95.1470 F1700
G1 X122.669 Y169.080 E95.2441 F1700
G1 X121.506 Y171.803 E95.3418 F1700
G1 X120.289 Y174.525 E95.4402 F1700
G1 X119.019 Y177.248 E95.5393 F1700
G1 X117.689 Y179.971 E95.6393 F1700
G1 X116.278 Y182.693 E95.7405 F1700
G1 X114.704 Y185.416 E95.8443 F1700
G1 X110.002 Y188.139 E96.0236 F1700
G1 X109.998 Y188.139 E96.0237 F1700
G1 X105.296 Y185.416 E96.2030 F1700
G1 X103.722 Y182.693 E96.3068 F1700
G1 X102.311 Y179.971 E96.4080 F1700
G1 X100.981 Y177.248 E96.5080 F1700
G1 X99.711 Y174.525 E96.6072 F1700
G1 X98.494 Y171.803 E96.7056 F1700
G1 X97.331 Y169.080 E96.8033 F1700
G1 X96.220 Y166.357 E96.9003 F1700
G1 X95.164 Y163.635 E96.9967 F1700
G1 X94.162 Y160.912 E97.0924 F1700
G1 X93.216 Y158.189 E97.1875 F1700
G1 X92.326 Y155.466 E97.2821 F1700
G1 X91.494 Y152.744 E97.3760 F1700
G1 X90.729 Y150.021 E97.4693 F1700
G1 X90.034 Y147.298 E97.5621 F1700
G1 X89.409 Y144.576 E97.6543 F1700
G1 X88.856 Y141.853 E97.7460 F1700
G1 X88.373 Y139.130 E97.8372 F1700
G1 X87.963 Y136.408 E97.9281 F1700
G1 X87.623 Y133.685 E98.0186 F1700
G1 X87.354 Y130.962 E98.1089 F1700
G1 X87.154 Y128.240 E98.1990 F1700
G1 X87.022 Y125.517 E98.2889 F1700
G1 X86.957 Y122.794 E98.3788 F1700
G1 X86.957 Y120.071 E98.4687 F1700
G1 X87.022 Y117.349 E98.5585 F1700
G1 X87.148 Y114.626 E98.6485 F1700
G1 X87.334 Y111.903 E98.7385 F1700
G1 X87.579 Y109.181 E98.8288 F1700
G1 X87.881 Y106.458 E98.9192 F1700
G1 X88.239 Y103.735 E99.0098 F1700
G1 X88.652 Y101.013 E99.1007 F1700
G1 X89.119 Y98.290 E99.1918 F1700
G1 X89.641 Y95.567 E99.2833 F1700
G1 X90.219 Y92.844 E99.3752 F1700
G1 X90.856 Y90.122 E99.4674 F1700
G1 X91.558 Y87.399 E99.5602 F1700
G1 X92.333 Y84.676 E99.6536 F1700
G1 X93.196 Y81.954 E99.7479 F1700
G1 X94.174 Y79.231 E99.8434 F1700
G1 X95.318 Y76.508 E99.9408 F1700
G1 X97.123 Y73.786 E100.0486 F1700
G1 X100.723 Y71.063 E100.1976 F1700
G1 X110.000 Y68.340 E100.5166 F1700
G1 X110.000 Y68.340 E100.5166 F1700
G1 X82.000 Y104.000 Z3.000 F6000
G1 X138.000 Y104.000 E102.3646 F2600
G1 X82.000 Y122.000 Z3.000 F6000
G1 X138.000 Y122.000 E104.2126 F2600
G1 X82.000 Y140.000 Z3.000 F6000
G1 X138.000 Y140.000 E106.0606 F2600
;LAYER:10
G1 X110.000 Y67.767 Z3.300 F6000
G1 X119.411 Y70.518 E106.3842 F1700
G1 X123.064 Y73.270 E106.5351 F1700
G1 X124.895 Y76.022 E106.6442 F1700
G1 X126.055 Y78.774 E106.7427 F1700
G1 X127.048 Y81.526 E106.8393 F1700
G1 X127.923 Y84.277 E106.9346 F1700
G1 X128.709 Y87.029 E107.0290 F1700
G1 X129.421 Y89.781 E107.1228 F1700
G1 X130.068 Y92.533 E107.2161 F1700
G1 X130.654 Y95.285 E107.3089 F1700
G1 X131.184 Y98.036 E107.4014 F1700
G1 X131.658 Y100.788 E107.4936 F1700
G1 X132.077 Y103.540 E107.5854 F1700
G1 X132.440 Y106.292 E107.6770 F1700
G1 X132.746 Y109.044 E107.7684 F1700
G1 X132.995 Y111.795 E107.8596 F1700
G1 X133.184 Y114.547 E107.9506 F1700
G1 X133.311 Y117.299 E108.0415 F1700
G1 X133.376 Y120.051 E108.1323 F1700
G1 X133.377 Y122.803 E108.2231 F1700
G1 X133.311 Y125.554 E108.3140 F1700
G1 X133.177 Y128.306 E108.4049 F1700
G1 X132.974 Y131.058 E108.4959 F1700
G1 X132.701 Y133.810 E108.5872 F1700
G1 X132.357 Y136.562 E108.6787 F1700
G1 X131.940 Y139.313 E108.7706 F1700
G1 X131.451 Y142.065 E108.8628 F1700
G1 X130.889 Y144.817 E108.9555 F1700
G1 X130.255 Y147.569 E109.0487 F1700
G1 X129.550 Y150.321 E109.1424 F1700
G1 X128.774 Y153.072 E109.2368 F1700
G1 X127.930 Y155.824 E109.3317 F1700
G1 X127.028 Y158.576 E109.4273 F1700
G1 X126.068 Y161.328 E109.5235 F1700
G1 X125.051 Y164.080 E109.6203 F1700
G1 X123.979 Y166.831 E109.7178 F1700
G1 X122.853 Y169.583 E109.8159 F1700
G1 X121.672 Y172.335 E109.9147 F1700
G1 X120.439 Y175.087 E110.0142 F1700
G1 X119.150 Y177.839 E110.1145 F1700
G1 X117.800 Y180.591 E110.2156 F1700
G1 X116.369 Y183.342 E110.3180 F1700
G1 X114.772 Y186.094 E110.4230 F1700
G1 X110.002 Y188.846 E110.6047 F1700
G1 X109.998 Y188.846 E110.6048 F1700
G1 X105.228 Y186.094 E110.7866 F1700
G1 X103.631 Y183.342 E110.8916 F1700
G1 X102.200 Y180.591 E110.9939 F1700
G1 X100.850 Y177.839 E111.0951 F1700
G1 X99.561 Y175.087 E111.1953 F1700
G1 X98.328 Y172.335 E111.2949 F1700
G1 X97.147 Y169.583 E111.3937 F1700
G1 X96.021 Y166.831 E111.4918 F1700
G1 X94.949 Y164.080 E111.5892 F1700
G1 X93.932 Y161.328 E111.6861 F1700
G1 X92.972 Y158.576 E111.7822 F1700
G1 X92.070 Y155.824 E111.8778 F1700
G1 X91.226 Y153.072 E111.9728 F1700
G1 X90.450 Y150.321 E112.0671 F1700
G1 X89.745 Y147.569 E112.1609 F1700
G1 X89.111 Y144.817 E112.2541 F1700
G1 X88.549 Y142.065 E112.3467 F1700
G1 X88.060 Y139.313 E112.4390 F1700
G1 X87.643 Y136.562 E112.5308 F1700
G1 X87.299 Y133.810 E112.6223 F1700
G1 X87.026 Y131.058 E112.7136 F1700
G1 X86.823 Y128.306 E112.8047 F1700
G1 X86.689 Y125.554 E112.8956 F1700
G1 X86.623 Y122.803 E112.9864 F1700
G1 X86.624 Y120.051 E113.0772 F1700
G1 X86.689 Y117.299 E113.1680 F1700
G1 X86.816 Y114.547 E113.2590 F1700
G1 X87.005 Y111.795 E113.3500 F1700
G1 X87.254 Y109.044 E113.4412 F1700
G1 X87.560 Y106.292 E113.5325 F1700
G1 X87.923 Y103.540 E113.6241 F1700
G1 X88.342 Y100.788 E113.7160 F1700
G1 X88.816 Y98.036 E113.8081 F1700
G1 X89.346 Y95.285 E113.9006 F1700
G1 X89.932 Y92.533 E113.9935 F1700
G1 X90.579 Y89.781 E114.0867 F1700
G1 X91.291 Y87.029 E114.1805 F1700
G1 X92.077 Y84.277 E114.2750 F1700
G1 X92.952 Y81.526 E114.3703 F1700
G1 X93.945 Y78.774 E114.4668 F1700
G1 X95.105 Y76.022 E114.5654 F1700
G1 X96.936 Y73.270 E114.6744 F1700
G1 X100.589 Y70.518 E114.8254 F1700
G1 X110.000 Y67.767 E115.1489 F1700
G1 X110.000 Y67.767 E115.1489 F1700
;LAYER:11
G1 X110.000 Y67.216 Z3.600 F6000
G1 X119.539 Y69.996 E115.4768 F1700
G1 X123.241 Y72.775 E115.6296 F1700
G1 X125.098 Y75.555 E115.7399 F1700
G1 X126.273 Y78.335 E115.8395 F1700
G1 X127.279 Y81.115 E115.9370 F1700
G1 X128.167 Y83.894 E116.0333 F1700
G1 X128.964 Y86.674 E116.1288 F1700
G1 X129.685 Y89.454 E116.2235 F1700
G1 X130.340 Y92.234 E116.3178 F1700
G1 X130.935 Y95.013 E116.4116 F1700
G1 X131.472 Y97.793 E116.5050 F1700
G1 X131.952 Y100.573 E116.5981 F1700
G1 X132.376 Y103.353 E116.6909 F1700
G1 X132.744 Y106.132 E116.7834 F1700
G1 X133.055 Y108.912 E116.8757 F1700
G1 X133.307 Y111.692 E116.9678 F1700
G1 X133.499 Y114.472 E117.0598 F1700
G1 X133.628 Y117.251 E117.1516 F1700
G1 X133.694 Y120.031 E117.2434 F1700
G1 X133.694 Y122.811 E117.3351 F1700
G1 X133.628 Y125.591 E117.4269 F1700
G1 X133.492 Y128.370 E117.5187 F1700
G1 X133.287 Y131.150 E117.6107 F1700
G1 X133.010 Y133.930 E117.7029 F1700
G1 X132.660 Y136.709 E117.7953 F1700
G1 X132.238 Y139.489 E117.8881 F1700
G1 X131.742 Y142.269 E117.9813 F1700
G1 X131.173 Y145.049 E118.0749 F1700
G1 X130.530 Y147.828 E118.1691 F1700
G1 X129.815 Y150.608 E118.2638 F1700
G1 X129.029 Y153.388 E118.3591 F1700
G1 X128.174 Y156.168 E118.4551 F1700
G1 X127.259 Y158.947 E118.5517 F1700
G1 X126.286 Y161.727 E118.6489 F1700
G1 X125.256 Y164.507 E118.7467 F1700
G1 X124.169 Y167.287 E118.8452 F1700
G1 X123.027 Y170.066 E118.9443 F1700
G1 X121.831 Y172.846 E119.0442 F1700
G1 X120.580 Y175.626 E119.1448 F1700
G1 X119.274 Y178.406 E119.2462 F1700
G1 X117.906 Y181.185 E119.3484 F1700
G1 X116.455 Y183.965 E119.4519 F1700
G1 X114.837 Y186.745 E119.5580 F1700
G1 X110.002 Y189.525 E119.7420 F1700
G1 X109.998 Y189.525 E119.7422 F1700
G1 X105.163 Y186.745 E119.9262 F1700
G1 X103.545 Y183.965 E120.0324 F1700
G1 X102.094 Y181.185 E120.1359 F1700
G1 X100.726 Y178.406 E120.2381 F1700
G1 X99.420 Y175.626 E120.3394 F1700
G1 X98.169 Y172.846 E120.4400 F1700
G1 X96.973 Y170.066 E120.5399 F1700
G1 X95.831 Y167.287 E120.6391 F1700
G1 X94.744 Y164.507 E120.7376 F1700
G1 X93.714 Y161.727 E120.8354 F1700
G1 X92.741 Y158.947 E120.9326 F1700
G1 X91.826 Y156.168 E121.0291 F1700
G1 X90.971 Y153.388 E121.1251 F1700
G1 X90.185 Y150.608 E121.2205 F1700
G1 X89.470 Y147.828 E121.3152 F1700
G1 X88.827 Y145.049 E121.4093 F1700
G1 X88.258 Y142.269 E121.5030 F1700
G1 X87.762 Y139.489 E121.5961 F1700
G1 X87.340 Y136.709 E121.6889 F1700
G1 X86.990 Y133.930 E121.7814 F1700
G1 X86.713 Y131.150 E121.8736 F1700
G1 X86.508 Y128.370 E121.9655 F1700
G1 X86.372 Y125.591 E122.0574 F1700
G1 X86.306 Y122.811 E122.1491 F1700
G1 X86.306 Y120.031 E122.2409 F1700
G1 X86.372 Y117.251 E122.3326 F1700
G1 X86.501 Y114.472 E122.4245 F1700
G1 X86.693 Y111.692 E122.5164 F1700
G1 X86.945 Y108.912 E122.6085 F1700
G1 X87.256 Y106.132 E122.7008 F1700
G1 X87.624 Y103.353 E122.7933 F1700
G1 X88.048 Y100.573 E122.8861 F1700
G1 X88.528 Y97.793 E122.9792 F1700
G1 X89.065 Y95.013 E123.0727 F1700
G1 X89.660 Y92.234 E123.1665 F1700
G1 X90.315 Y89.454 E123.2607 F1700
G1 X91.036 Y86.674 E123.3555 F1700
G1 X91.833 Y83.894 E123.4509 F1700
G1 X92.721 Y81.115 E123.5472 F1700
G1 X93.727 Y78.335 E123.6448 F1700
G1 X94.902 Y75.555 E123.7444 F1700
G1 X96.759 Y72.775 E123.8547 F1700
G1 X100.461 Y69.996 E124.0074 F1700
G1 X110.000 Y67.216 E124.3353 F1700
G1 X110.000 Y67.216 E124.3353 F1700
;LAYER:12
G1 X110.000 Y66.685 Z3.900 F6000
G1 X119.661 Y69.492 E124.6673 F1700
G1 X123.411 Y72.299 E124.8219 F1700
G1 X125.291 Y75.105 E124.9334 F1700
G1 X126.482 Y77.912 E125.0340 F1700
G1 X127.501 Y80.719 E125.1325 F1700
G1 X128.400 Y83.525 E125.2298 F1700
G1 X129.206 Y86.332 E125.3261 F1700
G1 X129.937 Y89.139 E125.4218 F1700
G1 X130.601 Y91.945 E125.5170 F1700
G1 X131.203 Y94.752 E125.6117 F1700
G1 X131.746 Y97.559 E125.7061 F1700
G1 X132.233 Y100.365 E125.8001 F1700
G1 X132.663 Y103.172 E125.8938 F1700
G1 X133.036 Y105.979 E125.9872 F1700
G1 X133.350 Y108.785 E126.0804 F1700
G1 X133.605 Y111.592 E126.1734 F1700
G1 X133.799 Y114.399 E126.2663 F1700
G1 X133.931 Y117.205 E126.3590 F1700
G1 X133.997 Y120.012 E126.4516 F1700
G1 X133.998 Y122.819 E126.5442 F1700
G1 X133.930 Y125.625 E126.6369 F1700
G1 X133.793 Y128.432 E126.7296 F1700
G1 X133.585 Y131.239 E126.8225 F1700
G1 X133.304 Y134.045 E126.9156 F1700
G1 X132.950 Y136.852 E127.0089 F1700
G1 X132.523 Y139.659 E127.1026 F1700
G1 X132.021 Y142.465 E127.1967 F1700
G1 X131.444 Y145.272 E127.2913 F1700
G1 X130.793 Y148.079 E127.3863 F1700
G1 X130.069 Y150.885 E127.4820 F1700
G1 X129.272 Y153.692 E127.5783 F1700
G1 X128.406 Y156.498 E127.6752 F1700
G1 X127.480 Y159.305 E127.7727 F1700
G1 X126.495 Y162.112 E127.8709 F1700
G1 X125.451 Y164.918 E127.9697 F1700
G1 X124.351 Y167.725 E128.0692 F1700
G1 X123.194 Y170.532 E128.1694 F1700
G1 X121.982 Y173.338 E128.2702 F1700
G1 X120.716 Y176.145 E128.3719 F1700
G1 X119.393 Y178.952 E128.4743 F1700
G1 X118.008 Y181.758 E128.5775 F1700
G1 X116.538 Y184.565 E128.6821 F1700
G1 X114.899 Y187.372 E128.7894 F1700
G1 X110.002 Y190.178 E128.9756 F1700
G1 X109.998 Y190.178 E128.9757 F1700
G1 X105.101 Y187.372 E129.1620 F1700
G1 X103.462 Y184.565 E129.2692 F1700
G1 X101.992 Y181.758 E129.3738 F1700
G1 X100.607 Y178.952 E129.4771 F1700
G1 X99.284 Y176.145 E129.5795 F1700
G1 X98.018 Y173.338 E129.6811 F1700
G1 X96.806 Y170.532 E129.7820 F1700
G1 X95.649 Y167.725 E129.8821 F1700
G1 X94.549 Y164.918 E129.9816 F1700
G1 X93.505 Y162.112 E130.0804 F1700
G1 X92.520 Y159.305 E130.1786 F1700
G1 X91.594 Y156.498 E130.2761 F1700
G1 X90.728 Y153.692 E130.3731 F1700
G1 X89.931 Y150.885 E130.4693 F1700
G1 X89.207 Y148.079 E130.5650 F1700
G1 X88.556 Y145.272 E130.6601 F1700
G1 X87.979 Y142.465 E130.7546 F1700
G1 X87.477 Y139.659 E130.8487 F1700
G1 X87.050 Y136.852 E130.9424 F1700
G1 X86.696 Y134.045 E131.0358 F1700
G1 X86.415 Y131.239 E131.1288 F1700
G1 X86.207 Y128.432 E131.2217 F1700
G1 X86.070 Y125.625 E131.3144 F1700
G1 X86.002 Y122.819 E131.4071 F1700
G1 X86.003 Y120.012 E131.4997 F1700
G1 X86.069 Y117.205 E131.5924 F1700
G1 X86.201 Y114.399 E131.6851 F1700
G1 X86.395 Y111.592 E131.7779 F1700
G1 X86.650 Y108.785 E131.8709 F1700
G1 X86.964 Y105.979 E131.9641 F1700
G1 X87.337 Y103.172 E132.0576 F1700
G1 X87.767 Y100.365 E132.1513 F1700
G1 X88.254 Y97.559 E132.2453 F1700
G1 X88.797 Y94.752 E132.3396 F1700
G1 X89.399 Y91.945 E132.4343 F1700
G1 X90.063 Y89.139 E132.5295 F1700
G1 X90.794 Y86.332 E132.6252 F1700
G1 X91.600 Y83.525 E132.7216 F1700
G1 X92.499 Y80.719 E132.8188 F1700
G1 X93.518 Y77.912 E132.9174 F1700
G1 X94.709 Y75.105 E133.0180 F1700
G1 X96.589 Y72.299 E133.1295 F1700
G1 X100.339 Y69.492 E133.2840 F1700
G1 X110.000 Y66.685 E133.6160 F1700
G1 X110.000 Y66.685 E133.6160 F1700
G1 X82.000 Y104.000 Z3.900 F6000
G1 X138.000 Y104.000 E135.4640 F2600
G1 X82.000 Y122.000 Z3.900 F6000
G1 X138.000 Y122.000 E137.3120 F2600
G1 X82.000 Y140.000 Z3.900 F6000
G1 X138.000 Y140.000 E139.1600 F2600
;LAYER:13
G1 X110.000 Y66.173 Z4.200 F6000
G1 X119.778 Y69.006 E139.4960 F2400
G1 X123.573 Y71.838 E139.6522 F2400
G1 X125.476 Y74.671 E139.7648 F2400
G1 X126.681 Y77.504 E139.8664 F2400
G1 X127.713 Y80.336 E139.9659 F2400
G1 X128.622 Y83.169 E140.0641 F2400
G1 X129.439 Y86.002 E140.1614 F2400
G1 X130.179 Y88.834 E140.2580 F2400
G1 X130.850 Y91.667 E140.3541 F2400
G1 X131.460 Y94.500 E140.4497 F2400
G1 X132.010 Y97.332 E140.5449 F2400
G1 X132.502 Y100.165 E140.6398 F2400
G1 X132.938 Y102.998 E140.7344 F2400
G1 X133.315 Y105.830 E140.8287 F2400
G1 X133.633 Y108.663 E140.9227 F2400
G1 X133.891 Y111.496 E141.0166 F2400
G1 X134.088 Y114.328 E141.1103 F2400
G1 X134.221 Y117.161 E141.2039 F2400
G1 X134.288 Y119.994 E141.2974 F2400
G1 X134.288 Y122.826 E141.3909 F2400
G1 X134.220 Y125.659 E141.4844 F2400
G1 X134.081 Y128.491 E141.5779 F2400
G1 X133.870 Y131.324 E141.6717 F2400
G1 X133.586 Y134.157 E141.7656 F2400
G1 X133.228 Y136.989 E141.8598 F2400
G1 X132.796 Y139.822 E141.9544 F2400
G1 X132.287 Y142.655 E142.0494 F2400
G1 X131.704 Y145.487 E142.1448 F2400
G1 X131.045 Y148.320 E142.2408 F2400
G1 X130.312 Y151.153 E142.3373 F2400
G1 X129.506 Y153.985 E142.4345 F2400
G1 X128.629 Y156.818 E142.5324 F2400
G1 X127.692 Y159.651 E142.6309 F2400
G1 X126.694 Y162.483 E142.7300 F2400
G1 X125.638 Y165.316 E142.8297 F2400
G1 X124.524 Y168.149 E142.9302 F2400
G1 X123.354 Y170.981 E143.0313 F2400
G1 X122.127 Y173.814 E143.1332 F2400
G1 X120.846 Y176.647 E143.2358 F2400
G1 X119.507 Y179.479 E143.3392 F2400
G1 X118.105 Y182.312 E143.4435 F2400
G1 X116.617 Y185.144 E143.5491 F2400
G1 X114.958 Y187.977 E143.6574 F2400
G1 X110.002 Y190.810 E143.8457 F2400
G1 X109.998 Y190.810 E143.8459 F2400
G1 X105.042 Y187.977 E144.0343 F2400
G1 X103.383 Y185.144 E144.1426 F2400
G1 X101.895 Y182.312 E144.2482 F2400
G1 X100.493 Y179.479 E144.3525 F2400
G1 X99.154 Y176.647 E144.4559 F2400
G1 X97.873 Y173.814 E144.5585 F2400
G1 X96.646 Y170.981 E144.6603 F2400
G1 X95.476 Y168.149 E144.7615 F2400
G1 X94.362 Y165.316 E144.8619 F2400
G1 X93.306 Y162.483 E144.9617 F2400
G1 X92.308 Y159.651 E145.0608 F2400
G1 X91.371 Y156.818 E145.1593 F2400
G1 X90.494 Y153.985 E145.2571 F2400
G1 X89.688 Y151.153 E145.3543 F2400
G1 X88.955 Y148.320 E145.4509 F2400
G1 X88.296 Y145.487 E145.5468 F2400
G1 X87.713 Y142.655 E145.6423 F2400
G1 X87.204 Y139.822 E145.7372 F2400
G1 X86.772 Y136.989 E145.8318 F2400
G1 X86.414 Y134.157 E145.9260 F2400
G1 X86.130 Y131.324 E146.0200 F2400
G1 X85.919 Y128.491 E146.1137 F2400
G1 X85.780 Y125.659 E146.2073 F2400
G1 X85.712 Y122.826 E146.3008 F2400
G1 X85.712 Y119.994 E146.3943 F2400
G1 X85.779 Y117.161 E146.4878 F2400
G1 X85.912 Y114.328 E146.5814 F2400
G1 X86.109 Y111.496 E146.6751 F2400
G1 X86.367 Y108.663 E146.7689 F2400
G1 X86.685 Y105.830 E146.8630 F2400
G1 X87.062 Y102.998 E146.9573 F2400
G1 X87.498 Y100.165 E147.0519 F2400
G1 X87.990 Y97.332 E147.1468 F2400
G1 X88.540 Y94.500 E147.2420 F2400
G1 X89.150 Y91.667 E147.3376 F2400
G1 X89.821 Y88.834 E147.4337 F2400
G1 X90.561 Y86.002 E147.5303 F2400
G1 X91.378 Y83.169 E147.6276 F2400
G1 X92.287 Y80.336 E147.7257 F2400
G1 X93.319 Y77.504 E147.8252 F2400
G1 X94.524 Y74.671 E147.9268 F2400
G1 X96.427 Y71.838 E148.0394 F2400
G1 X100.222 Y69.006 E148.1957 F2400
G1 X110.000 Y66.173 E148.5316 F2400
G1 X110.000 Y66.173 E148.5316 F2400
;LAYER:14
G1 X110.000 Y65.677 Z4.500 F6000
G1 X119.890 Y68.535 E148.8714 F2400
G1 X123.729 Y71.393 E149.0293 F2400
G1 X125.654 Y74.251 E149.1430 F2400
G1 X126.873 Y77.108 E149.2455 F2400
G1 X127.916 Y79.966 E149.3459 F2400
G1 X128.837 Y82.824 E149.4450 F2400
G1 X129.663 Y85.682 E149.5432 F2400
G1 X130.411 Y88.540 E149.6407 F2400
G1 X131.090 Y91.397 E149.7376 F2400
G1 X131.707 Y94.255 E149.8341 F2400
G1 X132.263 Y97.113 E149.9302 F2400
G1 X132.761 Y99.971 E150.0259 F2400
G1 X133.201 Y102.829 E150.1213 F2400
G1 X133.583 Y105.687 E150.2165 F2400
G1 X133.905 Y108.544 E150.3114 F2400
G1 X134.166 Y111.402 E150.4061 F2400
G1 X134.365 Y114.260 E150.5006 F2400
G1 X134.499 Y117.118 E150.5950 F2400
G1 X134.568 Y119.976 E150.6893 F2400
G1 X134.568 Y122.834 E150.7837 F2400
G1 X134.499 Y125.691 E150.8780 F2400
G1 X134.358 Y128.549 E150.9724 F2400
G1 X134.145 Y131.407 E151.0670 F2400
G1 X133.858 Y134.265 E151.1618 F2400
G1 X133.496 Y137.123 E151.2568 F2400
G1 X133.058 Y139.980 E151.3522 F2400
G1 X132.544 Y142.838 E151.4481 F2400
G1 X131.954 Y145.696 E151.5444 F2400
G1 X131.287 Y148.554 E151.6412 F2400
G1 X130.546 Y151.412 E151.7386 F2400
G1 X129.730 Y154.270 E151.8367 F2400
G1 X128.844 Y157.127 E151.9354 F2400
G1 X127.895 Y159.985 E152.0348 F2400
G1 X126.887 Y162.843 E152.1348 F2400
G1 X125.818 Y165.701 E152.2355 F2400
G1 X124.692 Y168.559 E152.3369 F2400
G1 X123.507 Y171.416 E152.4390 F2400
G1 X122.267 Y174.274 E152.5418 F2400
G1 X120.970 Y177.132 E152.6453 F2400
G1 X119.616 Y179.990 E152.7497 F2400
G1 X118.198 Y182.848 E152.8550 F2400
G1 X116.693 Y185.706 E152.9615 F2400
G1 X115.015 Y188.563 E153.0709 F2400
G1 X110.002 Y191.421 E153.2613 F2400
G1 X109.998 Y191.421 E153.2615 F2400
G1 X104.985 Y188.563 E153.4519 F2400
G1 X103.307 Y185.706 E153.5613 F2400
G1 X101.802 Y182.848 E153.6678 F2400
G1 X100.384 Y179.990 E153.7731 F2400
G1 X99.030 Y177.132 E153.8775 F2400
G1 X97.733 Y174.274 E153.9811 F2400
G1 X96.493 Y171.416 E154.0839 F2400
G1 X95.308 Y168.559 E154.1859 F2400
G1 X94.182 Y165.701 E154.2873 F2400
G1 X93.113 Y162.843 E154.3880 F2400
G1 X92.105 Y159.985 E154.4880 F2400
G1 X91.156 Y157.127 E154.5874 F2400
G1 X90.270 Y154.270 E154.6861 F2400
G1 X89.454 Y151.412 E154.7842 F2400
G1 X88.713 Y148.554 E154.8816 F2400
G1 X88.046 Y145.696 E154.9785 F2400
G1 X87.456 Y142.838 E155.0748 F2400
G1 X86.942 Y139.980 E155.1706 F2400
G1 X86.504 Y137.123 E155.2660 F2400
G1 X86.142 Y134.265 E155.3610 F2400
G1 X85.855 Y131.407 E155.4558 F2400
G1 X85.642 Y128.549 E155.5504 F2400
G1 X85.501 Y125.691 E155.6448 F2400
G1 X85.432 Y122.834 E155.7392 F2400
G1 X85.432 Y119.976 E155.8335 F2400
G1 X85.501 Y117.118 E155.9278 F2400
G1 X85.635 Y114.260 E156.0222 F2400
G1 X85.834 Y111.402 E156.1168 F2400
G1 X86.095 Y108.544 E156.2115 F2400
G1 X86.417 Y105.687 E156.3064 F2400
G1 X86.799 Y102.829 E156.4015 F2400
G1 X87.239 Y99.971 E156.4969 F2400
G1 X87.737 Y97.113 E156.5927 F2400
G1 X88.293 Y94.255 E156.6887 F2400
G1 X88.910 Y91.397 E156.7852 F2400
G1 X89.589 Y88.540 E156.8821 F2400
G1 X90.337 Y85.682 E156.9796 F2400
G1 X91.163 Y82.824 E157.0778 F2400
G1 X92.084 Y79.966 E157.1769 F2400
G1 X93.127 Y77.108 E157.2773 F2400
G1 X94.346 Y74.251 E157.3798 F2400
G1 X96.271 Y71.393 E157.4935 F2400
G1 X100.110 Y68.535 E157.6514 F2400
G1 X110.000 Y65.677 E157.9912 F2400
G1 X110.000 Y65.677 E157.9912 F2400
;LAYER:15
G1 X110.000 Y65.196 Z4.800 F6000
G1 X119.999 Y68.078 E158.3346 F2400
G1 X123.880 Y70.960 E158.4941 F2400
G1 X125.826 Y73.842 E158.6089 F2400
G1 X127.059 Y76.725 E158.7123 F2400
G1 X128.113 Y79.607 E158.8136 F2400
G1 X129.043 Y82.489 E158.9135 F2400
G1 X129.878 Y85.371 E159.0126 F2400
G1 X130.635 Y88.254 E159.1109 F2400
G1 X131.322 Y91.136 E159.2087 F2400
G1 X131.945 Y94.018 E159.3060 F2400
G1 X132.507 Y96.900 E159.4029 F2400
G1 X133.011 Y99.783 E159.4995 F2400
G1 X133.456 Y102.665 E159.5957 F2400
G1 X133.842 Y105.547 E159.6917 F2400
G1 X134.167 Y108.429 E159.7874 F2400
G1 X134.431 Y111.312 E159.8829 F2400
G1 X134.632 Y114.194 E159.9782 F2400
G1 X134.768 Y117.076 E160.0735 F2400
G1 X134.837 Y119.958 E160.1686 F2400
G1 X134.837 Y122.841 E160.2637 F2400
G1 X134.767 Y125.723 E160.3589 F2400
G1 X134.625 Y128.605 E160.4541 F2400
G1 X134.410 Y131.487 E160.5495 F2400
G1 X134.120 Y134.370 E160.6451 F2400
G1 X133.753 Y137.252 E160.7409 F2400
G1 X133.311 Y140.134 E160.8372 F2400
G1 X132.791 Y143.016 E160.9338 F2400
G1 X132.194 Y145.899 E161.0309 F2400
G1 X131.521 Y148.781 E161.1286 F2400
G1 X130.771 Y151.663 E161.2269 F2400
G1 X129.947 Y154.545 E161.3258 F2400
G1 X129.051 Y157.428 E161.4254 F2400
G1 X128.092 Y160.310 E161.5257 F2400
G1 X127.072 Y163.192 E161.6266 F2400
G1 X125.992 Y166.074 E161.7281 F2400
G1 X124.853 Y168.957 E161.8304 F2400
G1 X123.656 Y171.839 E161.9334 F2400
G1 X122.402 Y174.721 E162.0371 F2400
G1 X121.091 Y177.603 E162.1416 F2400
G1 X119.722 Y180.486 E162.2469 F2400
G1 X118.288 Y183.368 E162.3532 F2400
G1 X116.767 Y186.250 E162.4607 F2400
G1 X115.070 Y189.132 E162.5711 F2400
G1 X110.002 Y192.015 E162.7635 F2400
G1 X109.998 Y192.015 E162.7636 F2400
G1 X104.930 Y189.132 E162.9560 F2400
G1 X103.233 Y186.250 E163.0664 F2400
G1 X101.712 Y183.368 E163.1739 F2400
G1 X100.278 Y180.486 E163.2802 F2400
G1 X98.909 Y177.603 E163.3855 F2400
G1 X97.598 Y174.721 E163.4899 F2400
G1 X96.344 Y171.839 E163.5937 F2400
G1 X95.147 Y168.957 E163.6967 F2400
G1 X94.008 Y166.074 E163.7989 F2400
G1 X92.928 Y163.192 E163.9005 F2400
G1 X91.908 Y160.310 E164.0014 F2400
G1 X90.949 Y157.428 E164.1016 F2400
G1 X90.053 Y154.545 E164.2012 F2400
G1 X89.229 Y151.663 E164.3002 F2400
G1 X88.479 Y148.781 E164.3985 F2400
G1 X87.806 Y145.899 E164.4961 F2400
G1 X87.209 Y143.016 E164.5933 F2400
G1 X86.689 Y140.134 E164.6899 F2400
G1 X86.247 Y137.252 E164.7861 F2400
G1 X85.880 Y134.370 E164.8820 F2400
G1 X85.590 Y131.487 E164.9776 F2400
G1 X85.375 Y128.605 E165.0730 F2400
G1 X85.233 Y125.723 E165.1682 F2400
G1 X85.163 Y122.841 E165.2634 F2400
G1 X85.163 Y119.958 E165.3585 F2400
G1 X85.232 Y117.076 E165.4536 F2400
G1 X85.368 Y114.194 E165.5488 F2400
G1 X85.569 Y111.312 E165.6442 F2400
G1 X85.833 Y108.429 E165.7397 F2400
G1 X86.158 Y105.547 E165.8354 F2400
G1 X86.544 Y102.665 E165.9314 F2400
G1 X86.989 Y99.783 E166.0276 F2400
G1 X87.493 Y96.900 E166.1242 F2400
G1 X88.055 Y94.018 E166.2211 F2400
G1 X88.678 Y91.136 E166.3184 F2400
G1 X89.365 Y88.254 E166.4162 F2400
G1 X90.122 Y85.371 E166.5145 F2400
G1 X90.957 Y82.489 E166.6135 F2400
G1 X91.887 Y79.607 E166.7135 F2400
G1 X92.941 Y76.725 E166.8148 F2400
G1 X94.174 Y73.842 E166.9182 F2400
G1 X96.120 Y70.960 E167.0330 F2400
G1 X100.001 Y68.078 E167.1925 F2400
G1 X110.000 Y65.196 E167.5359 F2400
G1 X110.000 Y65.196 E167.5359 F2400
G1 X82.000 Y104.000 Z4.800 F6000
G1 X138.000 Y104.000 E169.3839 F2600
G1 X82.000 Y122.000 Z4.800 F6000
G1 X138.000 Y122.000 E171.2319 F2600
G1 X82.000 Y140.000 Z4.800 F6000
G1 X138.000 Y140.000 E173.0799 F2600
;LAYER:16
G1 X110.000 Y64.728 Z5.100 F6000
G1 X120.104 Y67.634 E173.4268 F2400
G1 X124.025 Y70.540 E173.5879 F2400
G1 X125.992 Y73.446 E173.7037 F2400
G1 X127.237 Y76.352 E173.8080 F2400
G1 X128.303 Y79.258 E173.9102 F2400
G1 X129.243 Y82.164 E174.0110 F2400
G1 X130.087 Y85.070 E174.1108 F2400
G1 X130.851 Y87.976 E174.2100 F2400
G1 X131.545 Y90.882 E174.3086 F2400
G1 X132.175 Y93.788 E174.4067 F2400
G1 X132.743 Y96.694 E174.5044 F2400
G1 X133.252 Y99.600 E174.6018 F2400
G1 X133.702 Y102.506 E174.6988 F2400
G1 X134.092 Y105.412 E174.7956 F2400
G1 X134.421 Y108.318 E174.8921 F2400
G1 X134.687 Y111.224 E174.9884 F2400
G1 X134.890 Y114.130 E175.0845 F2400
G1 X135.028 Y117.036 E175.1805 F2400
G1 X135.097 Y119.942 E175.2764 F2400
G1 X135.098 Y122.848 E175.3723 F2400
G1 X135.027 Y125.754 E175.4683 F2400
G1 X134.884 Y128.660 E175.5643 F2400
G1 X134.666 Y131.566 E175.6605 F2400
G1 X134.372 Y134.472 E175.7568 F2400
G1 X134.002 Y137.378 E175.8535 F2400
G1 X133.555 Y140.284 E175.9505 F2400
G1 X133.030 Y143.190 E176.0480 F2400
G1 X132.427 Y146.096 E176.1459 F2400
G1 X131.746 Y149.002 E176.2444 F2400
G1 X130.989 Y151.908 E176.3435 F2400
G1 X130.156 Y154.814 E176.4433 F2400
G1 X129.250 Y157.720 E176.5437 F2400
G1 X128.281 Y160.626 E176.6448 F2400
G1 X127.251 Y163.532 E176.7466 F2400
G1 X126.159 Y166.438 E176.8490 F2400
G1 X125.008 Y169.344 E176.9522 F2400
G1 X123.799 Y172.250 E177.0560 F2400
G1 X122.532 Y175.156 E177.1606 F2400
G1 X121.207 Y178.062 E177.2660 F2400
G1 X119.824 Y180.968 E177.3722 F2400
G1 X118.375 Y183.874 E177.4794 F2400
G1 X116.838 Y186.780 E177.5879 F2400
G1 X115.123 Y189.685 E177.6992 F2400
G1 X110.002 Y192.591 E177.8935 F2400
G1 X109.998 Y192.591 E177.8937 F2400
G1 X104.877 Y189.685 E178.0880 F2400
G1 X103.162 Y186.780 E178.1993 F2400
G1 X101.625 Y183.874 E178.3078 F2400
G1 X100.176 Y180.968 E178.4150 F2400
G1 X98.793 Y178.062 E178.5212 F2400
G1 X97.468 Y175.156 E178.6266 F2400
G1 X96.201 Y172.250 E178.7312 F2400
G1 X94.992 Y169.344 E178.8351 F2400
G1 X93.841 Y166.438 E178.9382 F2400
G1 X92.749 Y163.532 E179.0406 F2400
G1 X91.719 Y160.626 E179.1424 F2400
G1 X90.750 Y157.720 E179.2435 F2400
G1 X89.844 Y154.814 E179.3439 F2400
G1 X89.011 Y151.908 E179.4437 F2400
G1 X88.254 Y149.002 E179.5428 F2400
G1 X87.573 Y146.096 E179.6413 F2400
G1 X86.970 Y143.190 E179.7392 F2400
G1 X86.445 Y140.284 E179.8367 F2400
G1 X85.998 Y137.378 E179.9337 F2400
G1 X85.628 Y134.472 E180.0304 F2400
G1 X85.334 Y131.566 E180.1268 F2400
G1 X85.116 Y128.660 E180.2229 F2400
G1 X84.973 Y125.754 E180.3189 F2400
G1 X84.902 Y122.848 E180.4149 F2400
G1 X84.903 Y119.942 E180.5108 F2400
G1 X84.972 Y117.036 E180.6067 F2400
G1 X85.110 Y114.130 E180.7027 F2400
G1 X85.313 Y111.224 E180.7988 F2400
G1 X85.579 Y108.318 E180.8951 F2400
G1 X85.908 Y105.412 E180.9916 F2400
G1 X86.298 Y102.506 E181.0884 F2400
G1 X86.748 Y99.600 E181.1854 F2400
G1 X87.257 Y96.694 E181.2828 F2400
G1 X87.825 Y93.788 E181.3805 F2400
G1 X88.455 Y90.882 E181.4786 F2400
G1 X89.149 Y87.976 E181.5772 F2400
G1 X89.913 Y85.070 E181.6764 F2400
G1 X90.757 Y82.164 E181.7763 F2400
G1 X91.697 Y79.258 E181.8770 F2400
G1 X92.763 Y76.352 E181.9792 F2400
G1 X94.008 Y73.446 E182.0835 F2400
G1 X95.975 Y70.540 E182.1993 F2400
G1 X99.896 Y67.634 E182.3604 F2400
G1 X110.000 Y64.728 E182.7073 F2400
G1 X110.000 Y64.728 E182.7073 F2400
;LAYER:17
G1 X110.000 Y64.272 Z5.400 F6000
G1 X120.205 Y67.201 E183.0577 F2400
G1 X124.166 Y70.130 E183.2203 F2400
G1 X126.152 Y73.059 E183.3370 F2400
G1 X127.410 Y75.988 E183.4422 F2400
G1 X128.487 Y78.917 E183.5452 F2400
G1 X129.436 Y81.847 E183.6468 F2400
G1 X130.289 Y84.776 E183.7475 F2400
G1 X131.060 Y87.705 E183.8475 F2400
G1 X131.761 Y90.634 E183.9469 F2400
G1 X132.397 Y93.563 E184.0458 F2400
G1 X132.972 Y96.492 E184.1443 F2400
G1 X133.486 Y99.421 E184.2424 F2400
G1 X133.940 Y102.350 E184.3402 F2400
G1 X134.334 Y105.280 E184.4378 F2400
G1 X134.666 Y108.209 E184.5350 F2400
G1 X134.935 Y111.138 E184.6321 F2400
G1 X135.140 Y114.067 E184.7290 F2400
G1 X135.279 Y116.996 E184.8258 F2400
G1 X135.349 Y119.925 E184.9225 F2400
G1 X135.350 Y122.854 E185.0191 F2400
G1 X135.278 Y125.783 E185.1158 F2400
G1 X135.133 Y128.713 E185.2126 F2400
G1 X134.913 Y131.642 E185.3095 F2400
G1 X134.617 Y134.571 E185.4067 F2400
G1 X134.243 Y137.500 E185.5041 F2400
G1 X133.792 Y140.429 E185.6019 F2400
G1 X133.261 Y143.358 E185.7002 F2400
G1 X132.652 Y146.287 E185.7989 F2400
G1 X131.965 Y149.216 E185.8982 F2400
G1 X131.200 Y152.146 E185.9981 F2400
G1 X130.358 Y155.075 E186.0987 F2400
G1 X129.444 Y158.004 E186.1999 F2400
G1 X128.465 Y160.933 E186.3018 F2400
G1 X127.424 Y163.862 E186.4044 F2400
G1 X126.322 Y166.791 E186.5077 F2400
G1 X125.159 Y169.720 E186.6117 F2400
G1 X123.937 Y172.649 E186.7164 F2400
G1 X122.657 Y175.579 E186.8219 F2400
G1 X121.320 Y178.508 E186.9282 F2400
G1 X119.922 Y181.437 E187.0353 F2400
G1 X118.459 Y184.366 E187.1433 F2400
G1 X116.906 Y187.295 E187.2527 F2400
G1 X115.175 Y190.224 E187.3650 F2400
G1 X110.002 Y193.153 E187.5612 F2400
G1 X109.998 Y193.153 E187.5613 F2400
G1 X104.825 Y190.224 E187.7575 F2400
G1 X103.094 Y187.295 E187.8698 F2400
G1 X101.541 Y184.366 E187.9792 F2400
G1 X100.078 Y181.437 E188.0872 F2400
G1 X98.680 Y178.508 E188.1943 F2400
G1 X97.343 Y175.579 E188.3006 F2400
G1 X96.063 Y172.649 E188.4061 F2400
G1 X94.841 Y169.720 E188.5108 F2400
G1 X93.678 Y166.791 E188.6148 F2400
G1 X92.576 Y163.862 E188.7181 F2400
G1 X91.535 Y160.933 E188.8207 F2400
G1 X90.556 Y158.004 E188.9226 F2400
G1 X89.642 Y155.075 E189.0238 F2400
G1 X88.800 Y152.146 E189.1244 F2400
G1 X88.035 Y149.216 E189.2243 F2400
G1 X87.348 Y146.287 E189.3236 F2400
G1 X86.739 Y143.358 E189.4223 F2400
G1 X86.208 Y140.429 E189.5206 F2400
G1 X85.757 Y137.500 E189.6184 F2400
G1 X85.383 Y134.571 E189.7158 F2400
G1 X85.087 Y131.642 E189.8130 F2400
G1 X84.867 Y128.713 E189.9099 F2400
G1 X84.722 Y125.783 E190.0067 F2400
G1 X84.650 Y122.854 E190.1034 F2400
G1 X84.651 Y119.925 E190.2000 F2400
G1 X84.721 Y116.996 E190.2967 F2400
G1 X84.860 Y114.067 E190.3935 F2400
G1 X85.065 Y111.138 E190.4904 F2400
G1 X85.334 Y108.209 E190.5875 F2400
G1 X85.666 Y105.280 E190.6847 F2400
G1 X86.060 Y102.350 E190.7823 F2400
G1 X86.514 Y99.421 E190.8801 F2400
G1 X87.028 Y96.492 E190.9782 F2400
G1 X87.603 Y93.563 E191.0767 F2400
G1 X88.239 Y90.634 E191.1756 F2400
G1 X88.940 Y87.705 E191.2750 F2400
G1 X89.711 Y84.776 E191.3750 F2400
G1 X90.564 Y81.847 E191.4757 F2400
G1 X91.513 Y78.917 E191.5773 F2400
G1 X92.590 Y75.988 E191.6803 F2400
G1 X93.848 Y73.059 E191.7855 F2400
G1 X95.834 Y70.130 E191.9022 F2400
G1 X99.795 Y67.201 E192.0648 F2400
G1 X110.000 Y64.272 E192.4152 F2400
G1 X110.000 Y64.272 E192.4152 F2400
;LAYER:18
G1 X110.000 Y63.827 Z5.700 F6000
G1 X120.304 Y66.779 E192.7689 F2400
G1 X124.303 Y69.731 E192.9329 F2400
G1 X126.308 Y72.682 E193.0507 F2400
G1 X127.578 Y75.634 E193.1567 F2400
G1 X128.665 Y78.586 E193.2605 F2400
G1 X129.624 Y81.537 E193.3629 F2400
G1 X130.484 Y84.489 E193.4644 F2400
G1 X131.263 Y87.441 E193.5651 F2400
G1 X131.971 Y90.392 E193.6653 F2400
G1 X132.613 Y93.344 E193.7650 F2400
G1 X133.193 Y96.296 E193.8642 F2400
G1 X133.712 Y99.247 E193.9631 F2400
G1 X134.171 Y102.199 E194.0617 F2400
G1 X134.568 Y105.151 E194.1600 F2400
G1 X134.904 Y108.103 E194.2580 F2400
G1 X135.176 Y111.054 E194.3558 F2400
G1 X135.383 Y114.006 E194.4535 F2400
G1 X135.523 Y116.958 E194.5510 F2400
G1 X135.594 Y119.909 E194.6484 F2400
G1 X135.594 Y122.861 E194.7458 F2400
G1 X135.522 Y125.813 E194.8433 F2400
G1 X135.376 Y128.764 E194.9408 F2400
G1 X135.154 Y131.716 E195.0385 F2400
G1 X134.855 Y134.668 E195.1364 F2400
G1 X134.477 Y137.619 E195.2346 F2400
G1 X134.021 Y140.571 E195.3331 F2400
G1 X133.486 Y143.523 E195.4321 F2400
G1 X132.871 Y146.474 E195.5316 F2400
G1 X132.177 Y149.426 E195.6317 F2400
G1 X131.404 Y152.378 E195.7324 F2400
G1 X130.555 Y155.329 E195.8337 F2400
G1 X129.631 Y158.281 E195.9358 F2400
G1 X128.643 Y161.233 E196.0385 F2400
G1 X127.592 Y164.184 E196.1419 F2400
G1 X126.479 Y167.136 E196.2460 F2400
G1 X125.305 Y170.088 E196.3508 F2400
G1 X124.072 Y173.039 E196.4564 F2400
G1 X122.779 Y175.991 E196.5628 F2400
G1 X121.429 Y178.943 E196.6699 F2400
G1 X120.018 Y181.895 E196.7778 F2400
G1 X118.540 Y184.846 E196.8868 F2400
G1 X116.973 Y187.798 E196.9970 F2400
G1 X115.224 Y190.750 E197.1103 F2400
G1 X110.002 Y193.701 E197.3082 F2400
G1 X109.998 Y193.701 E197.3084 F2400
G1 X104.776 Y190.750 E197.5063 F2400
G1 X103.027 Y187.798 E197.6195 F2400
G1 X101.460 Y184.846 E197.7298 F2400
G1 X99.982 Y181.895 E197.8387 F2400
G1 X98.571 Y178.943 E197.9467 F2400
G1 X97.221 Y175.991 E198.0538 F2400
G1 X95.928 Y173.039 E198.1602 F2400
G1 X94.695 Y170.088 E198.2657 F2400
G1 X93.521 Y167.136 E198.3706 F2400
G1 X92.408 Y164.184 E198.4747 F2400
G1 X91.357 Y161.233 E198.5780 F2400
G1 X90.369 Y158.281 E198.6808 F2400
G1 X89.445 Y155.329 E198.7828 F2400
G1 X88.596 Y152.378 E198.8842 F2400
G1 X87.823 Y149.426 E198.9849 F2400
G1 X87.129 Y146.474 E199.0849 F2400
G1 X86.514 Y143.523 E199.1844 F2400
G1 X85.979 Y140.571 E199.2834 F2400
G1 X85.523 Y137.619 E199.3820 F2400
G1 X85.145 Y134.668 E199.4802 F2400
G1 X84.846 Y131.716 E199.5781 F2400
G1 X84.624 Y128.764 E199.6758 F2400
G1 X84.478 Y125.813 E199.7733 F2400
G1 X84.406 Y122.861 E199.8707 F2400
G1 X84.406 Y119.909 E199.9681 F2400
G1 X84.477 Y116.958 E200.0656 F2400
G1 X84.617 Y114.006 E200.1631 F2400
G1 X84.824 Y111.054 E200.2607 F2400
G1 X85.096 Y108.103 E200.3586 F2400
G1 X85.432 Y105.151 E200.4566 F2400
G1 X85.829 Y102.199 E200.5549 F2400
G1 X86.288 Y99.247 E200.6534 F2400
G1 X86.807 Y96.296 E200.7523 F2400
G1 X87.387 Y93.344 E200.8516 F2400
G1 X88.029 Y90.392 E200.9513 F2400
G1 X88.737 Y87.441 E201.0515 F2400
G1 X89.516 Y84.489 E201.1522 F2400
G1 X90.376 Y81.537 E201.2537 F2400
G1 X91.335 Y78.586 E201.3561 F2400
G1 X92.422 Y75.634 E201.4599 F2400
G1 X93.692 Y72.682 E201.5659 F2400
G1 X95.697 Y69.731 E201.6837 F2400
G1 X99.696 Y66.779 E201.8477 F2400
G1 X110.000 Y63.827 E202.2014 F2400
G1 X110.000 Y63.827 E202.2014 F2400
G1 X82.000 Y104.000 Z5.700 F6000
G1 X138.000 Y104.000 E204.0494 F2600
G1 X82.000 Y122.000 Z5.700 F6000
G1 X138.000 Y122.000 E205.8974 F2600
G1 X82.000 Y140.000 Z5.700 F6000
G1 X138.000 Y140.000 E207.7454 F2600
;LAYER:19
G1 X110.000 Y63.393 Z6.000 F6000
G1 X120.399 Y66.367 E208.1023 F2400
G1 X124.436 Y69.341 E208.2678 F2400
G1 X126.459 Y72.314 E208.3865 F2400
G1 X127.741 Y75.288 E208.4933 F2400
G1 X128.838 Y78.262 E208.5979 F2400
G1 X129.806 Y81.235 E208.7011 F2400
G1 X130.674 Y84.209 E208.8034 F2400
G1 X131.461 Y87.183 E208.9049 F2400
G1 X132.175 Y90.157 E209.0058 F2400
G1 X132.823 Y93.130 E209.1062 F2400
G1 X133.408 Y96.104 E209.2062 F2400
G1 X133.932 Y99.078 E209.3059 F2400
G1 X134.395 Y102.051 E209.4052 F2400
G1 X134.796 Y105.025 E209.5042 F2400
G1 X135.135 Y107.999 E209.6030 F2400
G1 X135.409 Y110.972 E209.7015 F2400
G1 X135.618 Y113.946 E209.7999 F2400
G1 X135.760 Y116.920 E209.8982 F2400
G1 X135.831 Y119.894 E209.9963 F2400
G1 X135.832 Y122.867 E210.0944 F2400
G1 X135.759 Y125.841 E210.1926 F2400
G1 X135.611 Y128.815 E210.2909 F2400
G1 X135.387 Y131.788 E210.3893 F2400
G1 X135.085 Y134.762 E210.4879 F2400
G1 X134.704 Y137.736 E210.5868 F2400
G1 X134.244 Y140.710 E210.6861 F2400
G1 X133.704 Y143.683 E210.7859 F2400
G1 X133.083 Y146.657 E210.8861 F2400
G1 X132.382 Y149.631 E210.9869 F2400
G1 X131.603 Y152.604 E211.0884 F2400
G1 X130.745 Y155.578 E211.1905 F2400
G1 X129.813 Y158.552 E211.2934 F2400
G1 X128.816 Y161.526 E211.3969 F2400
G1 X127.755 Y164.499 E211.5011 F2400
G1 X126.632 Y167.473 E211.6060 F2400
G1 X125.447 Y170.447 E211.7116 F2400
G1 X124.202 Y173.420 E211.8180 F2400
G1 X122.898 Y176.394 E211.9251 F2400
G1 X121.535 Y179.368 E212.0331 F2400
G1 X120.111 Y182.342 E212.1419 F2400
G1 X118.620 Y185.315 E212.2517 F2400
G1 X117.038 Y188.289 E212.3628 F2400
G1 X115.273 Y191.263 E212.4769 F2400
G1 X110.003 Y194.236 E212.6766 F2400
G1 X109.997 Y194.236 E212.6768 F2400
G1 X104.727 Y191.263 E212.8765 F2400
G1 X102.962 Y188.289 E212.9906 F2400
G1 X101.380 Y185.315 E213.1018 F2400
G1 X99.889 Y182.342 E213.2115 F2400
G1 X98.465 Y179.368 E213.3203 F2400
G1 X97.102 Y176.394 E213.4283 F2400
G1 X95.798 Y173.420 E213.5355 F2400
G1 X94.553 Y170.447 E213.6418 F2400
G1 X93.368 Y167.473 E213.7475 F2400
G1 X92.245 Y164.499 E213.8524 F2400
G1 X91.184 Y161.526 E213.9566 F2400
G1 X90.187 Y158.552 E214.0601 F2400
G1 X89.255 Y155.578 E214.1629 F2400
G1 X88.397 Y152.604 E214.2650 F2400
G1 X87.618 Y149.631 E214.3665 F2400
G1 X86.917 Y146.657 E214.4673 F2400
G1 X86.296 Y143.683 E214.5676 F2400
G1 X85.756 Y140.710 E214.6673 F2400
G1 X85.296 Y137.736 E214.7666 F2400
G1 X84.915 Y134.762 E214.8655 F2400
G1 X84.613 Y131.788 E214.9642 F2400
G1 X84.389 Y128.815 E215.0626 F2400
G1 X84.241 Y125.841 E215.1608 F2400
G1 X84.168 Y122.867 E215.2590 F2400
G1 X84.169 Y119.894 E215.3571 F2400
G1 X84.240 Y116.920 E215.4553 F2400
G1 X84.382 Y113.946 E215.5535 F2400
G1 X84.591 Y110.972 E215.6519 F2400
G1 X84.865 Y107.999 E215.7505 F2400
G1 X85.204 Y105.025 E215.8492 F2400
G1 X85.605 Y102.051 E215.9482 F2400
G1 X86.068 Y99.078 E216.0476 F2400
G1 X86.592 Y96.104 E216.1472 F2400
G1 X87.177 Y93.130 E216.2472 F2400
G1 X87.825 Y90.157 E216.3476 F2400
G1 X88.539 Y87.183 E216.4486 F2400
G1 X89.326 Y84.209 E216.5501 F2400
G1 X90.194 Y81.235 E216.6523 F2400
G1 X91.162 Y78.262 E216.7555 F2400
G1 X92.259 Y75.288 E216.8601 F2400
G1 X93.541 Y72.314 E216.9670 F2400
G1 X95.564 Y69.341 E217.0857 F2400
G1 X99.601 Y66.367 E217.2511 F2400
G1 X110.000 Y63.393 E217.6080 F2400
G1 X110.000 Y63.393 E217.6080 F2400
;LAYER:20
G1 X110.000 Y62.969 Z6.300 F6000
G1 X120.492 Y65.964 E217.9681 F2400
G1 X124.565 Y68.959 E218.1349 F2400
G1 X126.607 Y71.954 E218.2546 F2400
G1 X127.900 Y74.950 E218.3622 F2400
G1 X129.007 Y77.945 E218.4676 F2400
G1 X129.983 Y80.940 E218.5716 F2400
G1 X130.859 Y83.935 E218.6746 F2400
G1 X131.653 Y86.931 E218.7768 F2400
G1 X132.373 Y89.926 E218.8785 F2400
G1 X133.027 Y92.921 E218.9796 F2400
G1 X133.618 Y95.916 E219.0804 F2400
G1 X134.146 Y98.912 E219.1808 F2400
G1 X134.613 Y101.907 E219.2808 F2400
G1 X135.018 Y104.902 E219.3805 F2400
G1 X135.360 Y107.897 E219.4800 F2400
G1 X135.637 Y110.893 E219.5793 F2400
G1 X135.847 Y113.888 E219.6784 F2400
G1 X135.990 Y116.883 E219.7773 F2400
G1 X136.062 Y119.878 E219.8762 F2400
G1 X136.063 Y122.874 E219.9750 F2400
G1 X135.989 Y125.869 E220.0739 F2400
G1 X135.840 Y128.864 E220.1729 F2400
G1 X135.614 Y131.859 E220.2720 F2400
G1 X135.310 Y134.855 E220.3714 F2400
G1 X134.925 Y137.850 E220.4710 F2400
G1 X134.461 Y140.845 E220.5710 F2400
G1 X133.916 Y143.840 E220.6715 F2400
G1 X133.289 Y146.836 E220.7725 F2400
G1 X132.583 Y149.831 E220.8740 F2400
G1 X131.796 Y152.826 E220.9762 F2400
G1 X130.931 Y155.821 E221.0791 F2400
G1 X129.990 Y158.817 E221.1827 F2400
G1 X128.984 Y161.812 E221.2870 F2400
G1 X127.914 Y164.807 E221.3920 F2400
G1 X126.781 Y167.802 E221.4976 F2400
G1 X125.585 Y170.798 E221.6041 F2400
G1 X124.329 Y173.793 E221.7112 F2400
G1 X123.013 Y176.788 E221.8192 F2400
G1 X121.638 Y179.783 E221.9280 F2400
G1 X120.201 Y182.779 E222.0376 F2400
G1 X118.697 Y185.774 E222.1482 F2400
G1 X117.101 Y188.769 E222.2602 F2400
G1 X115.320 Y191.764 E222.3752 F2400
G1 X110.003 Y194.760 E222.5766 F2400
G1 X109.997 Y194.760 E222.5768 F2400
G1 X104.680 Y191.764 E222.7782 F2400
G1 X102.899 Y188.769 E222.8932 F2400
G1 X101.303 Y185.774 E223.0052 F2400
G1 X99.799 Y182.779 E223.1158 F2400
G1 X98.362 Y179.783 E223.2254 F2400
G1 X96.987 Y176.788 E223.3342 F2400
G1 X95.671 Y173.793 E223.4421 F2400
G1 X94.415 Y170.798 E223.5493 F2400
G1 X93.219 Y167.802 E223.6557 F2400
G1 X92.086 Y164.807 E223.7614 F2400
G1 X91.016 Y161.812 E223.8664 F2400
G1 X90.010 Y158.817 E223.9707 F2400
G1 X89.069 Y155.821 E224.0743 F2400
G1 X88.204 Y152.826 E224.1771 F2400
G1 X87.417 Y149.831 E224.2793 F2400
G1 X86.711 Y146.836 E224.3809 F2400
G1 X86.084 Y143.840 E224.4819 F2400
G1 X85.539 Y140.845 E224.5823 F2400
G1 X85.075 Y137.850 E224.6824 F2400
G1 X84.690 Y134.855 E224.7820 F2400
G1 X84.386 Y131.859 E224.8814 F2400
G1 X84.160 Y128.864 E224.9805 F2400
G1 X84.011 Y125.869 E225.0795 F2400
G1 X83.937 Y122.874 E225.1783 F2400
G1 X83.938 Y119.878 E225.2772 F2400
G1 X84.010 Y116.883 E225.3760 F2400
G1 X84.153 Y113.888 E225.4750 F2400
G1 X84.363 Y110.893 E225.5741 F2400
G1 X84.640 Y107.897 E225.6734 F2400
G1 X84.982 Y104.902 E225.7728 F2400
G1 X85.387 Y101.907 E225.8726 F2400
G1 X85.854 Y98.912 E225.9726 F2400
G1 X86.382 Y95.916 E226.0730 F2400
G1 X86.973 Y92.921 E226.1737 F2400
G1 X87.627 Y89.926 E226.2749 F2400
G1 X88.347 Y86.931 E226.3766 F2400
G1 X89.141 Y83.935 E226.4788 F2400
G1 X90.017 Y80.940 E226.5818 F2400
G1 X90.993 Y77.945 E226.6858 F2400
G1 X92.100 Y74.950 E226.7911 F2400
G1 X93.393 Y71.954 E226.8988 F2400
G1 X95.435 Y68.959 E227.0184 F2400
G1 X99.508 Y65.964 E227.1853 F2400
G1 X110.000 Y62.969 E227.5453 F2400
G1 X110.000 Y62.969 E227.5453 F2400
;LAYER:21
G1 X110.000 Y62.553 Z6.600 F6000
G1 X120.583 Y65.570 E227.9085 F2400
G1 X124.690 Y68.586 E228.0766 F2400
G1 X126.750 Y71.602 E228.1972 F2400
G1 X128.055 Y74.619 E228.3056 F2400
G1 X129.171 Y77.635 E228.4118 F2400
G1 X130.155 Y80.651 E228.5165 F2400
G1 X131.039 Y83.668 E228.6202 F2400
G1 X131.840 Y86.684 E228.7232 F2400
G1 X132.567 Y89.700 E228.8256 F2400
G1 X133.226 Y92.716 E228.9275 F2400
G1 X133.822 Y95.733 E229.0289 F2400
G1 X134.355 Y98.749 E229.1300 F2400
G1 X134.826 Y101.765 E229.2307 F2400
G1 X135.234 Y104.782 E229.3312 F2400
G1 X135.579 Y107.798 E229.4314 F2400
G1 X135.858 Y110.814 E229.5313 F2400
G1 X136.071 Y113.831 E229.6311 F2400
G1 X136.214 Y116.847 E229.7308 F2400
G1 X136.287 Y119.863 E229.8303 F2400
G1 X136.288 Y122.880 E229.9299 F2400
G1 X136.214 Y125.896 E230.0295 F2400
G1 X136.064 Y128.912 E230.1291 F2400
G1 X135.835 Y131.929 E230.2289 F2400
G1 X135.528 Y134.945 E230.3290 F2400
G1 X135.141 Y137.961 E230.4293 F2400
G1 X134.672 Y140.978 E230.5301 F2400
G1 X134.122 Y143.994 E230.6313 F2400
G1 X133.490 Y147.010 E230.7330 F2400
G1 X132.778 Y150.027 E230.8352 F2400
G1 X131.984 Y153.043 E230.9382 F2400
G1 X131.112 Y156.059 E231.0418 F2400
G1 X130.163 Y159.076 E231.1461 F2400
G1 X129.148 Y162.092 E231.2512 F2400
G1 X128.069 Y165.108 E231.3569 F2400
G1 X126.926 Y168.125 E231.4633 F2400
G1 X125.720 Y171.141 E231.5705 F2400
G1 X124.453 Y174.157 E231.6785 F2400
G1 X123.126 Y177.174 E231.7872 F2400
G1 X121.738 Y180.190 E231.8968 F2400
G1 X120.289 Y183.206 E232.0072 F2400
G1 X118.772 Y186.223 E232.1186 F2400
G1 X117.162 Y189.239 E232.2315 F2400
G1 X115.366 Y192.255 E232.3473 F2400
G1 X110.003 Y195.272 E232.5504 F2400
G1 X109.997 Y195.272 E232.5506 F2400
G1 X104.634 Y192.255 E232.7536 F2400
G1 X102.838 Y189.239 E232.8695 F2400
G1 X101.228 Y186.223 E232.9823 F2400
G1 X99.711 Y183.206 E233.0937 F2400
G1 X98.262 Y180.190 E233.2042 F2400
G1 X96.874 Y177.174 E233.3137 F2400
G1 X95.547 Y174.157 E233.4225 F2400
G1 X94.280 Y171.141 E233.5304 F2400
G1 X93.074 Y168.125 E233.6376 F2400
G1 X91.931 Y165.108 E233.7441 F2400
G1 X90.852 Y162.092 E233.8498 F2400
G1 X89.837 Y159.076 E233.9548 F2400
G1 X88.888 Y156.059 E234.0592 F2400
G1 X88.016 Y153.043 E234.1628 F2400
G1 X87.222 Y150.027 E234.2657 F2400
G1 X86.510 Y147.010 E234.3680 F2400
G1 X85.878 Y143.994 E234.4697 F2400
G1 X85.328 Y140.978 E234.5709 F2400
G1 X84.859 Y137.961 E234.6716 F2400
G1 X84.472 Y134.945 E234.7719 F2400
G1 X84.165 Y131.929 E234.8720 F2400
G1 X83.936 Y128.912 E234.9718 F2400
G1 X83.786 Y125.896 E235.0715 F2400
G1 X83.712 Y122.880 E235.1711 F2400
G1 X83.713 Y119.863 E235.2706 F2400
G1 X83.786 Y116.847 E235.3702 F2400
G1 X83.929 Y113.831 E235.4698 F2400
G1 X84.142 Y110.814 E235.5696 F2400
G1 X84.421 Y107.798 E235.6696 F2400
G1 X84.766 Y104.782 E235.7698 F2400
G1 X85.174 Y101.765 E235.8702 F2400
G1 X85.645 Y98.749 E235.9709 F2400
G1 X86.178 Y95.733 E236.0720 F2400
G1 X86.774 Y92.716 E236.1735 F2400
G1 X87.433 Y89.700 E236.2754 F2400
G1 X88.160 Y86.684 E236.3778 F2400
G1 X88.961 Y83.668 E236.4807 F2400
G1 X89.845 Y80.651 E236.5845 F2400
G1 X90.829 Y77.635 E236.6892 F2400
G1 X91.945 Y74.619 E236.7953 F2400
G1 X93.250 Y71.602 E236.9038 F2400
G1 X95.310 Y68.586 E237.0243 F2400
G1 X99.417 Y65.570 E237.1925 F2400
G1 X110.000 Y62.553 E237.5556 F2400
G1 X110.000 Y62.553 E237.5556 F2400
G1 X82.000 Y104.000 Z6.600 F6000
G1 X138.000 Y104.000 E239.4036 F2600
G1 X82.000 Y122.000 Z6.600 F6000
G1 X138.000 Y122.000 E241.2516 F2600
G1 X82.000 Y140.000 Z6.600 F6000
G1 X138.000 Y140.000 E243.0996 F2600
;LAYER:22
G1 X110.000 Y62.146 Z6.900 F6000
G1 X120.671 Y65.183 E243.4657 F2400
G1 X124.813 Y68.220 E243.6352 F2400
G1 X126.890 Y71.257 E243.7566 F2400
G1 X128.205 Y74.294 E243.8659 F2400
G1 X129.331 Y77.331 E243.9727 F2400
G1 X130.324 Y80.368 E244.0782 F2400
G1 X131.215 Y83.405 E244.1826 F2400
G1 X132.022 Y86.442 E244.2863 F2400
G1 X132.755 Y89.479 E244.3894 F2400
G1 X133.420 Y92.516 E244.4920 F2400
G1 X134.021 Y95.553 E244.5942 F2400
G1 X134.558 Y98.590 E244.6960 F2400
G1 X135.033 Y101.627 E244.7974 F2400
G1 X135.445 Y104.664 E244.8985 F2400
G1 X135.792 Y107.701 E244.9994 F2400
G1 X136.074 Y110.738 E245.1001 F2400
G1 X136.288 Y113.775 E245.2005 F2400
G1 X136.433 Y116.812 E245.3009 F2400
G1 X136.507 Y119.849 E245.4011 F2400
G1 X136.507 Y122.886 E245.5013 F2400
G1 X136.433 Y125.923 E245.6016 F2400
G1 X136.281 Y128.960 E245.7019 F2400
G1 X136.051 Y131.997 E245.8024 F2400
G1 X135.741 Y135.034 E245.9032 F2400
G1 X135.351 Y138.071 E246.0042 F2400
G1 X134.878 Y141.108 E246.1057 F2400
G1 X134.323 Y144.145 E246.2075 F2400
G1 X133.687 Y147.182 E246.3099 F2400
G1 X132.968 Y150.219 E246.4129 F2400
G1 X132.168 Y153.256 E246.5166 F2400
G1 X131.288 Y156.293 E246.6209 F2400
G1 X130.331 Y159.330 E246.7260 F2400
G1 X129.308 Y162.367 E246.8317 F2400
G1 X128.220 Y165.404 E246.9382 F2400
G1 X127.067 Y168.441 E247.0454 F2400
G1 X125.851 Y171.477 E247.1533 F2400
G1 X124.574 Y174.514 E247.2621 F2400
G1 X123.235 Y177.551 E247.3716 F2400
G1 X121.836 Y180.588 E247.4819 F2400
G1 X120.375 Y183.625 E247.5931 F2400
G1 X118.845 Y186.662 E247.7054 F2400
G1 X117.222 Y189.699 E247.8190 F2400
G1 X115.411 Y192.736 E247.9357 F2400
G1 X110.003 Y195.773 E248.1404 F2400
G1 X109.997 Y195.773 E248.1406 F2400
G1 X104.589 Y192.736 E248.3452 F2400
G1 X102.778 Y189.699 E248.4619 F2400
G1 X101.155 Y186.662 E248.5756 F2400
G1 X99.625 Y183.625 E248.6878 F2400
G1 X98.164 Y180.588 E248.7990 F2400
G1 X96.765 Y177.551 E248.9093 F2400
G1 X95.426 Y174.514 E249.0189 F2400
G1 X94.149 Y171.477 E249.1276 F2400
G1 X92.933 Y168.441 E249.2355 F2400
G1 X91.780 Y165.404 E249.3427 F2400
G1 X90.692 Y162.367 E249.4492 F2400
G1 X89.669 Y159.330 E249.5550 F2400
G1 X88.712 Y156.293 E249.6600 F2400
G1 X87.832 Y153.256 E249.7644 F2400
G1 X87.032 Y150.219 E249.8680 F2400
G1 X86.313 Y147.182 E249.9710 F2400
G1 X85.677 Y144.145 E250.0734 F2400
G1 X85.122 Y141.108 E250.1753 F2400
G1 X84.649 Y138.071 E250.2767 F2400
G1 X84.259 Y135.034 E250.3778 F2400
G1 X83.949 Y131.997 E250.4785 F2400
G1 X83.719 Y128.960 E250.5790 F2400
G1 X83.567 Y125.923 E250.6793 F2400
G1 X83.493 Y122.886 E250.7796 F2400
G1 X83.493 Y119.849 E250.8798 F2400
G1 X83.567 Y116.812 E250.9801 F2400
G1 X83.712 Y113.775 E251.0804 F2400
G1 X83.926 Y110.738 E251.1809 F2400
G1 X84.208 Y107.701 E251.2815 F2400
G1 X84.555 Y104.664 E251.3824 F2400
G1 X84.967 Y101.627 E251.4835 F2400
G1 X85.442 Y98.590 E251.5850 F2400
G1 X85.979 Y95.553 E251.6867 F2400
G1 X86.580 Y92.516 E251.7889 F2400
G1 X87.245 Y89.479 E251.8915 F2400
G1 X87.978 Y86.442 E251.9946 F2400
G1 X88.785 Y83.405 E252.0983 F2400
G1 X89.676 Y80.368 E252.2027 F2400
G1 X90.669 Y77.331 E252.3082 F2400
G1 X91.795 Y74.294 E252.4151 F2400
G1 X93.110 Y71.257 E252.5243 F2400
G1 X95.187 Y68.220 E252.6457 F2400
G1 X99.329 Y65.183 E252.8152 F2400
G1 X110.000 Y62.146 E253.1813 F2400
G1 X110.000 Y62.146 E253.1813 F2400
;LAYER:23
G1 X110.000 Y61.747 Z7.200 F6000
G1 X120.757 Y64.804 E253.5504 F2400
G1 X124.933 Y67.861 E253.7212 F2400
G1 X127.026 Y70.919 E253.8434 F2400
G1 X128.353 Y73.976 E253.9534 F2400
G1 X129.487 Y77.033 E254.0610 F2400
G1 X130.488 Y80.090 E254.1672 F2400
G1 X131.387 Y83.148 E254.2723 F2400
G1 X132.200 Y86.205 E254.3767 F2400
G1 X132.939 Y89.262 E254.4805 F2400
G1 X133.610 Y92.319 E254.5838 F2400
G1 X134.215 Y95.377 E254.6867 F2400
G1 X134.757 Y98.434 E254.7891 F2400
G1 X135.235 Y101.491 E254.8912 F2400
G1 X135.650 Y104.548 E254.9930 F2400
G1 X136.001 Y107.606 E255.0946 F2400
G1 X136.285 Y110.663 E255.1959 F2400
G1 X136.501 Y113.720 E255.2971 F2400
G1 X136.647 Y116.777 E255.3981 F2400
G1 X136.721 Y119.834 E255.4990 F2400
G1 X136.722 Y122.892 E255.5999 F2400
G1 X136.646 Y125.949 E255.7008 F2400
G1 X136.494 Y129.006 E255.8018 F2400
G1 X136.262 Y132.063 E255.9030 F2400
G1 X135.949 Y135.121 E256.0044 F2400
G1 X135.555 Y138.178 E256.1061 F2400
G1 X135.079 Y141.235 E256.2082 F2400
G1 X134.520 Y144.292 E256.3108 F2400
G1 X133.878 Y147.350 E256.4139 F2400
G1 X133.154 Y150.407 E256.5176 F2400
G1 X132.347 Y153.464 E256.6219 F2400
G1 X131.460 Y156.521 E256.7269 F2400
G1 X130.496 Y159.579 E256.8327 F2400
G1 X129.464 Y162.636 E256.9392 F2400
G1 X128.367 Y165.693 E257.0464 F2400
G1 X127.205 Y168.750 E257.1543 F2400
G1 X125.979 Y171.807 E257.2630 F2400
G1 X124.692 Y174.865 E257.3725 F2400
G1 X123.342 Y177.922 E257.4828 F2400
G1 X121.932 Y180.979 E257.5939 F2400
G1 X120.459 Y184.036 E257.7059 F2400
G1 X118.917 Y187.094 E257.8189 F2400
G1 X117.280 Y190.151 E257.9333 F2400
G1 X115.455 Y193.208 E258.0508 F2400
G1 X110.003 Y196.265 E258.2571 F2400
G1 X109.997 Y196.265 E258.2573 F2400
G1 X104.545 Y193.208 E258.4635 F2400
G1 X102.720 Y190.151 E258.5810 F2400
G1 X101.083 Y187.094 E258.6955 F2400
G1 X99.541 Y184.036 E258.8085 F2400
G1 X98.068 Y180.979 E258.9205 F2400
G1 X96.658 Y177.922 E259.0316 F2400
G1 X95.308 Y174.865 E259.1418 F2400
G1 X94.021 Y171.807 E259.2513 F2400
G1 X92.795 Y168.750 E259.3600 F2400
G1 X91.633 Y165.693 E259.4679 F2400
G1 X90.536 Y162.636 E259.5751 F2400
G1 X89.504 Y159.579 E259.6816 F2400
G1 X88.540 Y156.521 E259.7874 F2400
G1 X87.653 Y153.464 E259.8924 F2400
G1 X86.846 Y150.407 E259.9968 F2400
G1 X86.122 Y147.350 E260.1005 F2400
G1 X85.480 Y144.292 E260.2036 F2400
G1 X84.921 Y141.235 E260.3061 F2400
G1 X84.445 Y138.178 E260.4082 F2400
G1 X84.051 Y135.121 E260.5099 F2400
G1 X83.738 Y132.063 E260.6114 F2400
G1 X83.506 Y129.006 E260.7125 F2400
G1 X83.354 Y125.949 E260.8136 F2400
G1 X83.278 Y122.892 E260.9145 F2400
G1 X83.279 Y119.834 E261.0154 F2400
G1 X83.353 Y116.777 E261.1163 F2400
G1 X83.499 Y113.720 E261.2173 F2400
G1 X83.715 Y110.663 E261.3184 F2400
G1 X83.999 Y107.606 E261.4197 F2400
G1 X84.350 Y104.548 E261.5213 F2400
G1 X84.765 Y101.491 E261.6231 F2400
G1 X85.243 Y98.434 E261.7252 F2400
G1 X85.785 Y95.377 E261.8277 F2400
G1 X86.390 Y92.319 E261.9305 F2400
G1 X87.061 Y89.262 E262.0338 F2400
G1 X87.800 Y86.205 E262.1376 F2400
G1 X88.613 Y83.148 E262.2420 F2400
G1 X89.512 Y80.090 E262.3472 F2400
G1 X90.513 Y77.033 E262.4533 F2400
G1 X91.647 Y73.976 E262.5609 F2400
G1 X92.974 Y70.919 E262.6709 F2400
G1 X95.067 Y67.861 E262.7932 F2400
G1 X99.243 Y64.804 E262.9640 F2400
G1 X110.000 Y61.747 E263.3330 F2400
G1 X110.000 Y61.747 E263.3330 F2400
;LAYER:24
G1 X110.000 Y61.355 Z7.500 F6000
G1 X120.842 Y64.432 E263.7049 F2400
G1 X125.050 Y67.509 E263.8770 F2400
G1 X127.160 Y70.587 E264.0001 F2400
G1 X128.496 Y73.664 E264.1108 F2400
G1 X129.640 Y76.741 E264.2191 F2400
G1 X130.649 Y79.818 E264.3260 F2400
G1 X131.554 Y82.895 E264.4318 F2400
G1 X132.374 Y85.972 E264.5369 F2400
G1 X133.119 Y89.049 E264.6414 F2400
G1 X133.795 Y92.126 E264.7454 F2400
G1 X134.405 Y95.203 E264.8489 F2400
G1 X134.951 Y98.281 E264.9520 F2400
G1 X135.433 Y101.358 E265.0548 F2400
G1 X135.851 Y104.435 E265.1573 F2400
G1 X136.204 Y107.512 E265.2595 F2400
G1 X136.491 Y110.589 E265.3615 F2400
G1 X136.709 Y113.666 E265.4633 F2400
G1 X136.856 Y116.743 E265.5649 F2400
G1 X136.931 Y119.820 E265.6665 F2400
G1 X136.931 Y122.897 E265.7681 F2400
G1 X136.855 Y125.975 E265.8696 F2400
G1 X136.701 Y129.052 E265.9713 F2400
G1 X136.468 Y132.129 E266.0731 F2400
G1 X136.153 Y135.206 E266.1752 F2400
G1 X135.756 Y138.283 E266.2776 F2400
G1 X135.276 Y141.360 E266.3804 F2400
G1 X134.712 Y144.437 E266.4836 F2400
G1 X134.065 Y147.514 E266.5874 F2400
G1 X133.335 Y150.591 E266.6917 F2400
G1 X132.522 Y153.669 E266.7968 F2400
G1 X131.628 Y156.746 E266.9025 F2400
G1 X130.656 Y159.823 E267.0090 F2400
G1 X129.617 Y162.900 E267.1162 F2400
G1 X128.511 Y165.977 E267.2241 F2400
G1 X127.340 Y169.054 E267.3327 F2400
G1 X126.105 Y172.131 E267.4422 F2400
G1 X124.807 Y175.208 E267.5524 F2400
G1 X123.447 Y178.286 E267.6634 F2400
G1 X122.026 Y181.363 E267.7752 F2400
G1 X120.541 Y184.440 E267.8880 F2400
G1 X118.986 Y187.517 E268.0017 F2400
G1 X117.337 Y190.594 E268.1170 F2400
G1 X115.497 Y193.671 E268.2353 F2400
G1 X110.003 Y196.748 E268.4431 F2400
G1 X109.997 Y196.748 E268.4433 F2400
G1 X104.503 Y193.671 E268.6511 F2400
G1 X102.663 Y190.594 E268.7694 F2400
G1 X101.014 Y187.517 E268.8846 F2400
G1 X99.459 Y184.440 E268.9984 F2400
G1 X97.974 Y181.363 E269.1111 F2400
G1 X96.553 Y178.286 E269.2230 F2400
G1 X95.193 Y175.208 E269.3340 F2400
G1 X93.895 Y172.131 E269.4442 F2400
G1 X92.660 Y169.054 E269.5536 F2400
G1 X91.489 Y165.977 E269.6623 F2400
G1 X90.383 Y162.900 E269.7702 F2400
G1 X89.344 Y159.823 E269.8774 F2400
G1 X88.372 Y156.746 E269.9839 F2400
G1 X87.478 Y153.669 E270.0896 F2400
G1 X86.665 Y150.591 E270.1946 F2400
G1 X85.935 Y147.514 E270.2990 F2400
G1 X85.288 Y144.437 E270.4028 F2400
G1 X84.724 Y141.360 E270.5060 F2400
G1 X84.244 Y138.283 E270.6088 F2400
G1 X83.847 Y135.206 E270.7111 F2400
G1 X83.532 Y132.129 E270.8132 F2400
G1 X83.299 Y129.052 E270.9151 F2400
G1 X83.145 Y125.975 E271.0167 F2400
G1 X83.069 Y122.897 E271.1183 F2400
G1 X83.069 Y119.820 E271.2198 F2400
G1 X83.144 Y116.743 E271.3214 F2400
G1 X83.291 Y113.666 E271.4231 F2400
G1 X83.509 Y110.589 E271.5249 F2400
G1 X83.796 Y107.512 E271.6269 F2400
G1 X84.149 Y104.435 E271.7291 F2400
G1 X84.567 Y101.358 E271.8316 F2400
G1 X85.049 Y98.281 E271.9343 F2400
G1 X85.595 Y95.203 E272.0375 F2400
G1 X86.205 Y92.126 E272.1410 F2400
G1 X86.881 Y89.049 E272.2450 F2400
G1 X87.626 Y85.972 E272.3494 F2400
G1 X88.446 Y82.895 E272.4545 F2400
G1 X89.351 Y79.818 E272.5604 F2400
G1 X90.360 Y76.741 E272.6672 F2400
G1 X91.504 Y73.664 E272.7756 F2400
G1 X92.840 Y70.587 E272.8863 F2400
G1 X94.950 Y67.509 E273.0094 F2400
G1 X99.158 Y64.432 E273.1814 F2400
G1 X110.000 Y61.355 E273.5533 F2400
G1 X110.000 Y61.355 E273.5533 F2400
G1 X82.000 Y104.000 Z7.500 F6000
G1 X138.000 Y104.000 E275.4013 F2600
G1 X82.000 Y122.000 Z7.500 F6000
G1 X138.000 Y122.000 E277.2493 F2600
G1 X82.000 Y140.000 Z7.500 F6000
G1 X138.000 Y140.000 E279.0973 F2600
;LAYER:25
G1 X110.000 Y60.970 Z7.800 F6000
G1 X120.924 Y64.067 E279.4720 F2400
G1 X125.164 Y67.164 E279.6453 F2400
G1 X127.290 Y70.260 E279.7693 F2400
G1 X128.637 Y73.357 E279.8807 F2400
G1 X129.789 Y76.454 E279.9897 F2400
G1 X130.806 Y79.550 E280.0973 F2400
G1 X131.718 Y82.647 E280.2038 F2400
G1 X132.544 Y85.744 E280.3096 F2400
G1 X133.295 Y88.840 E280.4147 F2400
G1 X133.976 Y91.937 E280.5194 F2400
G1 X134.590 Y95.033 E280.6235 F2400
G1 X135.141 Y98.130 E280.7273 F2400
G1 X135.627 Y101.227 E280.8308 F2400
G1 X136.048 Y104.323 E280.9339 F2400
G1 X136.404 Y107.420 E281.0368 F2400
G1 X136.692 Y110.517 E281.1394 F2400
G1 X136.912 Y113.613 E281.2418 F2400
G1 X137.060 Y116.710 E281.3441 F2400
G1 X137.136 Y119.807 E281.4464 F2400
G1 X137.136 Y122.903 E281.5486 F2400
G1 X137.060 Y126.000 E281.6508 F2400
G1 X136.904 Y129.096 E281.7531 F2400
G1 X136.669 Y132.193 E281.8556 F2400
G1 X136.352 Y135.290 E281.9583 F2400
G1 X135.952 Y138.386 E282.0613 F2400
G1 X135.468 Y141.483 E282.1648 F2400
G1 X134.900 Y144.580 E282.2687 F2400
G1 X134.248 Y147.676 E282.3731 F2400
G1 X133.513 Y150.773 E282.4781 F2400
G1 X132.694 Y153.870 E282.5838 F2400
G1 X131.793 Y156.966 E282.6902 F2400
G1 X130.814 Y160.063 E282.7974 F2400
G1 X129.766 Y163.159 E282.9053 F2400
G1 X128.652 Y166.256 E283.0139 F2400
G1 X127.472 Y169.353 E283.1233 F2400
G1 X126.227 Y172.449 E283.2334 F2400
G1 X124.919 Y175.546 E283.3443 F2400
G1 X123.549 Y178.643 E283.4561 F2400
G1 X122.117 Y181.739 E283.5687 F2400
G1 X120.621 Y184.836 E283.6821 F2400
G1 X119.055 Y187.933 E283.7967 F2400
G1 X117.393 Y191.029 E283.9126 F2400
G1 X115.539 Y194.126 E284.0317 F2400
G1 X110.003 Y197.222 E284.2411 F2400
G1 X109.997 Y197.222 E284.2413 F2400
G1 X104.461 Y194.126 E284.4506 F2400
G1 X102.607 Y191.029 E284.5697 F2400
G1 X100.945 Y187.933 E284.6857 F2400
G1 X99.379 Y184.836 E284.8002 F2400
G1 X97.883 Y181.739 E284.9137 F2400
G1 X96.451 Y178.643 E285.0263 F2400
G1 X95.081 Y175.546 E285.1380 F2400
G1 X93.773 Y172.449 E285.2489 F2400
G1 X92.528 Y169.353 E285.3591 F2400
G1 X91.348 Y166.256 E285.4684 F2400
G1 X90.234 Y163.159 E285.5770 F2400
G1 X89.186 Y160.063 E285.6849 F2400
G1 X88.207 Y156.966 E285.7921 F2400
G1 X87.306 Y153.870 E285.8985 F2400
G1 X86.487 Y150.773 E286.0042 F2400
G1 X85.752 Y147.676 E286.1093 F2400
G1 X85.100 Y144.580 E286.2137 F2400
G1 X84.532 Y141.483 E286.3176 F2400
G1 X84.048 Y138.386 E286.4210 F2400
G1 X83.648 Y135.290 E286.5240 F2400
G1 X83.331 Y132.193 E286.6268 F2400
G1 X83.096 Y129.096 E286.7292 F2400
G1 X82.940 Y126.000 E286.8316 F2400
G1 X82.864 Y122.903 E286.9338 F2400
G1 X82.864 Y119.807 E287.0360 F2400
G1 X82.940 Y116.710 E287.1382 F2400
G1 X83.088 Y113.613 E287.2405 F2400
G1 X83.308 Y110.517 E287.3429 F2400
G1 X83.596 Y107.420 E287.4456 F2400
G1 X83.952 Y104.323 E287.5484 F2400
G1 X84.373 Y101.227 E287.6516 F2400
G1 X84.859 Y98.130 E287.7550 F2400
G1 X85.410 Y95.033 E287.8588 F2400
G1 X86.024 Y91.937 E287.9630 F2400
G1 X86.705 Y88.840 E288.0676 F2400
G1 X87.456 Y85.744 E288.1728 F2400
G1 X88.282 Y82.647 E288.2785 F2400
G1 X89.194 Y79.550 E288.3851 F2400
G1 X90.211 Y76.454 E288.4926 F2400
G1 X91.363 Y73.357 E288.6016 F2400
G1 X92.710 Y70.260 E288.7131 F2400
G1 X94.836 Y67.164 E288.8370 F2400
G1 X99.076 Y64.067 E289.0103 F2400
G1 X110.000 Y60.970 E289.3850 F2400
G1 X110.000 Y60.970 E289.3850 F2400
;LAYER:26
G1 X110.000 Y60.592 Z8.100 F6000
G1 X121.005 Y63.708 E289.7624 F2400
G1 X125.277 Y66.824 E289.9369 F2400
G1 X127.418 Y69.940 E290.0617 F2400
G1 X128.775 Y73.056 E290.1738 F2400
G1 X129.935 Y76.171 E290.2836 F2400
G1 X130.960 Y79.287 E290.3918 F2400
G1 X131.879 Y82.403 E290.4990 F2400
G1 X132.711 Y85.519 E290.6054 F2400
G1 X133.467 Y88.635 E290.7112 F2400
G1 X134.153 Y91.751 E290.8165 F2400
G1 X134.772 Y94.866 E290.9213 F2400
G1 X135.326 Y97.982 E291.0258 F2400
G1 X135.816 Y101.098 E291.1299 F2400
G1 X136.241 Y104.214 E291.2336 F2400
G1 X136.599 Y107.330 E291.3371 F2400
G1 X136.890 Y110.445 E291.4404 F2400
G1 X137.111 Y113.561 E291.5435 F2400
G1 X137.260 Y116.677 E291.6464 F2400
G1 X137.336 Y119.793 E291.7493 F2400
G1 X137.337 Y122.909 E291.8521 F2400
G1 X137.260 Y126.025 E291.9550 F2400
G1 X137.103 Y129.140 E292.0579 F2400
G1 X136.866 Y132.256 E292.1610 F2400
G1 X136.547 Y135.372 E292.2644 F2400
G1 X136.144 Y138.488 E292.3681 F2400
G1 X135.656 Y141.604 E292.4721 F2400
G1 X135.084 Y144.720 E292.5767 F2400
G1 X134.428 Y147.835 E292.6818 F2400
G1 X133.686 Y150.951 E292.7874 F2400
G1 X132.861 Y154.067 E292.8938 F2400
G1 X131.954 Y157.183 E293.0009 F2400
G1 X130.967 Y160.299 E293.1088 F2400
G1 X129.912 Y163.414 E293.2173 F2400
G1 X128.790 Y166.530 E293.3266 F2400
G1 X127.601 Y169.646 E293.4367 F2400
G1 X126.347 Y172.762 E293.5475 F2400
G1 X125.030 Y175.878 E293.6591 F2400
G1 X123.649 Y178.994 E293.7716 F2400
G1 X122.207 Y182.109 E293.8849 F2400
G1 X120.700 Y185.225 E293.9991 F2400
G1 X119.122 Y188.341 E294.1144 F2400
G1 X117.448 Y191.457 E294.2311 F2400
G1 X115.580 Y194.573 E294.3510 F2400
G1 X110.003 Y197.689 E294.5618 F2400
G1 X109.997 Y197.689 E294.5620 F2400
G1 X104.420 Y194.573 E294.7728 F2400
G1 X102.552 Y191.457 E294.8927 F2400
G1 X100.878 Y188.341 E295.0094 F2400
G1 X99.300 Y185.225 E295.1247 F2400
G1 X97.793 Y182.109 E295.2389 F2400
G1 X96.351 Y178.994 E295.3522 F2400
G1 X94.970 Y175.878 E295.4647 F2400
G1 X93.653 Y172.762 E295.5763 F2400
G1 X92.399 Y169.646 E295.6871 F2400
G1 X91.210 Y166.530 E295.7972 F2400
G1 X90.088 Y163.414 E295.9065 F2400
G1 X89.033 Y160.299 E296.0150 F2400
G1 X88.046 Y157.183 E296.1229 F2400
G1 X87.139 Y154.067 E296.2300 F2400
G1 X86.314 Y150.951 E296.3363 F2400
G1 X85.572 Y147.835 E296.4420 F2400
G1 X84.916 Y144.720 E296.5471 F2400
G1 X84.344 Y141.604 E296.6517 F2400
G1 X83.856 Y138.488 E296.7557 F2400
G1 X83.453 Y135.372 E296.8594 F2400
G1 X83.134 Y132.256 E296.9628 F2400
G1 X82.897 Y129.140 E297.0659 F2400
G1 X82.740 Y126.025 E297.1688 F2400
G1 X82.663 Y122.909 E297.2717 F2400
G1 X82.664 Y119.793 E297.3745 F2400
G1 X82.740 Y116.677 E297.4774 F2400
G1 X82.889 Y113.561 E297.5803 F2400
G1 X83.110 Y110.445 E297.6834 F2400
G1 X83.401 Y107.330 E297.7867 F2400
G1 X83.759 Y104.214 E297.8902 F2400
G1 X84.184 Y101.098 E297.9939 F2400
G1 X84.674 Y97.982 E298.0980 F2400
G1 X85.228 Y94.866 E298.2024 F2400
G1 X85.847 Y91.751 E298.3073 F2400
G1 X86.533 Y88.635 E298.4126 F2400
G1 X87.289 Y85.519 E298.5184 F2400
G1 X88.121 Y82.403 E298.6248 F2400
G1 X89.040 Y79.287 E298.7320 F2400
G1 X90.065 Y76.171 E298.8402 F2400
G1 X91.225 Y73.056 E298.9500 F2400
G1 X92.582 Y69.940 E299.0621 F2400
G1 X94.723 Y66.824 E299.1869 F2400
G1 X98.995 Y63.708 E299.3613 F2400
G1 X110.000 Y60.592 E299.7388 F2400
G1 X110.000 Y60.592 E299.7388 F2400
;LAYER:27
G1 X110.000 Y60.220 Z8.400 F6000
G1 X121.084 Y63.355 E300.1189 F2400
G1 X125.386 Y66.490 E300.2946 F2400
G1 X127.544 Y69.625 E300.4201 F2400
G1 X128.910 Y72.759 E300.5330 F2400
G1 X130.079 Y75.894 E300.6434 F2400
G1 X131.110 Y79.029 E300.7523 F2400
G1 X132.036 Y82.163 E300.8602 F2400
G1 X132.874 Y85.298 E300.9672 F2400
G1 X133.636 Y88.433 E301.0737 F2400
G1 X134.327 Y91.567 E301.1796 F2400
G1 X134.950 Y94.702 E301.2851 F2400
G1 X135.509 Y97.837 E301.3902 F2400
G1 X136.002 Y100.971 E301.4949 F2400
G1 X136.429 Y104.106 E301.5993 F2400
G1 X136.790 Y107.241 E301.7034 F2400
G1 X137.083 Y110.376 E301.8073 F2400
G1 X137.306 Y113.510 E301.9110 F2400
G1 X137.456 Y116.645 E302.0146 F2400
G1 X137.533 Y119.780 E302.1180 F2400
G1 X137.533 Y122.914 E302.2215 F2400
G1 X137.456 Y126.049 E302.3250 F2400
G1 X137.298 Y129.184 E302.4285 F2400
G1 X137.059 Y132.318 E302.5323 F2400
G1 X136.737 Y135.453 E302.6363 F2400
G1 X136.332 Y138.588 E302.7406 F2400
G1 X135.841 Y141.722 E302.8453 F2400
G1 X135.265 Y144.857 E302.9505 F2400
G1 X134.603 Y147.992 E303.0562 F2400
G1 X133.857 Y151.127 E303.1625 F2400
G1 X133.026 Y154.261 E303.2695 F2400
G1 X132.112 Y157.396 E303.3773 F2400
G1 X131.118 Y160.531 E303.4858 F2400
G1 X130.055 Y163.665 E303.5950 F2400
G1 X128.925 Y166.800 E303.7050 F2400
G1 X127.727 Y169.935 E303.8157 F2400
G1 X126.465 Y173.069 E303.9273 F2400
G1 X125.138 Y176.204 E304.0396 F2400
G1 X123.748 Y179.339 E304.1528 F2400
G1 X122.295 Y182.473 E304.2668 F2400
G1 X120.777 Y185.608 E304.3817 F2400
G1 X119.187 Y188.743 E304.4977 F2400
G1 X117.501 Y191.878 E304.6152 F2400
G1 X115.620 Y195.012 E304.7358 F2400
G1 X110.003 Y198.147 E304.9481 F2400
G1 X109.997 Y198.147 E304.9483 F2400
G1 X104.380 Y195.012 E305.1605 F2400
G1 X102.499 Y191.878 E305.2812 F2400
G1 X100.813 Y188.743 E305.3986 F2400
G1 X99.223 Y185.608 E305.5146 F2400
G1 X97.705 Y182.473 E305.6296 F2400
G1 X96.252 Y179.339 E305.7436 F2400
G1 X94.862 Y176.204 E305.8567 F2400
G1 X93.535 Y173.069 E305.9691 F2400
G1 X92.273 Y169.935 E306.0806 F2400
G1 X91.075 Y166.800 E306.1913 F2400
G1 X89.945 Y163.665 E306.3013 F2400
G1 X88.882 Y160.531 E306.4105 F2400
G1 X87.888 Y157.396 E306.5190 F2400
G1 X86.974 Y154.261 E306.6268 F2400
G1 X86.143 Y151.127 E306.7338 F2400
G1 X85.397 Y147.992 E306.8401 F2400
G1 X84.735 Y144.857 E306.9459 F2400
G1 X84.159 Y141.722 E307.0510 F2400
G1 X83.668 Y138.588 E307.1558 F2400
G1 X83.263 Y135.453 E307.2601 F2400
G1 X82.941 Y132.318 E307.3641 F2400
G1 X82.702 Y129.184 E307.4678 F2400
G1 X82.544 Y126.049 E307.5714 F2400
G1 X82.467 Y122.914 E307.6748 F2400
G1 X82.467 Y119.780 E307.7783 F2400
G1 X82.544 Y116.645 E307.8818 F2400
G1 X82.694 Y113.510 E307.9853 F2400
G1 X82.917 Y110.376 E308.0890 F2400
G1 X83.210 Y107.241 E308.1929 F2400
G1 X83.571 Y104.106 E308.2971 F2400
G1 X83.998 Y100.971 E308.4015 F2400
G1 X84.491 Y97.837 E308.5062 F2400
G1 X85.050 Y94.702 E308.6113 F2400
G1 X85.673 Y91.567 E308.7167 F2400
G1 X86.364 Y88.433 E308.8227 F2400
G1 X87.126 Y85.298 E308.9291 F2400
G1 X87.964 Y82.163 E309.0362 F2400
G1 X88.890 Y79.029 E309.1440 F2400
G1 X89.921 Y75.894 E309.2529 F2400
G1 X91.090 Y72.759 E309.3634 F2400
G1 X92.456 Y69.625 E309.4762 F2400
G1 X94.614 Y66.490 E309.6018 F2400
G1 X98.916 Y63.355 E309.7774 F2400
G1 X110.000 Y60.220 E310.1576 F2400
G1 X110.000 Y60.220 E310.1576 F2400
G1 X82.000 Y104.000 Z8.400 F6000
G1 X138.000 Y104.000 E312.0056 F2600
G1 X82.000 Y122.000 Z8.400 F6000
G1 X138.000 Y122.000 E313.8536 F2600
G1 X82.000 Y140.000 Z8.400 F6000
G1 X138.000 Y140.000 E315.7016 F2600
;LAYER:28
G1 X110.000 Y59.854 Z8.700 F6000
G1 X121.162 Y63.008 E316.0843 F2400
G1 X125.494 Y66.161 E316.2611 F2400
G1 X127.666 Y69.314 E316.3875 F2400
G1 X129.042 Y72.468 E316.5010 F2400
G1 X130.219 Y75.621 E316.6121 F2400
G1 X131.258 Y78.774 E316.7217 F2400
G1 X132.190 Y81.927 E316.8302 F2400
G1 X133.034 Y85.081 E316.9379 F2400
G1 X133.801 Y88.234 E317.0450 F2400
G1 X134.497 Y91.387 E317.1515 F2400
G1 X135.125 Y94.540 E317.2576 F2400
G1 X135.687 Y97.694 E317.3633 F2400
G1 X136.184 Y100.847 E317.4687 F2400
G1 X136.614 Y104.000 E317.5737 F2400
G1 X136.978 Y107.153 E317.6784 F2400
G1 X137.273 Y110.307 E317.7830 F2400
G1 X137.497 Y113.460 E317.8873 F2400
G1 X137.648 Y116.613 E317.9915 F2400
G1 X137.725 Y119.766 E318.0955 F2400
G1 X137.726 Y122.920 E318.1996 F2400
G1 X137.648 Y126.073 E318.3037 F2400
G1 X137.489 Y129.226 E318.4079 F2400
G1 X137.249 Y132.379 E318.5122 F2400
G1 X136.925 Y135.533 E318.6168 F2400
G1 X136.516 Y138.686 E318.7218 F2400
G1 X136.022 Y141.839 E318.8271 F2400
G1 X135.442 Y144.993 E318.9329 F2400
G1 X134.776 Y148.146 E319.0393 F2400
G1 X134.024 Y151.299 E319.1462 F2400
G1 X133.187 Y154.452 E319.2539 F2400
G1 X132.267 Y157.606 E319.3623 F2400
G1 X131.266 Y160.759 E319.4715 F2400
G1 X130.196 Y163.912 E319.5814 F2400
G1 X129.057 Y167.065 E319.6920 F2400
G1 X127.851 Y170.219 E319.8034 F2400
G1 X126.580 Y173.372 E319.9156 F2400
G1 X125.244 Y176.525 E320.0286 F2400
G1 X123.844 Y179.678 E320.1425 F2400
G1 X122.381 Y182.832 E320.2572 F2400
G1 X120.852 Y185.985 E320.3728 F2400
G1 X119.252 Y189.138 E320.4895 F2400
G1 X117.554 Y192.291 E320.6077 F2400
G1 X115.660 Y195.445 E320.7291 F2400
G1 X110.003 Y198.598 E320.9428 F2400
G1 X109.997 Y198.598 E320.9430 F2400
G1 X104.340 Y195.445 E321.1567 F2400
G1 X102.446 Y192.291 E321.2781 F2400
G1 X100.748 Y189.138 E321.3963 F2400
G1 X99.148 Y185.985 E321.5130 F2400
G1 X97.619 Y182.832 E321.6286 F2400
G1 X96.156 Y179.678 E321.7433 F2400
G1 X94.756 Y176.525 E321.8572 F2400
G1 X93.420 Y173.372 E321.9702 F2400
G1 X92.149 Y170.219 E322.0824 F2400
G1 X90.943 Y167.065 E322.1938 F2400
G1 X89.804 Y163.912 E322.3044 F2400
G1 X88.734 Y160.759 E322.4143 F2400
G1 X87.733 Y157.606 E322.5235 F2400
G1 X86.813 Y154.452 E322.6319 F2400
G1 X85.976 Y151.299 E322.7395 F2400
G1 X85.224 Y148.146 E322.8465 F2400
G1 X84.558 Y144.993 E322.9529 F2400
G1 X83.978 Y141.839 E323.0587 F2400
G1 X83.484 Y138.686 E323.1640 F2400
G1 X83.075 Y135.533 E323.2689 F2400
G1 X82.751 Y132.379 E323.3735 F2400
G1 X82.511 Y129.226 E323.4779 F2400
G1 X82.352 Y126.073 E323.5821 F2400
G1 X82.274 Y122.920 E323.6862 F2400
G1 X82.275 Y119.766 E323.7902 F2400
G1 X82.352 Y116.613 E323.8943 F2400
G1 X82.503 Y113.460 E323.9985 F2400
G1 X82.727 Y110.307 E324.1028 F2400
G1 X83.022 Y107.153 E324.2073 F2400
G1 X83.386 Y104.000 E324.3121 F2400
G1 X83.816 Y100.847 E324.4171 F2400
G1 X84.313 Y97.694 E324.5224 F2400
G1 X84.875 Y94.540 E324.6281 F2400
G1 X85.503 Y91.387 E324.7342 F2400
G1 X86.199 Y88.234 E324.8408 F2400
G1 X86.966 Y85.081 E324.9479 F2400
G1 X87.810 Y81.927 E325.0556 F2400
G1 X88.742 Y78.774 E325.1641 F2400
G1 X89.781 Y75.621 E325.2737 F2400
G1 X90.958 Y72.468 E325.3847 F2400
G1 X92.334 Y69.314 E325.4983 F2400
G1 X94.506 Y66.161 E325.6246 F2400
G1 X98.838 Y63.008 E325.8015 F2400
G1 X110.000 Y59.854 E326.1842 F2400
G1 X110.000 Y59.854 E326.1842 F2400
;LAYER:29
G1 X110.000 Y59.494 Z9.000 F6000
G1 X121.238 Y62.666 E326.5696 F2400
G1 X125.600 Y65.837 E326.7475 F2400
G1 X127.787 Y69.009 E326.8747 F2400
G1 X129.172 Y72.180 E326.9889 F2400
G1 X130.357 Y75.352 E327.1006 F2400
G1 X131.403 Y78.523 E327.2108 F2400
G1 X132.342 Y81.695 E327.3199 F2400
G1 X133.191 Y84.866 E327.4283 F2400
G1 X133.963 Y88.038 E327.5360 F2400
G1 X134.664 Y91.210 E327.6432 F2400
G1 X135.296 Y94.381 E327.7499 F2400
G1 X135.862 Y97.553 E327.8562 F2400
G1 X136.362 Y100.724 E327.9622 F2400
G1 X136.796 Y103.896 E328.0678 F2400
G1 X137.162 Y107.067 E328.1732 F2400
G1 X137.459 Y110.239 E328.2783 F2400
G1 X137.684 Y113.410 E328.3832 F2400
G1 X137.837 Y116.582 E328.4880 F2400
G1 X137.915 Y119.753 E328.5927 F2400
G1 X137.915 Y122.925 E328.6974 F2400
G1 X137.836 Y126.097 E328.8021 F2400
G1 X137.677 Y129.268 E328.9068 F2400
G1 X137.435 Y132.440 E329.0118 F2400
G1 X137.108 Y135.611 E329.1170 F2400
G1 X136.697 Y138.783 E329.2226 F2400
G1 X136.199 Y141.954 E329.3285 F2400
G1 X135.615 Y145.126 E329.4349 F2400
G1 X134.944 Y148.297 E329.5419 F2400
G1 X134.188 Y151.469 E329.6495 F2400
G1 X133.345 Y154.640 E329.7578 F2400
G1 X132.418 Y157.812 E329.8668 F2400
G1 X131.411 Y160.984 E329.9766 F2400
G1 X130.333 Y164.155 E330.0872 F2400
G1 X129.187 Y167.327 E330.1985 F2400
G1 X127.973 Y170.498 E330.3105 F2400
G1 X126.693 Y173.670 E330.4234 F2400
G1 X125.348 Y176.841 E330.5371 F2400
G1 X123.938 Y180.013 E330.6516 F2400
G1 X122.465 Y183.184 E330.7670 F2400
G1 X120.926 Y186.356 E330.8833 F2400
G1 X119.315 Y189.527 E331.0007 F2400
G1 X117.605 Y192.699 E331.1196 F2400
G1 X115.698 Y195.871 E331.2418 F2400
G1 X110.003 Y199.042 E331.4569 F2400
G1 X109.997 Y199.042 E331.4571 F2400
G1 X104.302 Y195.871 E331.6722 F2400
G1 X102.395 Y192.699 E331.7943 F2400
G1 X100.685 Y189.527 E331.9132 F2400
G1 X99.074 Y186.356 E332.0306 F2400
G1 X97.535 Y183.184 E332.1469 F2400
G1 X96.062 Y180.013 E332.2623 F2400
G1 X94.652 Y176.841 E332.3769 F2400
G1 X93.307 Y173.670 E332.4906 F2400
G1 X92.027 Y170.498 E332.6034 F2400
G1 X90.813 Y167.327 E332.7155 F2400
G1 X89.667 Y164.155 E332.8268 F2400
G1 X88.589 Y160.984 E332.9373 F2400
G1 X87.582 Y157.812 E333.0471 F2400
G1 X86.655 Y154.640 E333.1562 F2400
G1 X85.812 Y151.469 E333.2645 F2400
G1 X85.056 Y148.297 E333.3721 F2400
G1 X84.385 Y145.126 E333.4790 F2400
G1 X83.801 Y141.954 E333.5855 F2400
G1 X83.303 Y138.783 E333.6914 F2400
G1 X82.892 Y135.611 E333.7969 F2400
G1 X82.565 Y132.440 E333.9022 F2400
G1 X82.323 Y129.268 E334.0071 F2400
G1 X82.164 Y126.097 E334.1119 F2400
G1 X82.085 Y122.925 E334.2166 F2400
G1 X82.085 Y119.753 E334.3213 F2400
G1 X82.163 Y116.582 E334.4260 F2400
