; Full boat hull - procedurally generated
; Layers:133  Height:40.0mm  Length:160.0mm  Width:60.0mm
G21
G90
M82
M104 S200
M140 S60
G28
M109 S200
M190 S60
G92 E0
G1 Z5 F3000
; LAYER:0
G1 X59.500 Y80.000 Z0.300 F6000
G1 X59.061 Y82.667 E0.0892 F1500
G1 X58.103 Y85.333 E0.1827 F1500
G1 X57.288 Y88.000 E0.2747 F1500
G1 X56.558 Y90.667 E0.3659 F1500
G1 X55.889 Y93.333 E0.4567 F1500
G1 X55.266 Y96.000 E0.5470 F1500
G1 X54.683 Y98.667 E0.6371 F1500
G1 X54.135 Y101.333 E0.7270 F1500
G1 X53.618 Y104.000 E0.8166 F1500
G1 X53.130 Y106.667 E0.9061 F1500
G1 X52.669 Y109.333 E0.9954 F1500
G1 X52.234 Y112.000 E1.0845 F1500
G1 X51.825 Y114.667 E1.1736 F1500
G1 X51.440 Y117.333 E1.2625 F1500
G1 X51.079 Y120.000 E1.3513 F1500
G1 X50.742 Y122.667 E1.4400 F1500
G1 X50.428 Y125.333 E1.5286 F1500
G1 X50.138 Y128.000 E1.6171 F1500
G1 X49.871 Y130.667 E1.7055 F1500
G1 X49.627 Y133.333 E1.7939 F1500
G1 X49.407 Y136.000 E1.8822 F1500
G1 X49.209 Y138.667 E1.9704 F1500
G1 X49.035 Y141.333 E2.0586 F1500
G1 X48.884 Y144.000 E2.1468 F1500
G1 X48.756 Y146.667 E2.2349 F1500
G1 X48.651 Y149.333 E2.3229 F1500
G1 X48.570 Y152.000 E2.4110 F1500
G1 X48.512 Y154.667 E2.4990 F1500
G1 X48.477 Y157.333 E2.5870 F1500
G1 X48.465 Y160.000 E2.6750 F1500
G1 X48.477 Y162.667 E2.7630 F1500
G1 X48.512 Y165.333 E2.8510 F1500
G1 X48.570 Y168.000 E2.9390 F1500
G1 X48.651 Y170.667 E3.0271 F1500
G1 X48.756 Y173.333 E3.1152 F1500
G1 X48.884 Y176.000 E3.2033 F1500
G1 X49.035 Y178.667 E3.2914 F1500
G1 X49.209 Y181.333 E3.3796 F1500
G1 X49.407 Y184.000 E3.4678 F1500
G1 X49.627 Y186.667 E3.5561 F1500
G1 X49.871 Y189.333 E3.6445 F1500
G1 X50.138 Y192.000 E3.7329 F1500
G1 X50.428 Y194.667 E3.8215 F1500
G1 X50.742 Y197.333 E3.9101 F1500
G1 X51.079 Y200.000 E3.9988 F1500
G1 X51.440 Y202.667 E4.0876 F1500
G1 X51.825 Y205.333 E4.1765 F1500
G1 X52.234 Y208.000 E4.2655 F1500
G1 X52.669 Y210.667 E4.3547 F1500
G1 X53.130 Y213.333 E4.4440 F1500
G1 X53.618 Y216.000 E4.5334 F1500
G1 X54.135 Y218.667 E4.6231 F1500
G1 X54.683 Y221.333 E4.7129 F1500
G1 X55.266 Y224.000 E4.8030 F1500
G1 X55.889 Y226.667 E4.8934 F1500
G1 X56.558 Y229.333 E4.9841 F1500
G1 X57.288 Y232.000 E5.0753 F1500
G1 X58.103 Y234.667 E5.1673 F1500
G1 X59.061 Y237.333 E5.2609 F1500
G1 X59.500 Y240.000 E5.3500 F1500
G1 X60.500 Y240.000 E5.3830 F1500
G1 X60.939 Y237.333 E5.4722 F1500
G1 X61.897 Y234.667 E5.5657 F1500
G1 X62.712 Y232.000 E5.6577 F1500
G1 X63.442 Y229.333 E5.7490 F1500
G1 X64.111 Y226.667 E5.8397 F1500
G1 X64.734 Y224.000 E5.9301 F1500
G1 X65.317 Y221.333 E6.0202 F1500
G1 X65.865 Y218.667 E6.1100 F1500
G1 X66.382 Y216.000 E6.1996 F1500
G1 X66.870 Y213.333 E6.2891 F1500
G1 X67.331 Y210.667 E6.3784 F1500
G1 X67.766 Y208.000 E6.4676 F1500
G1 X68.175 Y205.333 E6.5566 F1500
G1 X68.560 Y202.667 E6.6455 F1500
G1 X68.921 Y200.000 E6.7343 F1500
G1 X69.258 Y197.333 E6.8230 F1500
G1 X69.572 Y194.667 E6.9116 F1500
G1 X69.862 Y192.000 E7.0001 F1500
G1 X70.129 Y189.333 E7.0886 F1500
G1 X70.373 Y186.667 E7.1769 F1500
G1 X70.593 Y184.000 E7.2652 F1500
G1 X70.791 Y181.333 E7.3535 F1500
G1 X70.965 Y178.667 E7.4417 F1500
G1 X71.116 Y176.000 E7.5298 F1500
G1 X71.244 Y173.333 E7.6179 F1500
G1 X71.349 Y170.667 E7.7060 F1500
G1 X71.430 Y168.000 E7.7940 F1500
G1 X71.488 Y165.333 E7.8820 F1500
G1 X71.523 Y162.667 E7.9701 F1500
G1 X71.535 Y160.000 E8.0581 F1500
G1 X71.523 Y157.333 E8.1461 F1500
G1 X71.488 Y154.667 E8.2341 F1500
G1 X71.430 Y152.000 E8.3221 F1500
G1 X71.349 Y149.333 E8.4101 F1500
G1 X71.244 Y146.667 E8.4982 F1500
G1 X71.116 Y144.000 E8.5863 F1500
G1 X70.965 Y141.333 E8.6744 F1500
G1 X70.791 Y138.667 E8.7626 F1500
G1 X70.593 Y136.000 E8.8509 F1500
G1 X70.373 Y133.333 E8.9392 F1500
G1 X70.129 Y130.667 E9.0275 F1500
G1 X69.862 Y128.000 E9.1160 F1500
G1 X69.572 Y125.333 E9.2045 F1500
G1 X69.258 Y122.667 E9.2931 F1500
G1 X68.921 Y120.000 E9.3818 F1500
G1 X68.560 Y117.333 E9.4706 F1500
G1 X68.175 Y114.667 E9.5595 F1500
G1 X67.766 Y112.000 E9.6485 F1500
G1 X67.331 Y109.333 E9.7377 F1500
G1 X66.870 Y106.667 E9.8270 F1500
G1 X66.382 Y104.000 E9.9165 F1500
G1 X65.865 Y101.333 E10.0061 F1500
G1 X65.317 Y98.667 E10.0959 F1500
G1 X64.734 Y96.000 E10.1860 F1500
G1 X64.111 Y93.333 E10.2764 F1500
G1 X63.442 Y90.667 E10.3671 F1500
G1 X62.712 Y88.000 E10.4584 F1500
G1 X61.897 Y85.333 E10.5504 F1500
G1 X60.939 Y82.667 E10.6439 F1500
G1 X60.500 Y80.000 E10.7331 F1500
G1 X59.500 Y80.000 Z0.300 F6000
G1 X58.661 Y82.667 E10.8253 F1500
G1 X57.703 Y85.333 E10.9188 F1500
G1 X56.888 Y88.000 E11.0108 F1500
G1 X56.158 Y90.667 E11.1021 F1500
G1 X55.489 Y93.333 E11.1928 F1500
G1 X54.866 Y96.000 E11.2832 F1500
G1 X54.283 Y98.667 E11.3733 F1500
G1 X53.735 Y101.333 E11.4631 F1500
G1 X53.218 Y104.000 E11.5527 F1500
G1 X52.730 Y106.667 E11.6422 F1500
G1 X52.269 Y109.333 E11.7315 F1500
G1 X51.834 Y112.000 E11.8207 F1500
G1 X51.425 Y114.667 E11.9097 F1500
G1 X51.040 Y117.333 E11.9986 F1500
G1 X50.679 Y120.000 E12.0874 F1500
G1 X50.342 Y122.667 E12.1761 F1500
G1 X50.028 Y125.333 E12.2647 F1500
G1 X49.738 Y128.000 E12.3532 F1500
G1 X49.471 Y130.667 E12.4417 F1500
G1 X49.227 Y133.333 E12.5300 F1500
G1 X49.007 Y136.000 E12.6183 F1500
G1 X48.809 Y138.667 E12.7066 F1500
G1 X48.635 Y141.333 E12.7948 F1500
G1 X48.484 Y144.000 E12.8829 F1500
G1 X48.356 Y146.667 E12.9710 F1500
G1 X48.251 Y149.333 E13.0591 F1500
G1 X48.170 Y152.000 E13.1471 F1500
G1 X48.112 Y154.667 E13.2351 F1500
G1 X48.077 Y157.333 E13.3232 F1500
G1 X48.065 Y160.000 E13.4112 F1500
G1 X48.077 Y162.667 E13.4992 F1500
G1 X48.112 Y165.333 E13.5872 F1500
G1 X48.170 Y168.000 E13.6752 F1500
G1 X48.251 Y170.667 E13.7632 F1500
G1 X48.356 Y173.333 E13.8513 F1500
G1 X48.484 Y176.000 E13.9394 F1500
G1 X48.635 Y178.667 E14.0275 F1500
G1 X48.809 Y181.333 E14.1157 F1500
G1 X49.007 Y184.000 E14.2040 F1500
G1 X49.227 Y186.667 E14.2923 F1500
G1 X49.471 Y189.333 E14.3806 F1500
G1 X49.738 Y192.000 E14.4691 F1500
G1 X50.028 Y194.667 E14.5576 F1500
G1 X50.342 Y197.333 E14.6462 F1500
G1 X50.679 Y200.000 E14.7349 F1500
G1 X51.040 Y202.667 E14.8237 F1500
G1 X51.425 Y205.333 E14.9126 F1500
G1 X51.834 Y208.000 E15.0016 F1500
G1 X52.269 Y210.667 E15.0908 F1500
G1 X52.730 Y213.333 E15.1801 F1500
G1 X53.218 Y216.000 E15.2696 F1500
G1 X53.735 Y218.667 E15.3592 F1500
G1 X54.283 Y221.333 E15.4491 F1500
G1 X54.866 Y224.000 E15.5391 F1500
G1 X55.489 Y226.667 E15.6295 F1500
G1 X56.158 Y229.333 E15.7202 F1500
G1 X56.888 Y232.000 E15.8115 F1500
G1 X57.703 Y234.667 E15.9035 F1500
G1 X58.661 Y237.333 E15.9970 F1500
G1 X59.500 Y240.000 E16.0892 F1500
G1 X60.500 Y240.000 E16.1222 F1500
G1 X61.339 Y237.333 E16.2145 F1500
G1 X62.297 Y234.667 E16.3080 F1500
G1 X63.112 Y232.000 E16.4000 F1500
G1 X63.842 Y229.333 E16.4913 F1500
G1 X64.511 Y226.667 E16.5820 F1500
G1 X65.134 Y224.000 E16.6723 F1500
G1 X65.717 Y221.333 E16.7624 F1500
G1 X66.265 Y218.667 E16.8523 F1500
G1 X66.782 Y216.000 E16.9419 F1500
G1 X67.270 Y213.333 E17.0314 F1500
G1 X67.731 Y210.667 E17.1207 F1500
G1 X68.166 Y208.000 E17.2098 F1500
G1 X68.575 Y205.333 E17.2989 F1500
G1 X68.960 Y202.667 E17.3878 F1500
G1 X69.321 Y200.000 E17.4766 F1500
G1 X69.658 Y197.333 E17.5653 F1500
G1 X69.972 Y194.667 E17.6539 F1500
G1 X70.262 Y192.000 E17.7424 F1500
G1 X70.529 Y189.333 E17.8308 F1500
G1 X70.773 Y186.667 E17.9192 F1500
G1 X70.993 Y184.000 E18.0075 F1500
G1 X71.191 Y181.333 E18.0958 F1500
G1 X71.365 Y178.667 E18.1839 F1500
G1 X71.516 Y176.000 E18.2721 F1500
G1 X71.644 Y173.333 E18.3602 F1500
G1 X71.749 Y170.667 E18.4483 F1500
G1 X71.830 Y168.000 E18.5363 F1500
G1 X71.888 Y165.333 E18.6243 F1500
G1 X71.923 Y162.667 E18.7123 F1500
G1 X71.935 Y160.000 E18.8003 F1500
G1 X71.923 Y157.333 E18.8883 F1500
G1 X71.888 Y154.667 E18.9763 F1500
G1 X71.830 Y152.000 E19.0644 F1500
G1 X71.749 Y149.333 E19.1524 F1500
G1 X71.644 Y146.667 E19.2405 F1500
G1 X71.516 Y144.000 E19.3286 F1500
G1 X71.365 Y141.333 E19.4167 F1500
G1 X71.191 Y138.667 E19.5049 F1500
G1 X70.993 Y136.000 E19.5931 F1500
G1 X70.773 Y133.333 E19.6814 F1500
G1 X70.529 Y130.667 E19.7698 F1500
G1 X70.262 Y128.000 E19.8582 F1500
G1 X69.972 Y125.333 E19.9468 F1500
G1 X69.658 Y122.667 E20.0354 F1500
G1 X69.321 Y120.000 E20.1241 F1500
G1 X68.960 Y117.333 E20.2129 F1500
G1 X68.575 Y114.667 E20.3018 F1500
G1 X68.166 Y112.000 E20.3908 F1500
G1 X67.731 Y109.333 E20.4800 F1500
G1 X67.270 Y106.667 E20.5693 F1500
G1 X66.782 Y104.000 E20.6587 F1500
G1 X66.265 Y101.333 E20.7484 F1500
G1 X65.717 Y98.667 E20.8382 F1500
G1 X65.134 Y96.000 E20.9283 F1500
G1 X64.511 Y93.333 E21.0187 F1500
G1 X63.842 Y90.667 E21.1094 F1500
G1 X63.112 Y88.000 E21.2006 F1500
G1 X62.297 Y85.333 E21.2926 F1500
G1 X61.339 Y82.667 E21.3862 F1500
G1 X60.500 Y80.000 E21.4784 F1500
; LAYER:1
G1 X59.500 Y80.000 Z0.600 F6000
G1 X59.044 Y82.667 E21.5677 F3000
G1 X58.075 Y85.333 E21.6613 F3000
G1 X57.251 Y88.000 E21.7534 F3000
G1 X56.513 Y90.667 E21.8447 F3000
G1 X55.836 Y93.333 E21.9355 F3000
G1 X55.207 Y96.000 E22.0259 F3000
G1 X54.618 Y98.667 E22.1161 F3000
G1 X54.063 Y101.333 E22.2059 F3000
G1 X53.540 Y104.000 E22.2956 F3000
G1 X53.047 Y106.667 E22.3851 F3000
G1 X52.581 Y109.333 E22.4744 F3000
G1 X52.141 Y112.000 E22.5636 F3000
G1 X51.727 Y114.667 E22.6527 F3000
G1 X51.338 Y117.333 E22.7416 F3000
G1 X50.973 Y120.000 E22.8304 F3000
G1 X50.632 Y122.667 E22.9192 F3000
G1 X50.315 Y125.333 E23.0078 F3000
G1 X50.022 Y128.000 E23.0963 F3000
G1 X49.752 Y130.667 E23.1848 F3000
G1 X49.505 Y133.333 E23.2731 F3000
G1 X49.282 Y136.000 E23.3614 F3000
G1 X49.083 Y138.667 E23.4497 F3000
G1 X48.906 Y141.333 E23.5379 F3000
G1 X48.754 Y144.000 E23.6260 F3000
G1 X48.624 Y146.667 E23.7141 F3000
G1 X48.518 Y149.333 E23.8022 F3000
G1 X48.436 Y152.000 E23.8902 F3000
G1 X48.377 Y154.667 E23.9783 F3000
G1 X48.342 Y157.333 E24.0663 F3000
G1 X48.330 Y160.000 E24.1543 F3000
G1 X48.342 Y162.667 E24.2423 F3000
G1 X48.377 Y165.333 E24.3303 F3000
G1 X48.436 Y168.000 E24.4183 F3000
G1 X48.518 Y170.667 E24.5063 F3000
G1 X48.624 Y173.333 E24.5944 F3000
G1 X48.754 Y176.000 E24.6825 F3000
G1 X48.906 Y178.667 E24.7707 F3000
G1 X49.083 Y181.333 E24.8588 F3000
G1 X49.282 Y184.000 E24.9471 F3000
G1 X49.505 Y186.667 E25.0354 F3000
G1 X49.752 Y189.333 E25.1238 F3000
G1 X50.022 Y192.000 E25.2122 F3000
G1 X50.315 Y194.667 E25.3008 F3000
G1 X50.632 Y197.333 E25.3894 F3000
G1 X50.973 Y200.000 E25.4781 F3000
G1 X51.338 Y202.667 E25.5669 F3000
G1 X51.727 Y205.333 E25.6558 F3000
G1 X52.141 Y208.000 E25.7449 F3000
G1 X52.581 Y210.667 E25.8341 F3000
G1 X53.047 Y213.333 E25.9234 F3000
G1 X53.540 Y216.000 E26.0129 F3000
G1 X54.063 Y218.667 E26.1026 F3000
G1 X54.618 Y221.333 E26.1925 F3000
G1 X55.207 Y224.000 E26.2826 F3000
G1 X55.836 Y226.667 E26.3730 F3000
G1 X56.513 Y229.333 E26.4638 F3000
G1 X57.251 Y232.000 E26.5551 F3000
G1 X58.075 Y234.667 E26.6472 F3000
G1 X59.044 Y237.333 E26.7408 F3000
G1 X59.500 Y240.000 E26.8301 F3000
G1 X60.500 Y240.000 E26.8631 F3000
G1 X60.956 Y237.333 E26.9524 F3000
G1 X61.925 Y234.667 E27.0460 F3000
G1 X62.749 Y232.000 E27.1381 F3000
G1 X63.487 Y229.333 E27.2294 F3000
G1 X64.164 Y226.667 E27.3202 F3000
G1 X64.793 Y224.000 E27.4106 F3000
G1 X65.382 Y221.333 E27.5008 F3000
G1 X65.937 Y218.667 E27.5907 F3000
G1 X66.460 Y216.000 E27.6803 F3000
G1 X66.953 Y213.333 E27.7698 F3000
G1 X67.419 Y210.667 E27.8592 F3000
G1 X67.859 Y208.000 E27.9483 F3000
G1 X68.273 Y205.333 E28.0374 F3000
G1 X68.662 Y202.667 E28.1263 F3000
G1 X69.027 Y200.000 E28.2152 F3000
G1 X69.368 Y197.333 E28.3039 F3000
G1 X69.685 Y194.667 E28.3925 F3000
G1 X69.978 Y192.000 E28.4810 F3000
G1 X70.248 Y189.333 E28.5695 F3000
G1 X70.495 Y186.667 E28.6578 F3000
G1 X70.718 Y184.000 E28.7461 F3000
G1 X70.917 Y181.333 E28.8344 F3000
G1 X71.094 Y178.667 E28.9226 F3000
G1 X71.246 Y176.000 E29.0107 F3000
G1 X71.376 Y173.333 E29.0988 F3000
G1 X71.482 Y170.667 E29.1869 F3000
G1 X71.564 Y168.000 E29.2749 F3000
G1 X71.623 Y165.333 E29.3630 F3000
G1 X71.658 Y162.667 E29.4510 F3000
G1 X71.670 Y160.000 E29.5390 F3000
G1 X71.658 Y157.333 E29.6270 F3000
G1 X71.623 Y154.667 E29.7150 F3000
G1 X71.564 Y152.000 E29.8030 F3000
G1 X71.482 Y149.333 E29.8910 F3000
G1 X71.376 Y146.667 E29.9791 F3000
G1 X71.246 Y144.000 E30.0672 F3000
G1 X71.094 Y141.333 E30.1554 F3000
G1 X70.917 Y138.667 E30.2436 F3000
G1 X70.718 Y136.000 E30.3318 F3000
G1 X70.495 Y133.333 E30.4201 F3000
G1 X70.248 Y130.667 E30.5085 F3000
G1 X69.978 Y128.000 E30.5969 F3000
G1 X69.685 Y125.333 E30.6855 F3000
G1 X69.368 Y122.667 E30.7741 F3000
G1 X69.027 Y120.000 E30.8628 F3000
G1 X68.662 Y117.333 E30.9516 F3000
G1 X68.273 Y114.667 E31.0406 F3000
G1 X67.859 Y112.000 E31.1296 F3000
G1 X67.419 Y109.333 E31.2188 F3000
G1 X66.953 Y106.667 E31.3081 F3000
G1 X66.460 Y104.000 E31.3976 F3000
G1 X65.937 Y101.333 E31.4873 F3000
G1 X65.382 Y98.667 E31.5772 F3000
G1 X64.793 Y96.000 E31.6673 F3000
G1 X64.164 Y93.333 E31.7577 F3000
G1 X63.487 Y90.667 E31.8485 F3000
G1 X62.749 Y88.000 E31.9398 F3000
G1 X61.925 Y85.333 E32.0319 F3000
G1 X60.956 Y82.667 E32.1256 F3000
G1 X60.500 Y80.000 E32.2148 F3000
G1 X59.500 Y80.000 Z0.600 F6000
G1 X58.644 Y82.667 E32.3073 F3000
G1 X57.675 Y85.333 E32.4009 F3000
G1 X56.851 Y88.000 E32.4930 F3000
G1 X56.113 Y90.667 E32.5843 F3000
G1 X55.436 Y93.333 E32.6751 F3000
G1 X54.807 Y96.000 E32.7655 F3000
G1 X54.218 Y98.667 E32.8556 F3000
G1 X53.663 Y101.333 E32.9455 F3000
G1 X53.140 Y104.000 E33.0352 F3000
G1 X52.647 Y106.667 E33.1247 F3000
G1 X52.181 Y109.333 E33.2140 F3000
G1 X51.741 Y112.000 E33.3032 F3000
G1 X51.327 Y114.667 E33.3923 F3000
G1 X50.938 Y117.333 E33.4812 F3000
G1 X50.573 Y120.000 E33.5700 F3000
G1 X50.232 Y122.667 E33.6587 F3000
G1 X49.915 Y125.333 E33.7473 F3000
G1 X49.622 Y128.000 E33.8359 F3000
G1 X49.352 Y130.667 E33.9243 F3000
G1 X49.105 Y133.333 E34.0127 F3000
G1 X48.882 Y136.000 E34.1010 F3000
G1 X48.683 Y138.667 E34.1893 F3000
G1 X48.506 Y141.333 E34.2774 F3000
G1 X48.354 Y144.000 E34.3656 F3000
G1 X48.224 Y146.667 E34.4537 F3000
G1 X48.118 Y149.333 E34.5418 F3000
G1 X48.036 Y152.000 E34.6298 F3000
G1 X47.977 Y154.667 E34.7178 F3000
G1 X47.942 Y157.333 E34.8058 F3000
G1 X47.930 Y160.000 E34.8938 F3000
G1 X47.942 Y162.667 E34.9818 F3000
G1 X47.977 Y165.333 E35.0698 F3000
G1 X48.036 Y168.000 E35.1579 F3000
G1 X48.118 Y170.667 E35.2459 F3000
G1 X48.224 Y173.333 E35.3340 F3000
G1 X48.354 Y176.000 E35.4221 F3000
G1 X48.506 Y178.667 E35.5102 F3000
G1 X48.683 Y181.333 E35.5984 F3000
G1 X48.882 Y184.000 E35.6867 F3000
G1 X49.105 Y186.667 E35.7750 F3000
G1 X49.352 Y189.333 E35.8633 F3000
G1 X49.622 Y192.000 E35.9518 F3000
G1 X49.915 Y194.667 E36.0403 F3000
G1 X50.232 Y197.333 E36.1289 F3000
G1 X50.573 Y200.000 E36.2177 F3000
G1 X50.938 Y202.667 E36.3065 F3000
G1 X51.327 Y205.333 E36.3954 F3000
G1 X51.741 Y208.000 E36.4845 F3000
G1 X52.181 Y210.667 E36.5737 F3000
G1 X52.647 Y213.333 E36.6630 F3000
G1 X53.140 Y216.000 E36.7525 F3000
G1 X53.663 Y218.667 E36.8422 F3000
G1 X54.218 Y221.333 E36.9320 F3000
G1 X54.807 Y224.000 E37.0222 F3000
G1 X55.436 Y226.667 E37.1126 F3000
G1 X56.113 Y229.333 E37.2034 F3000
G1 X56.851 Y232.000 E37.2947 F3000
G1 X57.675 Y234.667 E37.3868 F3000
G1 X58.644 Y237.333 E37.4804 F3000
G1 X59.500 Y240.000 E37.5728 F3000
G1 X60.500 Y240.000 E37.6058 F3000
G1 X61.356 Y237.333 E37.6983 F3000
G1 X62.325 Y234.667 E37.7919 F3000
G1 X63.149 Y232.000 E37.8840 F3000
G1 X63.887 Y229.333 E37.9753 F3000
G1 X64.564 Y226.667 E38.0661 F3000
G1 X65.193 Y224.000 E38.1565 F3000
G1 X65.782 Y221.333 E38.2466 F3000
G1 X66.337 Y218.667 E38.3365 F3000
G1 X66.860 Y216.000 E38.4262 F3000
G1 X67.353 Y213.333 E38.5157 F3000
G1 X67.819 Y210.667 E38.6050 F3000
G1 X68.259 Y208.000 E38.6942 F3000
G1 X68.673 Y205.333 E38.7833 F3000
G1 X69.062 Y202.667 E38.8722 F3000
G1 X69.427 Y200.000 E38.9610 F3000
G1 X69.768 Y197.333 E39.0497 F3000
G1 X70.085 Y194.667 E39.1383 F3000
G1 X70.378 Y192.000 E39.2269 F3000
G1 X70.648 Y189.333 E39.3153 F3000
G1 X70.895 Y186.667 E39.4037 F3000
G1 X71.118 Y184.000 E39.4920 F3000
G1 X71.317 Y181.333 E39.5803 F3000
G1 X71.494 Y178.667 E39.6684 F3000
G1 X71.646 Y176.000 E39.7566 F3000
G1 X71.776 Y173.333 E39.8447 F3000
G1 X71.882 Y170.667 E39.9328 F3000
G1 X71.964 Y168.000 E40.0208 F3000
G1 X72.023 Y165.333 E40.1088 F3000
G1 X72.058 Y162.667 E40.1968 F3000
G1 X72.070 Y160.000 E40.2848 F3000
G1 X72.058 Y157.333 E40.3728 F3000
G1 X72.023 Y154.667 E40.4608 F3000
G1 X71.964 Y152.000 E40.5489 F3000
G1 X71.882 Y149.333 E40.6369 F3000
G1 X71.776 Y146.667 E40.7250 F3000
G1 X71.646 Y144.000 E40.8131 F3000
G1 X71.494 Y141.333 E40.9012 F3000
G1 X71.317 Y138.667 E40.9894 F3000
G1 X71.118 Y136.000 E41.0777 F3000
G1 X70.895 Y133.333 E41.1660 F3000
G1 X70.648 Y130.667 E41.2543 F3000
G1 X70.378 Y128.000 E41.3428 F3000
G1 X70.085 Y125.333 E41.4313 F3000
G1 X69.768 Y122.667 E41.5199 F3000
G1 X69.427 Y120.000 E41.6087 F3000
G1 X69.062 Y117.333 E41.6975 F3000
G1 X68.673 Y114.667 E41.7864 F3000
G1 X68.259 Y112.000 E41.8755 F3000
G1 X67.819 Y109.333 E41.9647 F3000
G1 X67.353 Y106.667 E42.0540 F3000
G1 X66.860 Y104.000 E42.1435 F3000
G1 X66.337 Y101.333 E42.2332 F3000
G1 X65.782 Y98.667 E42.3230 F3000
G1 X65.193 Y96.000 E42.4132 F3000
G1 X64.564 Y93.333 E42.5036 F3000
G1 X63.887 Y90.667 E42.5944 F3000
G1 X63.149 Y88.000 E42.6857 F3000
G1 X62.325 Y85.333 E42.7778 F3000
G1 X61.356 Y82.667 E42.8714 F3000
G1 X60.500 Y80.000 E42.9638 F3000
; LAYER:2
G1 X59.500 Y80.000 Z0.900 F6000
G1 X59.027 Y82.667 E43.0532 F3000
G1 X58.047 Y85.333 E43.1470 F3000
G1 X57.214 Y88.000 E43.2392 F3000
G1 X56.468 Y90.667 E43.3305 F3000
G1 X55.784 Y93.333 E43.4214 F3000
G1 X55.148 Y96.000 E43.5119 F3000
G1 X54.552 Y98.667 E43.6020 F3000
G1 X53.991 Y101.333 E43.6920 F3000
G1 X53.463 Y104.000 E43.7817 F3000
G1 X52.964 Y106.667 E43.8712 F3000
G1 X52.493 Y109.333 E43.9606 F3000
G1 X52.048 Y112.000 E44.0498 F3000
G1 X51.630 Y114.667 E44.1388 F3000
G1 X51.236 Y117.333 E44.2278 F3000
G1 X50.867 Y120.000 E44.3166 F3000
G1 X50.523 Y122.667 E44.4054 F3000
G1 X50.202 Y125.333 E44.4940 F3000
G1 X49.905 Y128.000 E44.5825 F3000
G1 X49.632 Y130.667 E44.6710 F3000
G1 X49.383 Y133.333 E44.7594 F3000
G1 X49.158 Y136.000 E44.8477 F3000
G1 X48.956 Y138.667 E44.9360 F3000
G1 X48.778 Y141.333 E45.0241 F3000
G1 X48.623 Y144.000 E45.1123 F3000
G1 X48.492 Y146.667 E45.2004 F3000
G1 X48.385 Y149.333 E45.2885 F3000
G1 X48.302 Y152.000 E45.3765 F3000
G1 X48.243 Y154.667 E45.4645 F3000
G1 X48.207 Y157.333 E45.5525 F3000
G1 X48.195 Y160.000 E45.6405 F3000
G1 X48.207 Y162.667 E45.7285 F3000
G1 X48.243 Y165.333 E45.8166 F3000
G1 X48.302 Y168.000 E45.9046 F3000
G1 X48.385 Y170.667 E45.9926 F3000
G1 X48.492 Y173.333 E46.0807 F3000
G1 X48.623 Y176.000 E46.1688 F3000
G1 X48.778 Y178.667 E46.2569 F3000
G1 X48.956 Y181.333 E46.3451 F3000
G1 X49.158 Y184.000 E46.4334 F3000
G1 X49.383 Y186.667 E46.5217 F3000
G1 X49.632 Y189.333 E46.6101 F3000
G1 X49.905 Y192.000 E46.6985 F3000
G1 X50.202 Y194.667 E46.7871 F3000
G1 X50.523 Y197.333 E46.8757 F3000
G1 X50.867 Y200.000 E46.9645 F3000
G1 X51.236 Y202.667 E47.0533 F3000
G1 X51.630 Y205.333 E47.1422 F3000
G1 X52.048 Y208.000 E47.2313 F3000
G1 X52.493 Y210.667 E47.3205 F3000
G1 X52.964 Y213.333 E47.4099 F3000
G1 X53.463 Y216.000 E47.4994 F3000
G1 X53.991 Y218.667 E47.5891 F3000
G1 X54.552 Y221.333 E47.6791 F3000
G1 X55.148 Y224.000 E47.7692 F3000
G1 X55.784 Y226.667 E47.8597 F3000
G1 X56.468 Y229.333 E47.9506 F3000
G1 X57.214 Y232.000 E48.0419 F3000
G1 X58.047 Y234.667 E48.1341 F3000
G1 X59.027 Y237.333 E48.2279 F3000
G1 X59.500 Y240.000 E48.3173 F3000
G1 X60.500 Y240.000 E48.3503 F3000
G1 X60.973 Y237.333 E48.4396 F3000
G1 X61.953 Y234.667 E48.5334 F3000
G1 X62.786 Y232.000 E48.6256 F3000
G1 X63.532 Y229.333 E48.7169 F3000
G1 X64.216 Y226.667 E48.8078 F3000
G1 X64.852 Y224.000 E48.8983 F3000
G1 X65.448 Y221.333 E48.9884 F3000
G1 X66.009 Y218.667 E49.0784 F3000
G1 X66.537 Y216.000 E49.1681 F3000
G1 X67.036 Y213.333 E49.2576 F3000
G1 X67.507 Y210.667 E49.3470 F3000
G1 X67.952 Y208.000 E49.4362 F3000
G1 X68.370 Y205.333 E49.5253 F3000
G1 X68.764 Y202.667 E49.6142 F3000
G1 X69.133 Y200.000 E49.7030 F3000
G1 X69.477 Y197.333 E49.7918 F3000
G1 X69.798 Y194.667 E49.8804 F3000
G1 X70.095 Y192.000 E49.9690 F3000
G1 X70.368 Y189.333 E50.0574 F3000
G1 X70.617 Y186.667 E50.1458 F3000
G1 X70.842 Y184.000 E50.2341 F3000
G1 X71.044 Y181.333 E50.3224 F3000
G1 X71.222 Y178.667 E50.4106 F3000
G1 X71.377 Y176.000 E50.4987 F3000
G1 X71.508 Y173.333 E50.5868 F3000
G1 X71.615 Y170.667 E50.6749 F3000
G1 X71.698 Y168.000 E50.7629 F3000
G1 X71.757 Y165.333 E50.8510 F3000
G1 X71.793 Y162.667 E50.9390 F3000
G1 X71.805 Y160.000 E51.0270 F3000
G1 X71.793 Y157.333 E51.1150 F3000
G1 X71.757 Y154.667 E51.2030 F3000
G1 X71.698 Y152.000 E51.2910 F3000
G1 X71.615 Y149.333 E51.3790 F3000
G1 X71.508 Y146.667 E51.4671 F3000
G1 X71.377 Y144.000 E51.5552 F3000
G1 X71.222 Y141.333 E51.6434 F3000
G1 X71.044 Y138.667 E51.7316 F3000
G1 X70.842 Y136.000 E51.8198 F3000
G1 X70.617 Y133.333 E51.9081 F3000
G1 X70.368 Y130.667 E51.9965 F3000
G1 X70.095 Y128.000 E52.0850 F3000
G1 X69.798 Y125.333 E52.1735 F3000
G1 X69.477 Y122.667 E52.2621 F3000
G1 X69.133 Y120.000 E52.3509 F3000
G1 X68.764 Y117.333 E52.4397 F3000
G1 X68.370 Y114.667 E52.5287 F3000
G1 X67.952 Y112.000 E52.6177 F3000
G1 X67.507 Y109.333 E52.7070 F3000
G1 X67.036 Y106.667 E52.7963 F3000
G1 X66.537 Y104.000 E52.8858 F3000
G1 X66.009 Y101.333 E52.9756 F3000
G1 X65.448 Y98.667 E53.0655 F3000
G1 X64.852 Y96.000 E53.1556 F3000
G1 X64.216 Y93.333 E53.2461 F3000
G1 X63.532 Y90.667 E53.3370 F3000
G1 X62.786 Y88.000 E53.4284 F3000
G1 X61.953 Y85.333 E53.5205 F3000
G1 X60.973 Y82.667 E53.6143 F3000
G1 X60.500 Y80.000 E53.7037 F3000
G1 X59.500 Y80.000 Z0.900 F6000
G1 X58.627 Y82.667 E53.7963 F3000
G1 X57.647 Y85.333 E53.8900 F3000
G1 X56.814 Y88.000 E53.9822 F3000
G1 X56.068 Y90.667 E54.0736 F3000
G1 X55.384 Y93.333 E54.1644 F3000
G1 X54.748 Y96.000 E54.2549 F3000
G1 X54.152 Y98.667 E54.3451 F3000
G1 X53.591 Y101.333 E54.4350 F3000
G1 X53.063 Y104.000 E54.5247 F3000
G1 X52.564 Y106.667 E54.6142 F3000
G1 X52.093 Y109.333 E54.7036 F3000
G1 X51.648 Y112.000 E54.7928 F3000
G1 X51.230 Y114.667 E54.8819 F3000
G1 X50.836 Y117.333 E54.9708 F3000
G1 X50.467 Y120.000 E55.0597 F3000
G1 X50.123 Y122.667 E55.1484 F3000
G1 X49.802 Y125.333 E55.2371 F3000
G1 X49.505 Y128.000 E55.3256 F3000
G1 X49.232 Y130.667 E55.4141 F3000
G1 X48.983 Y133.333 E55.5024 F3000
G1 X48.758 Y136.000 E55.5908 F3000
G1 X48.556 Y138.667 E55.6790 F3000
G1 X48.378 Y141.333 E55.7672 F3000
G1 X48.223 Y144.000 E55.8553 F3000
G1 X48.092 Y146.667 E55.9435 F3000
G1 X47.985 Y149.333 E56.0315 F3000
G1 X47.902 Y152.000 E56.1196 F3000
G1 X47.843 Y154.667 E56.2076 F3000
G1 X47.807 Y157.333 E56.2956 F3000
G1 X47.795 Y160.000 E56.3836 F3000
G1 X47.807 Y162.667 E56.4716 F3000
G1 X47.843 Y165.333 E56.5596 F3000
G1 X47.902 Y168.000 E56.6476 F3000
G1 X47.985 Y170.667 E56.7357 F3000
G1 X48.092 Y173.333 E56.8237 F3000
G1 X48.223 Y176.000 E56.9118 F3000
G1 X48.378 Y178.667 E57.0000 F3000
G1 X48.556 Y181.333 E57.0882 F3000
G1 X48.758 Y184.000 E57.1764 F3000
G1 X48.983 Y186.667 E57.2648 F3000
G1 X49.232 Y189.333 E57.3531 F3000
G1 X49.505 Y192.000 E57.4416 F3000
G1 X49.802 Y194.667 E57.5301 F3000
G1 X50.123 Y197.333 E57.6188 F3000
G1 X50.467 Y200.000 E57.7075 F3000
G1 X50.836 Y202.667 E57.7963 F3000
G1 X51.230 Y205.333 E57.8853 F3000
G1 X51.648 Y208.000 E57.9744 F3000
G1 X52.093 Y210.667 E58.0636 F3000
G1 X52.564 Y213.333 E58.1530 F3000
G1 X53.063 Y216.000 E58.2425 F3000
G1 X53.591 Y218.667 E58.3322 F3000
G1 X54.152 Y221.333 E58.4221 F3000
G1 X54.748 Y224.000 E58.5123 F3000
G1 X55.384 Y226.667 E58.6028 F3000
G1 X56.068 Y229.333 E58.6936 F3000
G1 X56.814 Y232.000 E58.7850 F3000
G1 X57.647 Y234.667 E58.8772 F3000
G1 X58.627 Y237.333 E58.9709 F3000
G1 X59.500 Y240.000 E59.0635 F3000
G1 X60.500 Y240.000 E59.0965 F3000
G1 X61.373 Y237.333 E59.1891 F3000
G1 X62.353 Y234.667 E59.2829 F3000
G1 X63.186 Y232.000 E59.3751 F3000
G1 X63.932 Y229.333 E59.4664 F3000
G1 X64.616 Y226.667 E59.5573 F3000
G1 X65.252 Y224.000 E59.6478 F3000
G1 X65.848 Y221.333 E59.7379 F3000
G1 X66.409 Y218.667 E59.8279 F3000
G1 X66.937 Y216.000 E59.9176 F3000
G1 X67.436 Y213.333 E60.0071 F3000
G1 X67.907 Y210.667 E60.0965 F3000
G1 X68.352 Y208.000 E60.1857 F3000
G1 X68.770 Y205.333 E60.2748 F3000
G1 X69.164 Y202.667 E60.3637 F3000
G1 X69.533 Y200.000 E60.4525 F3000
G1 X69.877 Y197.333 E60.5413 F3000
G1 X70.198 Y194.667 E60.6299 F3000
G1 X70.495 Y192.000 E60.7185 F3000
G1 X70.768 Y189.333 E60.8069 F3000
G1 X71.017 Y186.667 E60.8953 F3000
G1 X71.242 Y184.000 E60.9836 F3000
G1 X71.444 Y181.333 E61.0719 F3000
G1 X71.622 Y178.667 E61.1601 F3000
G1 X71.777 Y176.000 E61.2482 F3000
G1 X71.908 Y173.333 E61.3363 F3000
G1 X72.015 Y170.667 E61.4244 F3000
G1 X72.098 Y168.000 E61.5124 F3000
G1 X72.157 Y165.333 E61.6004 F3000
G1 X72.193 Y162.667 E61.6885 F3000
G1 X72.205 Y160.000 E61.7765 F3000
G1 X72.193 Y157.333 E61.8645 F3000
G1 X72.157 Y154.667 E61.9525 F3000
G1 X72.098 Y152.000 E62.0405 F3000
G1 X72.015 Y149.333 E62.1285 F3000
G1 X71.908 Y146.667 E62.2166 F3000
G1 X71.777 Y144.000 E62.3047 F3000
G1 X71.622 Y141.333 E62.3929 F3000
G1 X71.444 Y138.667 E62.4811 F3000
G1 X71.242 Y136.000 E62.5693 F3000
G1 X71.017 Y133.333 E62.6576 F3000
G1 X70.768 Y130.667 E62.7460 F3000
G1 X70.495 Y128.000 E62.8345 F3000
G1 X70.198 Y125.333 E62.9230 F3000
G1 X69.877 Y122.667 E63.0116 F3000
G1 X69.533 Y120.000 E63.1004 F3000
G1 X69.164 Y117.333 E63.1892 F3000
G1 X68.770 Y114.667 E63.2782 F3000
G1 X68.352 Y112.000 E63.3672 F3000
G1 X67.907 Y109.333 E63.4565 F3000
G1 X67.436 Y106.667 E63.5458 F3000
G1 X66.937 Y104.000 E63.6353 F3000
G1 X66.409 Y101.333 E63.7251 F3000
G1 X65.848 Y98.667 E63.8150 F3000
G1 X65.252 Y96.000 E63.9051 F3000
G1 X64.616 Y93.333 E63.9956 F3000
G1 X63.932 Y90.667 E64.0865 F3000
G1 X63.186 Y88.000 E64.1778 F3000
G1 X62.353 Y85.333 E64.2700 F3000
G1 X61.373 Y82.667 E64.3638 F3000
G1 X60.500 Y80.000 E64.4564 F3000
; LAYER:3
G1 X59.500 Y80.000 Z1.200 F6000
G1 X59.010 Y82.667 E64.5459 F3000
G1 X58.019 Y85.333 E64.6397 F3000
G1 X57.178 Y88.000 E64.7320 F3000
G1 X56.423 Y90.667 E64.8235 F3000
G1 X55.732 Y93.333 E64.9144 F3000
G1 X55.088 Y96.000 E65.0049 F3000
G1 X54.486 Y98.667 E65.0951 F3000
G1 X53.919 Y101.333 E65.1851 F3000
G1 X53.385 Y104.000 E65.2748 F3000
G1 X52.881 Y106.667 E65.3644 F3000
G1 X52.405 Y109.333 E65.4538 F3000
G1 X51.955 Y112.000 E65.5430 F3000
G1 X51.532 Y114.667 E65.6321 F3000
G1 X51.134 Y117.333 E65.7211 F3000
G1 X50.761 Y120.000 E65.8100 F3000
G1 X50.413 Y122.667 E65.8987 F3000
G1 X50.089 Y125.333 E65.9874 F3000
G1 X49.789 Y128.000 E66.0759 F3000
G1 X49.513 Y130.667 E66.1644 F3000
G1 X49.261 Y133.333 E66.2528 F3000
G1 X49.033 Y136.000 E66.3411 F3000
G1 X48.829 Y138.667 E66.4293 F3000
G1 X48.649 Y141.333 E66.5175 F3000
G1 X48.493 Y144.000 E66.6057 F3000
G1 X48.361 Y146.667 E66.6938 F3000
G1 X48.252 Y149.333 E66.7819 F3000
G1 X48.168 Y152.000 E66.8699 F3000
G1 X48.108 Y154.667 E66.9579 F3000
G1 X48.072 Y157.333 E67.0460 F3000
G1 X48.060 Y160.000 E67.1340 F3000
G1 X48.072 Y162.667 E67.2220 F3000
G1 X48.108 Y165.333 E67.3100 F3000
G1 X48.168 Y168.000 E67.3980 F3000
G1 X48.252 Y170.667 E67.4860 F3000
G1 X48.361 Y173.333 E67.5741 F3000
G1 X48.493 Y176.000 E67.6622 F3000
G1 X48.649 Y178.667 E67.7504 F3000
G1 X48.829 Y181.333 E67.8386 F3000
G1 X49.033 Y184.000 E67.9268 F3000
G1 X49.261 Y186.667 E68.0151 F3000
G1 X49.513 Y189.333 E68.1035 F3000
G1 X49.789 Y192.000 E68.1920 F3000
G1 X50.089 Y194.667 E68.2806 F3000
G1 X50.413 Y197.333 E68.3692 F3000
G1 X50.761 Y200.000 E68.4580 F3000
G1 X51.134 Y202.667 E68.5468 F3000
G1 X51.532 Y205.333 E68.6358 F3000
G1 X51.955 Y208.000 E68.7249 F3000
G1 X52.405 Y210.667 E68.8141 F3000
G1 X52.881 Y213.333 E68.9035 F3000
G1 X53.385 Y216.000 E68.9931 F3000
G1 X53.919 Y218.667 E69.0828 F3000
G1 X54.486 Y221.333 E69.1728 F3000
G1 X55.088 Y224.000 E69.2630 F3000
G1 X55.732 Y226.667 E69.3535 F3000
G1 X56.423 Y229.333 E69.4444 F3000
G1 X57.178 Y232.000 E69.5359 F3000
G1 X58.019 Y234.667 E69.6282 F3000
G1 X59.010 Y237.333 E69.7220 F3000
G1 X59.500 Y240.000 E69.8115 F3000
G1 X60.500 Y240.000 E69.8445 F3000
G1 X60.990 Y237.333 E69.9340 F3000
G1 X61.981 Y234.667 E70.0279 F3000
G1 X62.822 Y232.000 E70.1202 F3000
G1 X63.577 Y229.333 E70.2116 F3000
G1 X64.268 Y226.667 E70.3025 F3000
G1 X64.912 Y224.000 E70.3930 F3000
G1 X65.514 Y221.333 E70.4833 F3000
G1 X66.081 Y218.667 E70.5732 F3000
G1 X66.615 Y216.000 E70.6630 F3000
G1 X67.119 Y213.333 E70.7525 F3000
G1 X67.595 Y210.667 E70.8419 F3000
G1 X68.045 Y208.000 E70.9312 F3000
G1 X68.468 Y205.333 E71.0203 F3000
G1 X68.866 Y202.667 E71.1092 F3000
G1 X69.239 Y200.000 E71.1981 F3000
G1 X69.587 Y197.333 E71.2868 F3000
G1 X69.911 Y194.667 E71.3755 F3000
G1 X70.211 Y192.000 E71.4640 F3000
G1 X70.487 Y189.333 E71.5525 F3000
G1 X70.739 Y186.667 E71.6409 F3000
G1 X70.967 Y184.000 E71.7292 F3000
G1 X71.171 Y181.333 E71.8175 F3000
G1 X71.351 Y178.667 E71.9057 F3000
G1 X71.507 Y176.000 E71.9938 F3000
G1 X71.639 Y173.333 E72.0819 F3000
G1 X71.748 Y170.667 E72.1700 F3000
G1 X71.832 Y168.000 E72.2581 F3000
G1 X71.892 Y165.333 E72.3461 F3000
G1 X71.928 Y162.667 E72.4341 F3000
G1 X71.940 Y160.000 E72.5221 F3000
G1 X71.928 Y157.333 E72.6101 F3000
G1 X71.892 Y154.667 E72.6981 F3000
G1 X71.832 Y152.000 E72.7861 F3000
G1 X71.748 Y149.333 E72.8742 F3000
G1 X71.639 Y146.667 E72.9622 F3000
G1 X71.507 Y144.000 E73.0503 F3000
G1 X71.351 Y141.333 E73.1385 F3000
G1 X71.171 Y138.667 E73.2267 F3000
G1 X70.967 Y136.000 E73.3150 F3000
G1 X70.739 Y133.333 E73.4033 F3000
G1 X70.487 Y130.667 E73.4917 F3000
G1 X70.211 Y128.000 E73.5801 F3000
G1 X69.911 Y125.333 E73.6687 F3000
G1 X69.587 Y122.667 E73.7573 F3000
G1 X69.239 Y120.000 E73.8461 F3000
G1 X68.866 Y117.333 E73.9349 F3000
G1 X68.468 Y114.667 E74.0239 F3000
G1 X68.045 Y112.000 E74.1130 F3000
G1 X67.595 Y109.333 E74.2023 F3000
G1 X67.119 Y106.667 E74.2917 F3000
G1 X66.615 Y104.000 E74.3812 F3000
G1 X66.081 Y101.333 E74.4710 F3000
G1 X65.514 Y98.667 E74.5609 F3000
G1 X64.912 Y96.000 E74.6511 F3000
G1 X64.268 Y93.333 E74.7417 F3000
G1 X63.577 Y90.667 E74.8326 F3000
G1 X62.822 Y88.000 E74.9240 F3000
G1 X61.981 Y85.333 E75.0163 F3000
G1 X60.990 Y82.667 E75.1102 F3000
G1 X60.500 Y80.000 E75.1997 F3000
G1 X59.500 Y80.000 Z1.200 F6000
G1 X58.610 Y82.667 E75.2924 F3000
G1 X57.619 Y85.333 E75.3863 F3000
G1 X56.778 Y88.000 E75.4786 F3000
G1 X56.023 Y90.667 E75.5700 F3000
G1 X55.332 Y93.333 E75.6610 F3000
G1 X54.688 Y96.000 E75.7515 F3000
G1 X54.086 Y98.667 E75.8417 F3000
G1 X53.519 Y101.333 E75.9317 F3000
G1 X52.985 Y104.000 E76.0214 F3000
G1 X52.481 Y106.667 E76.1110 F3000
G1 X52.005 Y109.333 E76.2004 F3000
G1 X51.555 Y112.000 E76.2896 F3000
G1 X51.132 Y114.667 E76.3787 F3000
G1 X50.734 Y117.333 E76.4677 F3000
G1 X50.361 Y120.000 E76.5565 F3000
G1 X50.013 Y122.667 E76.6453 F3000
G1 X49.689 Y125.333 E76.7339 F3000
G1 X49.389 Y128.000 E76.8225 F3000
G1 X49.113 Y130.667 E76.9110 F3000
G1 X48.861 Y133.333 E76.9993 F3000
G1 X48.633 Y136.000 E77.0877 F3000
G1 X48.429 Y138.667 E77.1759 F3000
G1 X48.249 Y141.333 E77.2641 F3000
G1 X48.093 Y144.000 E77.3523 F3000
G1 X47.961 Y146.667 E77.4404 F3000
G1 X47.852 Y149.333 E77.5285 F3000
G1 X47.768 Y152.000 E77.6165 F3000
G1 X47.708 Y154.667 E77.7045 F3000
G1 X47.672 Y157.333 E77.7925 F3000
G1 X47.660 Y160.000 E77.8805 F3000
G1 X47.672 Y162.667 E77.9685 F3000
G1 X47.708 Y165.333 E78.0565 F3000
G1 X47.768 Y168.000 E78.1446 F3000
G1 X47.852 Y170.667 E78.2326 F3000
G1 X47.961 Y173.333 E78.3207 F3000
G1 X48.093 Y176.000 E78.4088 F3000
G1 X48.249 Y178.667 E78.4969 F3000
G1 X48.429 Y181.333 E78.5851 F3000
G1 X48.633 Y184.000 E78.6734 F3000
G1 X48.861 Y186.667 E78.7617 F3000
G1 X49.113 Y189.333 E78.8501 F3000
G1 X49.389 Y192.000 E78.9386 F3000
G1 X49.689 Y194.667 E79.0271 F3000
G1 X50.013 Y197.333 E79.1158 F3000
G1 X50.361 Y200.000 E79.2045 F3000
G1 X50.734 Y202.667 E79.2934 F3000
G1 X51.132 Y205.333 E79.3824 F3000
G1 X51.555 Y208.000 E79.4715 F3000
G1 X52.005 Y210.667 E79.5607 F3000
G1 X52.481 Y213.333 E79.6501 F3000
G1 X52.985 Y216.000 E79.7396 F3000
G1 X53.519 Y218.667 E79.8294 F3000
G1 X54.086 Y221.333 E79.9194 F3000
G1 X54.688 Y224.000 E80.0096 F3000
G1 X55.332 Y226.667 E80.1001 F3000
G1 X56.023 Y229.333 E80.1910 F3000
G1 X56.778 Y232.000 E80.2825 F3000
G1 X57.619 Y234.667 E80.3747 F3000
G1 X58.610 Y237.333 E80.4686 F3000
G1 X59.500 Y240.000 E80.5614 F3000
G1 X60.500 Y240.000 E80.5944 F3000
G1 X61.390 Y237.333 E80.6872 F3000
G1 X62.381 Y234.667 E80.7810 F3000
G1 X63.222 Y232.000 E80.8733 F3000
G1 X63.977 Y229.333 E80.9648 F3000
G1 X64.668 Y226.667 E81.0557 F3000
G1 X65.312 Y224.000 E81.1462 F3000
G1 X65.914 Y221.333 E81.2364 F3000
G1 X66.481 Y218.667 E81.3264 F3000
G1 X67.015 Y216.000 E81.4161 F3000
G1 X67.519 Y213.333 E81.5057 F3000
G1 X67.995 Y210.667 E81.5951 F3000
G1 X68.445 Y208.000 E81.6843 F3000
G1 X68.868 Y205.333 E81.7734 F3000
G1 X69.266 Y202.667 E81.8624 F3000
G1 X69.639 Y200.000 E81.9513 F3000
G1 X69.987 Y197.333 E82.0400 F3000
G1 X70.311 Y194.667 E82.1287 F3000
G1 X70.611 Y192.000 E82.2172 F3000
G1 X70.887 Y189.333 E82.3057 F3000
G1 X71.139 Y186.667 E82.3941 F3000
G1 X71.367 Y184.000 E82.4824 F3000
G1 X71.571 Y181.333 E82.5707 F3000
G1 X71.751 Y178.667 E82.6589 F3000
G1 X71.907 Y176.000 E82.7470 F3000
G1 X72.039 Y173.333 E82.8351 F3000
G1 X72.148 Y170.667 E82.9232 F3000
G1 X72.232 Y168.000 E83.0112 F3000
G1 X72.292 Y165.333 E83.0993 F3000
G1 X72.328 Y162.667 E83.1873 F3000
G1 X72.340 Y160.000 E83.2753 F3000
G1 X72.328 Y157.333 E83.3633 F3000
G1 X72.292 Y154.667 E83.4513 F3000
G1 X72.232 Y152.000 E83.5393 F3000
G1 X72.148 Y149.333 E83.6273 F3000
G1 X72.039 Y146.667 E83.7154 F3000
G1 X71.907 Y144.000 E83.8035 F3000
G1 X71.751 Y141.333 E83.8917 F3000
G1 X71.571 Y138.667 E83.9799 F3000
G1 X71.367 Y136.000 E84.0681 F3000
G1 X71.139 Y133.333 E84.1564 F3000
G1 X70.887 Y130.667 E84.2448 F3000
G1 X70.611 Y128.000 E84.3333 F3000
G1 X70.311 Y125.333 E84.4219 F3000
G1 X69.987 Y122.667 E84.5105 F3000
G1 X69.639 Y120.000 E84.5993 F3000
G1 X69.266 Y117.333 E84.6881 F3000
G1 X68.868 Y114.667 E84.7771 F3000
G1 X68.445 Y112.000 E84.8662 F3000
G1 X67.995 Y109.333 E84.9554 F3000
G1 X67.519 Y106.667 E85.0448 F3000
G1 X67.015 Y104.000 E85.1344 F3000
G1 X66.481 Y101.333 E85.2241 F3000
G1 X65.914 Y98.667 E85.3141 F3000
G1 X65.312 Y96.000 E85.4043 F3000
G1 X64.668 Y93.333 E85.4948 F3000
G1 X63.977 Y90.667 E85.5858 F3000
G1 X63.222 Y88.000 E85.6772 F3000
G1 X62.381 Y85.333 E85.7695 F3000
G1 X61.390 Y82.667 E85.8634 F3000
G1 X60.500 Y80.000 E85.9561 F3000
; LAYER:4
G1 X59.500 Y80.000 Z1.500 F6000
G1 X58.993 Y82.667 E86.0457 F3000
G1 X57.991 Y85.333 E86.1397 F3000
G1 X57.141 Y88.000 E86.2321 F3000
G1 X56.379 Y90.667 E86.3236 F3000
G1 X55.679 Y93.333 E86.4146 F3000
G1 X55.029 Y96.000 E86.5052 F3000
G1 X54.420 Y98.667 E86.5954 F3000
G1 X53.847 Y101.333 E86.6854 F3000
G1 X53.307 Y104.000 E86.7752 F3000
G1 X52.798 Y106.667 E86.8648 F3000
G1 X52.316 Y109.333 E86.9542 F3000
G1 X51.862 Y112.000 E87.0435 F3000
G1 X51.434 Y114.667 E87.1326 F3000
G1 X51.032 Y117.333 E87.2216 F3000
G1 X50.655 Y120.000 E87.3105 F3000
G1 X50.303 Y122.667 E87.3993 F3000
G1 X49.976 Y125.333 E87.4879 F3000
G1 X49.673 Y128.000 E87.5765 F3000
G1 X49.394 Y130.667 E87.6650 F3000
G1 X49.139 Y133.333 E87.7534 F3000
G1 X48.909 Y136.000 E87.8417 F3000
G1 X48.702 Y138.667 E87.9300 F3000
G1 X48.520 Y141.333 E88.0182 F3000
G1 X48.363 Y144.000 E88.1063 F3000
G1 X48.229 Y146.667 E88.1944 F3000
G1 X48.120 Y149.333 E88.2825 F3000
G1 X48.034 Y152.000 E88.3705 F3000
G1 X47.974 Y154.667 E88.4586 F3000
G1 X47.937 Y157.333 E88.5466 F3000
G1 X47.925 Y160.000 E88.6346 F3000
G1 X47.937 Y162.667 E88.7226 F3000
G1 X47.974 Y165.333 E88.8106 F3000
G1 X48.034 Y168.000 E88.8986 F3000
G1 X48.120 Y170.667 E88.9867 F3000
G1 X48.229 Y173.333 E89.0747 F3000
G1 X48.363 Y176.000 E89.1628 F3000
G1 X48.520 Y178.667 E89.2510 F3000
G1 X48.702 Y181.333 E89.3392 F3000
G1 X48.909 Y184.000 E89.4275 F3000
G1 X49.139 Y186.667 E89.5158 F3000
G1 X49.394 Y189.333 E89.6042 F3000
G1 X49.673 Y192.000 E89.6927 F3000
G1 X49.976 Y194.667 E89.7812 F3000
G1 X50.303 Y197.333 E89.8699 F3000
G1 X50.655 Y200.000 E89.9587 F3000
G1 X51.032 Y202.667 E90.0475 F3000
G1 X51.434 Y205.333 E90.1365 F3000
G1 X51.862 Y208.000 E90.2257 F3000
G1 X52.316 Y210.667 E90.3149 F3000
G1 X52.798 Y213.333 E90.4043 F3000
G1 X53.307 Y216.000 E90.4939 F3000
G1 X53.847 Y218.667 E90.5837 F3000
G1 X54.420 Y221.333 E90.6737 F3000
G1 X55.029 Y224.000 E90.7640 F3000
G1 X55.679 Y226.667 E90.8546 F3000
G1 X56.379 Y229.333 E90.9455 F3000
G1 X57.141 Y232.000 E91.0371 F3000
G1 X57.991 Y234.667 E91.1294 F3000
G1 X58.993 Y237.333 E91.2234 F3000
G1 X59.500 Y240.000 E91.3130 F3000
G1 X60.500 Y240.000 E91.3460 F3000
G1 X61.007 Y237.333 E91.4356 F3000
G1 X62.009 Y234.667 E91.5296 F3000
G1 X62.859 Y232.000 E91.6220 F3000
G1 X63.621 Y229.333 E91.7135 F3000
G1 X64.321 Y226.667 E91.8045 F3000
G1 X64.971 Y224.000 E91.8950 F3000
G1 X65.580 Y221.333 E91.9853 F3000
G1 X66.153 Y218.667 E92.0753 F3000
G1 X66.693 Y216.000 E92.1651 F3000
G1 X67.202 Y213.333 E92.2547 F3000
G1 X67.684 Y210.667 E92.3441 F3000
G1 X68.138 Y208.000 E92.4334 F3000
G1 X68.566 Y205.333 E92.5225 F3000
G1 X68.968 Y202.667 E92.6115 F3000
G1 X69.345 Y200.000 E92.7004 F3000
G1 X69.697 Y197.333 E92.7891 F3000
G1 X70.024 Y194.667 E92.8778 F3000
G1 X70.327 Y192.000 E92.9664 F3000
G1 X70.606 Y189.333 E93.0548 F3000
G1 X70.861 Y186.667 E93.1432 F3000
G1 X71.091 Y184.000 E93.2316 F3000
G1 X71.298 Y181.333 E93.3198 F3000
G1 X71.480 Y178.667 E93.4080 F3000
G1 X71.637 Y176.000 E93.4962 F3000
G1 X71.771 Y173.333 E93.5843 F3000
G1 X71.880 Y170.667 E93.6724 F3000
G1 X71.966 Y168.000 E93.7604 F3000
G1 X72.026 Y165.333 E93.8484 F3000
G1 X72.063 Y162.667 E93.9365 F3000
G1 X72.075 Y160.000 E94.0245 F3000
G1 X72.063 Y157.333 E94.1125 F3000
G1 X72.026 Y154.667 E94.2005 F3000
G1 X71.966 Y152.000 E94.2885 F3000
G1 X71.880 Y149.333 E94.3765 F3000
G1 X71.771 Y146.667 E94.4646 F3000
G1 X71.637 Y144.000 E94.5527 F3000
G1 X71.480 Y141.333 E94.6409 F3000
G1 X71.298 Y138.667 E94.7291 F3000
G1 X71.091 Y136.000 E94.8173 F3000
G1 X70.861 Y133.333 E94.9057 F3000
G1 X70.606 Y130.667 E94.9941 F3000
G1 X70.327 Y128.000 E95.0825 F3000
G1 X70.024 Y125.333 E95.1711 F3000
G1 X69.697 Y122.667 E95.2598 F3000
G1 X69.345 Y120.000 E95.3485 F3000
G1 X68.968 Y117.333 E95.4374 F3000
G1 X68.566 Y114.667 E95.5264 F3000
G1 X68.138 Y112.000 E95.6155 F3000
G1 X67.684 Y109.333 E95.7048 F3000
G1 X67.202 Y106.667 E95.7942 F3000
G1 X66.693 Y104.000 E95.8838 F3000
G1 X66.153 Y101.333 E95.9736 F3000
G1 X65.580 Y98.667 E96.0636 F3000
G1 X64.971 Y96.000 E96.1539 F3000
G1 X64.321 Y93.333 E96.2445 F3000
G1 X63.621 Y90.667 E96.3354 F3000
G1 X62.859 Y88.000 E96.4270 F3000
G1 X62.009 Y85.333 E96.5193 F3000
G1 X61.007 Y82.667 E96.6133 F3000
G1 X60.500 Y80.000 E96.7029 F3000
G1 X59.500 Y80.000 Z1.500 F6000
G1 X58.593 Y82.667 E96.7959 F3000
G1 X57.591 Y85.333 E96.8899 F3000
G1 X56.741 Y88.000 E96.9822 F3000
G1 X55.979 Y90.667 E97.0737 F3000
G1 X55.279 Y93.333 E97.1647 F3000
G1 X54.629 Y96.000 E97.2553 F3000
G1 X54.020 Y98.667 E97.3456 F3000
G1 X53.447 Y101.333 E97.4356 F3000
G1 X52.907 Y104.000 E97.5254 F3000
G1 X52.398 Y106.667 E97.6149 F3000
G1 X51.916 Y109.333 E97.7044 F3000
G1 X51.462 Y112.000 E97.7936 F3000
G1 X51.034 Y114.667 E97.8828 F3000
G1 X50.632 Y117.333 E97.9718 F3000
G1 X50.255 Y120.000 E98.0606 F3000
G1 X49.903 Y122.667 E98.1494 F3000
G1 X49.576 Y125.333 E98.2381 F3000
G1 X49.273 Y128.000 E98.3266 F3000
G1 X48.994 Y130.667 E98.4151 F3000
G1 X48.739 Y133.333 E98.5035 F3000
G1 X48.509 Y136.000 E98.5918 F3000
G1 X48.302 Y138.667 E98.6801 F3000
G1 X48.120 Y141.333 E98.7683 F3000
G1 X47.963 Y144.000 E98.8565 F3000
G1 X47.829 Y146.667 E98.9446 F3000
G1 X47.720 Y149.333 E99.0326 F3000
G1 X47.634 Y152.000 E99.1207 F3000
G1 X47.574 Y154.667 E99.2087 F3000
G1 X47.537 Y157.333 E99.2967 F3000
G1 X47.525 Y160.000 E99.3847 F3000
G1 X47.537 Y162.667 E99.4727 F3000
G1 X47.574 Y165.333 E99.5607 F3000
G1 X47.634 Y168.000 E99.6487 F3000
G1 X47.720 Y170.667 E99.7368 F3000
G1 X47.829 Y173.333 E99.8249 F3000
G1 X47.963 Y176.000 E99.9130 F3000
G1 X48.120 Y178.667 E100.0011 F3000
G1 X48.302 Y181.333 E100.0893 F3000
G1 X48.509 Y184.000 E100.1776 F3000
G1 X48.739 Y186.667 E100.2659 F3000
G1 X48.994 Y189.333 E100.3543 F3000
G1 X49.273 Y192.000 E100.4428 F3000
G1 X49.576 Y194.667 E100.5314 F3000
G1 X49.903 Y197.333 E100.6200 F3000
G1 X50.255 Y200.000 E100.7088 F3000
G1 X50.632 Y202.667 E100.7977 F3000
G1 X51.034 Y205.333 E100.8867 F3000
G1 X51.462 Y208.000 E100.9758 F3000
G1 X51.916 Y210.667 E101.0651 F3000
G1 X52.398 Y213.333 E101.1545 F3000
G1 X52.907 Y216.000 E101.2441 F3000
G1 X53.447 Y218.667 E101.3339 F3000
G1 X54.020 Y221.333 E101.4239 F3000
G1 X54.629 Y224.000 E101.5141 F3000
G1 X55.279 Y226.667 E101.6047 F3000
G1 X55.979 Y229.333 E101.6957 F3000
G1 X56.741 Y232.000 E101.7872 F3000
G1 X57.591 Y234.667 E101.8796 F3000
G1 X58.593 Y237.333 E101.9736 F3000
G1 X59.500 Y240.000 E102.0665 F3000
G1 X60.500 Y240.000 E102.0995 F3000
G1 X61.407 Y237.333 E102.1925 F3000
G1 X62.409 Y234.667 E102.2865 F3000
G1 X63.259 Y232.000 E102.3789 F3000
G1 X64.021 Y229.333 E102.4704 F3000
G1 X64.721 Y226.667 E102.5614 F3000
G1 X65.371 Y224.000 E102.6519 F3000
G1 X65.980 Y221.333 E102.7422 F3000
G1 X66.553 Y218.667 E102.8322 F3000
G1 X67.093 Y216.000 E102.9220 F3000
G1 X67.602 Y213.333 E103.0116 F3000
G1 X68.084 Y210.667 E103.1010 F3000
G1 X68.538 Y208.000 E103.1903 F3000
G1 X68.966 Y205.333 E103.2794 F3000
G1 X69.368 Y202.667 E103.3684 F3000
G1 X69.745 Y200.000 E103.4573 F3000
G1 X70.097 Y197.333 E103.5460 F3000
G1 X70.424 Y194.667 E103.6347 F3000
G1 X70.727 Y192.000 E103.7233 F3000
G1 X71.006 Y189.333 E103.8117 F3000
G1 X71.261 Y186.667 E103.9001 F3000
G1 X71.491 Y184.000 E103.9885 F3000
G1 X71.698 Y181.333 E104.0767 F3000
G1 X71.880 Y178.667 E104.1649 F3000
G1 X72.037 Y176.000 E104.2531 F3000
G1 X72.171 Y173.333 E104.3412 F3000
G1 X72.280 Y170.667 E104.4293 F3000
G1 X72.366 Y168.000 E104.5173 F3000
G1 X72.426 Y165.333 E104.6053 F3000
G1 X72.463 Y162.667 E104.6934 F3000
G1 X72.475 Y160.000 E104.7814 F3000
G1 X72.463 Y157.333 E104.8694 F3000
G1 X72.426 Y154.667 E104.9574 F3000
G1 X72.366 Y152.000 E105.0454 F3000
G1 X72.280 Y149.333 E105.1334 F3000
G1 X72.171 Y146.667 E105.2215 F3000
G1 X72.037 Y144.000 E105.3096 F3000
G1 X71.880 Y141.333 E105.3978 F3000
G1 X71.698 Y138.667 E105.4860 F3000
G1 X71.491 Y136.000 E105.5742 F3000
G1 X71.261 Y133.333 E105.6626 F3000
G1 X71.006 Y130.667 E105.7510 F3000
G1 X70.727 Y128.000 E105.8394 F3000
G1 X70.424 Y125.333 E105.9280 F3000
G1 X70.097 Y122.667 E106.0167 F3000
G1 X69.745 Y120.000 E106.1054 F3000
G1 X69.368 Y117.333 E106.1943 F3000
G1 X68.966 Y114.667 E106.2833 F3000
G1 X68.538 Y112.000 E106.3724 F3000
G1 X68.084 Y109.333 E106.4617 F3000
G1 X67.602 Y106.667 E106.5511 F3000
G1 X67.093 Y104.000 E106.6407 F3000
G1 X66.553 Y101.333 E106.7305 F3000
G1 X65.980 Y98.667 E106.8205 F3000
G1 X65.371 Y96.000 E106.9108 F3000
G1 X64.721 Y93.333 E107.0013 F3000
G1 X64.021 Y90.667 E107.0923 F3000
G1 X63.259 Y88.000 E107.1838 F3000
G1 X62.409 Y85.333 E107.2762 F3000
G1 X61.407 Y82.667 E107.3702 F3000
G1 X60.500 Y80.000 E107.4632 F3000
; LAYER:5
G1 X59.500 Y80.000 Z1.800 F6000
G1 X58.976 Y82.667 E107.5529 F3000
G1 X57.964 Y85.333 E107.6470 F3000
G1 X57.104 Y88.000 E107.7394 F3000
G1 X56.334 Y90.667 E107.8310 F3000
G1 X55.627 Y93.333 E107.9221 F3000
G1 X54.970 Y96.000 E108.0127 F3000
G1 X54.354 Y98.667 E108.1030 F3000
G1 X53.776 Y101.333 E108.1931 F3000
G1 X53.230 Y104.000 E108.2829 F3000
G1 X52.715 Y106.667 E108.3725 F3000
G1 X52.228 Y109.333 E108.4620 F3000
G1 X51.769 Y112.000 E108.5513 F3000
G1 X51.337 Y114.667 E108.6404 F3000
G1 X50.930 Y117.333 E108.7294 F3000
G1 X50.549 Y120.000 E108.8183 F3000
G1 X50.194 Y122.667 E108.9071 F3000
G1 X49.863 Y125.333 E108.9958 F3000
G1 X49.556 Y128.000 E109.0844 F3000
G1 X49.274 Y130.667 E109.1728 F3000
G1 X49.017 Y133.333 E109.2613 F3000
G1 X48.784 Y136.000 E109.3496 F3000
G1 X48.576 Y138.667 E109.4379 F3000
G1 X48.392 Y141.333 E109.5261 F3000
G1 X48.232 Y144.000 E109.6142 F3000
G1 X48.097 Y146.667 E109.7023 F3000
G1 X47.987 Y149.333 E109.7904 F3000
G1 X47.901 Y152.000 E109.8785 F3000
G1 X47.839 Y154.667 E109.9665 F3000
G1 X47.802 Y157.333 E110.0545 F3000
G1 X47.790 Y160.000 E110.1425 F3000
G1 X47.802 Y162.667 E110.2305 F3000
G1 X47.839 Y165.333 E110.3185 F3000
G1 X47.901 Y168.000 E110.4065 F3000
G1 X47.987 Y170.667 E110.4946 F3000
G1 X48.097 Y173.333 E110.5826 F3000
G1 X48.232 Y176.000 E110.6708 F3000
G1 X48.392 Y178.667 E110.7589 F3000
G1 X48.576 Y181.333 E110.8471 F3000
G1 X48.784 Y184.000 E110.9354 F3000
G1 X49.017 Y186.667 E111.0237 F3000
G1 X49.274 Y189.333 E111.1121 F3000
G1 X49.556 Y192.000 E111.2006 F3000
G1 X49.863 Y194.667 E111.2892 F3000
G1 X50.194 Y197.333 E111.3779 F3000
G1 X50.549 Y200.000 E111.4667 F3000
G1 X50.930 Y202.667 E111.5556 F3000
G1 X51.337 Y205.333 E111.6446 F3000
G1 X51.769 Y208.000 E111.7337 F3000
G1 X52.228 Y210.667 E111.8230 F3000
G1 X52.715 Y213.333 E111.9125 F3000
G1 X53.230 Y216.000 E112.0021 F3000
G1 X53.776 Y218.667 E112.0919 F3000
G1 X54.354 Y221.333 E112.1820 F3000
G1 X54.970 Y224.000 E112.2723 F3000
G1 X55.627 Y226.667 E112.3629 F3000
G1 X56.334 Y229.333 E112.4540 F3000
G1 X57.104 Y232.000 E112.5456 F3000
G1 X57.964 Y234.667 E112.6380 F3000
G1 X58.976 Y237.333 E112.7321 F3000
G1 X59.500 Y240.000 E112.8218 F3000
G1 X60.500 Y240.000 E112.8548 F3000
G1 X61.024 Y237.333 E112.9445 F3000
G1 X62.036 Y234.667 E113.0386 F3000
G1 X62.896 Y232.000 E113.1311 F3000
G1 X63.666 Y229.333 E113.2227 F3000
G1 X64.373 Y226.667 E113.3137 F3000
G1 X65.030 Y224.000 E113.4044 F3000
G1 X65.646 Y221.333 E113.4947 F3000
G1 X66.224 Y218.667 E113.5847 F3000
G1 X66.770 Y216.000 E113.6745 F3000
G1 X67.285 Y213.333 E113.7642 F3000
G1 X67.772 Y210.667 E113.8536 F3000
G1 X68.231 Y208.000 E113.9429 F3000
G1 X68.663 Y205.333 E114.0321 F3000
G1 X69.070 Y202.667 E114.1211 F3000
G1 X69.451 Y200.000 E114.2100 F3000
G1 X69.806 Y197.333 E114.2988 F3000
G1 X70.137 Y194.667 E114.3874 F3000
G1 X70.444 Y192.000 E114.4760 F3000
G1 X70.726 Y189.333 E114.5645 F3000
G1 X70.983 Y186.667 E114.6529 F3000
G1 X71.216 Y184.000 E114.7412 F3000
G1 X71.424 Y181.333 E114.8295 F3000
G1 X71.608 Y178.667 E114.9177 F3000
G1 X71.768 Y176.000 E115.0059 F3000
G1 X71.903 Y173.333 E115.0940 F3000
G1 X72.013 Y170.667 E115.1821 F3000
G1 X72.099 Y168.000 E115.2701 F3000
G1 X72.161 Y165.333 E115.3581 F3000
G1 X72.198 Y162.667 E115.4461 F3000
G1 X72.210 Y160.000 E115.5341 F3000
G1 X72.198 Y157.333 E115.6221 F3000
G1 X72.161 Y154.667 E115.7102 F3000
G1 X72.099 Y152.000 E115.7982 F3000
G1 X72.013 Y149.333 E115.8862 F3000
G1 X71.903 Y146.667 E115.9743 F3000
G1 X71.768 Y144.000 E116.0624 F3000
G1 X71.608 Y141.333 E116.1506 F3000
G1 X71.424 Y138.667 E116.2388 F3000
G1 X71.216 Y136.000 E116.3270 F3000
G1 X70.983 Y133.333 E116.4154 F3000
G1 X70.726 Y130.667 E116.5038 F3000
G1 X70.444 Y128.000 E116.5923 F3000
G1 X70.137 Y125.333 E116.6809 F3000
G1 X69.806 Y122.667 E116.7695 F3000
G1 X69.451 Y120.000 E116.8583 F3000
G1 X69.070 Y117.333 E116.9472 F3000
G1 X68.663 Y114.667 E117.0362 F3000
G1 X68.231 Y112.000 E117.1254 F3000
G1 X67.772 Y109.333 E117.2147 F3000
G1 X67.285 Y106.667 E117.3041 F3000
G1 X66.770 Y104.000 E117.3937 F3000
G1 X66.224 Y101.333 E117.4836 F3000
G1 X65.646 Y98.667 E117.5736 F3000
G1 X65.030 Y96.000 E117.6639 F3000
G1 X64.373 Y93.333 E117.7546 F3000
G1 X63.666 Y90.667 E117.8456 F3000
G1 X62.896 Y88.000 E117.9372 F3000
G1 X62.036 Y85.333 E118.0297 F3000
G1 X61.024 Y82.667 E118.1238 F3000
G1 X60.500 Y80.000 E118.2135 F3000
G1 X59.500 Y80.000 Z1.800 F6000
G1 X58.576 Y82.667 E118.3066 F3000
G1 X57.564 Y85.333 E118.4007 F3000
G1 X56.704 Y88.000 E118.4932 F3000
G1 X55.934 Y90.667 E118.5848 F3000
G1 X55.227 Y93.333 E118.6758 F3000
G1 X54.570 Y96.000 E118.7665 F3000
G1 X53.954 Y98.667 E118.8568 F3000
G1 X53.376 Y101.333 E118.9468 F3000
G1 X52.830 Y104.000 E119.0366 F3000
G1 X52.315 Y106.667 E119.1263 F3000
G1 X51.828 Y109.333 E119.2157 F3000
G1 X51.369 Y112.000 E119.3050 F3000
G1 X50.937 Y114.667 E119.3942 F3000
G1 X50.530 Y117.333 E119.4832 F3000
G1 X50.149 Y120.000 E119.5721 F3000
G1 X49.794 Y122.667 E119.6609 F3000
G1 X49.463 Y125.333 E119.7495 F3000
G1 X49.156 Y128.000 E119.8381 F3000
G1 X48.874 Y130.667 E119.9266 F3000
G1 X48.617 Y133.333 E120.0150 F3000
G1 X48.384 Y136.000 E120.1033 F3000
G1 X48.176 Y138.667 E120.1916 F3000
G1 X47.992 Y141.333 E120.2798 F3000
G1 X47.832 Y144.000 E120.3680 F3000
G1 X47.697 Y146.667 E120.4561 F3000
G1 X47.587 Y149.333 E120.5442 F3000
G1 X47.501 Y152.000 E120.6322 F3000
G1 X47.439 Y154.667 E120.7202 F3000
G1 X47.402 Y157.333 E120.8082 F3000
G1 X47.390 Y160.000 E120.8962 F3000
G1 X47.402 Y162.667 E120.9843 F3000
G1 X47.439 Y165.333 E121.0723 F3000
G1 X47.501 Y168.000 E121.1603 F3000
G1 X47.587 Y170.667 E121.2483 F3000
G1 X47.697 Y173.333 E121.3364 F3000
G1 X47.832 Y176.000 E121.4245 F3000
G1 X47.992 Y178.667 E121.5127 F3000
G1 X48.176 Y181.333 E121.6009 F3000
G1 X48.384 Y184.000 E121.6892 F3000
G1 X48.617 Y186.667 E121.7775 F3000
G1 X48.874 Y189.333 E121.8659 F3000
G1 X49.156 Y192.000 E121.9544 F3000
G1 X49.463 Y194.667 E122.0430 F3000
G1 X49.794 Y197.333 E122.1316 F3000
G1 X50.149 Y200.000 E122.2204 F3000
G1 X50.530 Y202.667 E122.3093 F3000
G1 X50.937 Y205.333 E122.3983 F3000
G1 X51.369 Y208.000 E122.4875 F3000
G1 X51.828 Y210.667 E122.5768 F3000
G1 X52.315 Y213.333 E122.6662 F3000
G1 X52.830 Y216.000 E122.7559 F3000
G1 X53.376 Y218.667 E122.8457 F3000
G1 X53.954 Y221.333 E122.9357 F3000
G1 X54.570 Y224.000 E123.0260 F3000
G1 X55.227 Y226.667 E123.1167 F3000
G1 X55.934 Y229.333 E123.2077 F3000
G1 X56.704 Y232.000 E123.2993 F3000
G1 X57.564 Y234.667 E123.3918 F3000
G1 X58.576 Y237.333 E123.4859 F3000
G1 X59.500 Y240.000 E123.5790 F3000
G1 X60.500 Y240.000 E123.6120 F3000
G1 X61.424 Y237.333 E123.7052 F3000
G1 X62.436 Y234.667 E123.7993 F3000
G1 X63.296 Y232.000 E123.8917 F3000
G1 X64.066 Y229.333 E123.9833 F3000
G1 X64.773 Y226.667 E124.0744 F3000
G1 X65.430 Y224.000 E124.1650 F3000
G1 X66.046 Y221.333 E124.2553 F3000
G1 X66.624 Y218.667 E124.3454 F3000
G1 X67.170 Y216.000 E124.4352 F3000
G1 X67.685 Y213.333 E124.5248 F3000
G1 X68.172 Y210.667 E124.6143 F3000
G1 X68.631 Y208.000 E124.7036 F3000
G1 X69.063 Y205.333 E124.7927 F3000
G1 X69.470 Y202.667 E124.8817 F3000
G1 X69.851 Y200.000 E124.9706 F3000
G1 X70.206 Y197.333 E125.0594 F3000
G1 X70.537 Y194.667 E125.1481 F3000
G1 X70.844 Y192.000 E125.2367 F3000
G1 X71.126 Y189.333 E125.3252 F3000
G1 X71.383 Y186.667 E125.4136 F3000
G1 X71.616 Y184.000 E125.5019 F3000
G1 X71.824 Y181.333 E125.5902 F3000
G1 X72.008 Y178.667 E125.6784 F3000
G1 X72.168 Y176.000 E125.7665 F3000
G1 X72.303 Y173.333 E125.8547 F3000
G1 X72.413 Y170.667 E125.9427 F3000
G1 X72.499 Y168.000 E126.0308 F3000
G1 X72.561 Y165.333 E126.1188 F3000
G1 X72.598 Y162.667 E126.2068 F3000
G1 X72.610 Y160.000 E126.2948 F3000
G1 X72.598 Y157.333 E126.3828 F3000
G1 X72.561 Y154.667 E126.4708 F3000
G1 X72.499 Y152.000 E126.5588 F3000
G1 X72.413 Y149.333 E126.6469 F3000
G1 X72.303 Y146.667 E126.7350 F3000
G1 X72.168 Y144.000 E126.8231 F3000
G1 X72.008 Y141.333 E126.9112 F3000
G1 X71.824 Y138.667 E126.9994 F3000
G1 X71.616 Y136.000 E127.0877 F3000
G1 X71.383 Y133.333 E127.1760 F3000
G1 X71.126 Y130.667 E127.2645 F3000
G1 X70.844 Y128.000 E127.3529 F3000
G1 X70.537 Y125.333 E127.4415 F3000
G1 X70.206 Y122.667 E127.5302 F3000
G1 X69.851 Y120.000 E127.6190 F3000
G1 X69.470 Y117.333 E127.7079 F3000
G1 X69.063 Y114.667 E127.7969 F3000
G1 X68.631 Y112.000 E127.8860 F3000
G1 X68.172 Y109.333 E127.9753 F3000
G1 X67.685 Y106.667 E128.0648 F3000
G1 X67.170 Y104.000 E128.1544 F3000
G1 X66.624 Y101.333 E128.2442 F3000
G1 X66.046 Y98.667 E128.3343 F3000
G1 X65.430 Y96.000 E128.4246 F3000
G1 X64.773 Y93.333 E128.5152 F3000
G1 X64.066 Y90.667 E128.6063 F3000
G1 X63.296 Y88.000 E128.6979 F3000
G1 X62.436 Y85.333 E128.7903 F3000
G1 X61.424 Y82.667 E128.8844 F3000
G1 X60.500 Y80.000 E128.9776 F3000
; LAYER:6
G1 X59.500 Y80.000 Z2.100 F6000
G1 X58.958 Y82.667 E129.0674 F3000
G1 X57.936 Y85.333 E129.1616 F3000
G1 X57.067 Y88.000 E129.2542 F3000
G1 X56.289 Y90.667 E129.3459 F3000
G1 X55.574 Y93.333 E129.4370 F3000
G1 X54.910 Y96.000 E129.5276 F3000
G1 X54.289 Y98.667 E129.6180 F3000
G1 X53.704 Y101.333 E129.7081 F3000
G1 X53.152 Y104.000 E129.7980 F3000
G1 X52.631 Y106.667 E129.8876 F3000
G1 X52.140 Y109.333 E129.9771 F3000
G1 X51.676 Y112.000 E130.0664 F3000
G1 X51.239 Y114.667 E130.1556 F3000
G1 X50.829 Y117.333 E130.2446 F3000
G1 X50.444 Y120.000 E130.3335 F3000
G1 X50.084 Y122.667 E130.4223 F3000
G1 X49.749 Y125.333 E130.5110 F3000
G1 X49.440 Y128.000 E130.5996 F3000
G1 X49.155 Y130.667 E130.6881 F3000
G1 X48.895 Y133.333 E130.7765 F3000
G1 X48.660 Y136.000 E130.8649 F3000
G1 X48.449 Y138.667 E130.9532 F3000
G1 X48.263 Y141.333 E131.0414 F3000
G1 X48.102 Y144.000 E131.1295 F3000
G1 X47.965 Y146.667 E131.2176 F3000
G1 X47.854 Y149.333 E131.3057 F3000
G1 X47.767 Y152.000 E131.3938 F3000
G1 X47.705 Y154.667 E131.4818 F3000
G1 X47.667 Y157.333 E131.5698 F3000
G1 X47.655 Y160.000 E131.6578 F3000
G1 X47.667 Y162.667 E131.7458 F3000
G1 X47.705 Y165.333 E131.8338 F3000
G1 X47.767 Y168.000 E131.9218 F3000
G1 X47.854 Y170.667 E132.0099 F3000
G1 X47.965 Y173.333 E132.0980 F3000
G1 X48.102 Y176.000 E132.1861 F3000
G1 X48.263 Y178.667 E132.2742 F3000
G1 X48.449 Y181.333 E132.3625 F3000
G1 X48.660 Y184.000 E132.4507 F3000
G1 X48.895 Y186.667 E132.5391 F3000
G1 X49.155 Y189.333 E132.6275 F3000
G1 X49.440 Y192.000 E132.7160 F3000
G1 X49.749 Y194.667 E132.8046 F3000
G1 X50.084 Y197.333 E132.8933 F3000
G1 X50.444 Y200.000 E132.9821 F3000
G1 X50.829 Y202.667 E133.0710 F3000
G1 X51.239 Y205.333 E133.1600 F3000
G1 X51.676 Y208.000 E133.2492 F3000
G1 X52.140 Y210.667 E133.3385 F3000
G1 X52.631 Y213.333 E133.4280 F3000
G1 X53.152 Y216.000 E133.5176 F3000
G1 X53.704 Y218.667 E133.6075 F3000
G1 X54.289 Y221.333 E133.6976 F3000
G1 X54.910 Y224.000 E133.7880 F3000
G1 X55.574 Y226.667 E133.8787 F3000
G1 X56.289 Y229.333 E133.9698 F3000
G1 X57.067 Y232.000 E134.0614 F3000
G1 X57.936 Y234.667 E134.1540 F3000
G1 X58.958 Y237.333 E134.2482 F3000
G1 X59.500 Y240.000 E134.3380 F3000
G1 X60.500 Y240.000 E134.3710 F3000
G1 X61.042 Y237.333 E134.4608 F3000
G1 X62.064 Y234.667 E134.5551 F3000
G1 X62.933 Y232.000 E134.6476 F3000
G1 X63.711 Y229.333 E134.7393 F3000
G1 X64.426 Y226.667 E134.8304 F3000
G1 X65.090 Y224.000 E134.9211 F3000
G1 X65.711 Y221.333 E135.0114 F3000
G1 X66.296 Y218.667 E135.1015 F3000
G1 X66.848 Y216.000 E135.1914 F3000
G1 X67.369 Y213.333 E135.2811 F3000
G1 X67.860 Y210.667 E135.3705 F3000
G1 X68.324 Y208.000 E135.4599 F3000
G1 X68.761 Y205.333 E135.5490 F3000
G1 X69.171 Y202.667 E135.6381 F3000
G1 X69.556 Y200.000 E135.7270 F3000
G1 X69.916 Y197.333 E135.8158 F3000
G1 X70.251 Y194.667 E135.9045 F3000
G1 X70.560 Y192.000 E135.9931 F3000
G1 X70.845 Y189.333 E136.0816 F3000
G1 X71.105 Y186.667 E136.1700 F3000
G1 X71.340 Y184.000 E136.2583 F3000
G1 X71.551 Y181.333 E136.3466 F3000
G1 X71.737 Y178.667 E136.4348 F3000
G1 X71.898 Y176.000 E136.5230 F3000
G1 X72.035 Y173.333 E136.6111 F3000
G1 X72.146 Y170.667 E136.6992 F3000
G1 X72.233 Y168.000 E136.7872 F3000
G1 X72.295 Y165.333 E136.8752 F3000
G1 X72.333 Y162.667 E136.9632 F3000
G1 X72.345 Y160.000 E137.0512 F3000
G1 X72.333 Y157.333 E137.1392 F3000
G1 X72.295 Y154.667 E137.2273 F3000
G1 X72.233 Y152.000 E137.3153 F3000
G1 X72.146 Y149.333 E137.4033 F3000
G1 X72.035 Y146.667 E137.4914 F3000
G1 X71.898 Y144.000 E137.5795 F3000
G1 X71.737 Y141.333 E137.6677 F3000
G1 X71.551 Y138.667 E137.7559 F3000
G1 X71.340 Y136.000 E137.8442 F3000
G1 X71.105 Y133.333 E137.9325 F3000
G1 X70.845 Y130.667 E138.0209 F3000
G1 X70.560 Y128.000 E138.1094 F3000
G1 X70.251 Y125.333 E138.1980 F3000
G1 X69.916 Y122.667 E138.2867 F3000
G1 X69.556 Y120.000 E138.3755 F3000
G1 X69.171 Y117.333 E138.4644 F3000
G1 X68.761 Y114.667 E138.5535 F3000
G1 X68.324 Y112.000 E138.6426 F3000
G1 X67.860 Y109.333 E138.7319 F3000
G1 X67.369 Y106.667 E138.8214 F3000
G1 X66.848 Y104.000 E138.9111 F3000
G1 X66.296 Y101.333 E139.0010 F3000
G1 X65.711 Y98.667 E139.0910 F3000
G1 X65.090 Y96.000 E139.1814 F3000
G1 X64.426 Y93.333 E139.2721 F3000
G1 X63.711 Y90.667 E139.3632 F3000
G1 X62.933 Y88.000 E139.4549 F3000
G1 X62.064 Y85.333 E139.5474 F3000
G1 X61.042 Y82.667 E139.6417 F3000
G1 X60.500 Y80.000 E139.7315 F3000
G1 X59.500 Y80.000 Z2.100 F6000
G1 X58.558 Y82.667 E139.8248 F3000
G1 X57.536 Y85.333 E139.9190 F3000
G1 X56.667 Y88.000 E140.0116 F3000
G1 X55.889 Y90.667 E140.1033 F3000
G1 X55.174 Y93.333 E140.1944 F3000
G1 X54.510 Y96.000 E140.2851 F3000
G1 X53.889 Y98.667 E140.3754 F3000
G1 X53.304 Y101.333 E140.4655 F3000
G1 X52.752 Y104.000 E140.5554 F3000
G1 X52.231 Y106.667 E140.6450 F3000
G1 X51.740 Y109.333 E140.7345 F3000
G1 X51.276 Y112.000 E140.8238 F3000
G1 X50.839 Y114.667 E140.9130 F3000
G1 X50.429 Y117.333 E141.0020 F3000
G1 X50.044 Y120.000 E141.0910 F3000
G1 X49.684 Y122.667 E141.1798 F3000
G1 X49.349 Y125.333 E141.2684 F3000
G1 X49.040 Y128.000 E141.3570 F3000
G1 X48.755 Y130.667 E141.4455 F3000
G1 X48.495 Y133.333 E141.5340 F3000
G1 X48.260 Y136.000 E141.6223 F3000
G1 X48.049 Y138.667 E141.7106 F3000
G1 X47.863 Y141.333 E141.7988 F3000
G1 X47.702 Y144.000 E141.8869 F3000
G1 X47.565 Y146.667 E141.9751 F3000
G1 X47.454 Y149.333 E142.0631 F3000
G1 X47.367 Y152.000 E142.1512 F3000
G1 X47.305 Y154.667 E142.2392 F3000
G1 X47.267 Y157.333 E142.3272 F3000
G1 X47.255 Y160.000 E142.4152 F3000
G1 X47.267 Y162.667 E142.5032 F3000
G1 X47.305 Y165.333 E142.5912 F3000
G1 X47.367 Y168.000 E142.6792 F3000
G1 X47.454 Y170.667 E142.7673 F3000
G1 X47.565 Y173.333 E142.8554 F3000
G1 X47.702 Y176.000 E142.9435 F3000
G1 X47.863 Y178.667 E143.0316 F3000
G1 X48.049 Y181.333 E143.1199 F3000
G1 X48.260 Y184.000 E143.2081 F3000
G1 X48.495 Y186.667 E143.2965 F3000
G1 X48.755 Y189.333 E143.3849 F3000
G1 X49.040 Y192.000 E143.4734 F3000
G1 X49.349 Y194.667 E143.5620 F3000
G1 X49.684 Y197.333 E143.6507 F3000
G1 X50.044 Y200.000 E143.7395 F3000
G1 X50.429 Y202.667 E143.8284 F3000
G1 X50.839 Y205.333 E143.9174 F3000
G1 X51.276 Y208.000 E144.0066 F3000
G1 X51.740 Y210.667 E144.0959 F3000
G1 X52.231 Y213.333 E144.1854 F3000
G1 X52.752 Y216.000 E144.2751 F3000
G1 X53.304 Y218.667 E144.3649 F3000
G1 X53.889 Y221.333 E144.4550 F3000
G1 X54.510 Y224.000 E144.5454 F3000
G1 X55.174 Y226.667 E144.6361 F3000
G1 X55.889 Y229.333 E144.7272 F3000
G1 X56.667 Y232.000 E144.8188 F3000
G1 X57.536 Y234.667 E144.9114 F3000
G1 X58.558 Y237.333 E145.0056 F3000
G1 X59.500 Y240.000 E145.0990 F3000
G1 X60.500 Y240.000 E145.1320 F3000
G1 X61.442 Y237.333 E145.2253 F3000
G1 X62.464 Y234.667 E145.3195 F3000
G1 X63.333 Y232.000 E145.4121 F3000
G1 X64.111 Y229.333 E145.5038 F3000
G1 X64.826 Y226.667 E145.5949 F3000
G1 X65.490 Y224.000 E145.6856 F3000
G1 X66.111 Y221.333 E145.7759 F3000
G1 X66.696 Y218.667 E145.8660 F3000
G1 X67.248 Y216.000 E145.9559 F3000
G1 X67.769 Y213.333 E146.0455 F3000
G1 X68.260 Y210.667 E146.1350 F3000
G1 X68.724 Y208.000 E146.2243 F3000
G1 X69.161 Y205.333 E146.3135 F3000
G1 X69.571 Y202.667 E146.4025 F3000
G1 X69.956 Y200.000 E146.4915 F3000
G1 X70.316 Y197.333 E146.5803 F3000
G1 X70.651 Y194.667 E146.6689 F3000
G1 X70.960 Y192.000 E146.7575 F3000
G1 X71.245 Y189.333 E146.8460 F3000
G1 X71.505 Y186.667 E146.9344 F3000
G1 X71.740 Y184.000 E147.0228 F3000
G1 X71.951 Y181.333 E147.1111 F3000
G1 X72.137 Y178.667 E147.1993 F3000
G1 X72.298 Y176.000 E147.2874 F3000
G1 X72.435 Y173.333 E147.3756 F3000
G1 X72.546 Y170.667 E147.4636 F3000
G1 X72.633 Y168.000 E147.5517 F3000
G1 X72.695 Y165.333 E147.6397 F3000
G1 X72.733 Y162.667 E147.7277 F3000
G1 X72.745 Y160.000 E147.8157 F3000
G1 X72.733 Y157.333 E147.9037 F3000
G1 X72.695 Y154.667 E147.9917 F3000
G1 X72.633 Y152.000 E148.0797 F3000
G1 X72.546 Y149.333 E148.1678 F3000
G1 X72.435 Y146.667 E148.2559 F3000
G1 X72.298 Y144.000 E148.3440 F3000
G1 X72.137 Y141.333 E148.4321 F3000
G1 X71.951 Y138.667 E148.5204 F3000
G1 X71.740 Y136.000 E148.6086 F3000
G1 X71.505 Y133.333 E148.6970 F3000
G1 X71.245 Y130.667 E148.7854 F3000
G1 X70.960 Y128.000 E148.8739 F3000
G1 X70.651 Y125.333 E148.9625 F3000
G1 X70.316 Y122.667 E149.0512 F3000
G1 X69.956 Y120.000 E149.1400 F3000
G1 X69.571 Y117.333 E149.2289 F3000
G1 X69.161 Y114.667 E149.3179 F3000
G1 X68.724 Y112.000 E149.4071 F3000
G1 X68.260 Y109.333 E149.4964 F3000
G1 X67.769 Y106.667 E149.5859 F3000
G1 X67.248 Y104.000 E149.6756 F3000
G1 X66.696 Y101.333 E149.7654 F3000
G1 X66.111 Y98.667 E149.8555 F3000
G1 X65.490 Y96.000 E149.9459 F3000
G1 X64.826 Y93.333 E150.0366 F3000
G1 X64.111 Y90.667 E150.1277 F3000
G1 X63.333 Y88.000 E150.2193 F3000
G1 X62.464 Y85.333 E150.3119 F3000
G1 X61.442 Y82.667 E150.4061 F3000
G1 X60.500 Y80.000 E150.4995 F3000
G1 X57.467 Y88.000 Z2.100 F6000
G1 X62.533 Y88.000 E150.6666 F3000
G1 X55.310 Y96.000 Z2.100 F6000
G1 X64.690 Y96.000 E150.9762 F3000
G1 X53.552 Y104.000 Z2.100 F6000
G1 X66.448 Y104.000 E151.4017 F3000
G1 X52.076 Y112.000 Z2.100 F6000
G1 X67.924 Y112.000 E151.9247 F3000
G1 X50.844 Y120.000 Z2.100 F6000
G1 X69.156 Y120.000 E152.5290 F3000
G1 X49.840 Y128.000 Z2.100 F6000
G1 X70.160 Y128.000 E153.1996 F3000
G1 X49.060 Y136.000 Z2.100 F6000
G1 X70.940 Y136.000 E153.9217 F3000
G1 X48.502 Y144.000 Z2.100 F6000
G1 X71.498 Y144.000 E154.6805 F3000
G1 X48.167 Y152.000 Z2.100 F6000
G1 X71.833 Y152.000 E155.4615 F3000
G1 X48.055 Y160.000 Z2.100 F6000
G1 X71.945 Y160.000 E156.2499 F3000
G1 X48.167 Y168.000 Z2.100 F6000
G1 X71.833 Y168.000 E157.0309 F3000
G1 X48.502 Y176.000 Z2.100 F6000
G1 X71.498 Y176.000 E157.7898 F3000
G1 X49.060 Y184.000 Z2.100 F6000
G1 X70.940 Y184.000 E158.5118 F3000
G1 X49.840 Y192.000 Z2.100 F6000
G1 X70.160 Y192.000 E159.1824 F3000
G1 X50.844 Y200.000 Z2.100 F6000
G1 X69.156 Y200.000 E159.7867 F3000
G1 X52.076 Y208.000 Z2.100 F6000
G1 X67.924 Y208.000 E160.3097 F3000
G1 X53.552 Y216.000 Z2.100 F6000
G1 X66.448 Y216.000 E160.7353 F3000
G1 X55.310 Y224.000 Z2.100 F6000
G1 X64.690 Y224.000 E161.0448 F3000
G1 X57.467 Y232.000 Z2.100 F6000
G1 X62.533 Y232.000 E161.2120 F3000
; LAYER:7
G1 X59.500 Y80.000 Z2.400 F6000
G1 X58.941 Y82.667 E161.3019 F3000
G1 X57.908 Y85.333 E161.3963 F3000
G1 X57.030 Y88.000 E161.4889 F3000
G1 X56.244 Y90.667 E161.5807 F3000
G1 X55.522 Y93.333 E161.6718 F3000
G1 X54.851 Y96.000 E161.7626 F3000
G1 X54.223 Y98.667 E161.8530 F3000
G1 X53.632 Y101.333 E161.9431 F3000
G1 X53.074 Y104.000 E162.0330 F3000
G1 X52.548 Y106.667 E162.1227 F3000
G1 X52.052 Y109.333 E162.2122 F3000
G1 X51.583 Y112.000 E162.3016 F3000
G1 X51.142 Y114.667 E162.3908 F3000
G1 X50.727 Y117.333 E162.4798 F3000
G1 X50.338 Y120.000 E162.5688 F3000
G1 X49.974 Y122.667 E162.6576 F3000
G1 X49.636 Y125.333 E162.7463 F3000
G1 X49.323 Y128.000 E162.8349 F3000
G1 X49.036 Y130.667 E162.9234 F3000
G1 X48.773 Y133.333 E163.0118 F3000
G1 X48.535 Y136.000 E163.1002 F3000
G1 X48.322 Y138.667 E163.1884 F3000
G1 X48.134 Y141.333 E163.2767 F3000
G1 X47.971 Y144.000 E163.3648 F3000
G1 X47.834 Y146.667 E163.4529 F3000
G1 X47.721 Y149.333 E163.5410 F3000
G1 X47.633 Y152.000 E163.6291 F3000
G1 X47.570 Y154.667 E163.7171 F3000
G1 X47.533 Y157.333 E163.8051 F3000
G1 X47.520 Y160.000 E163.8931 F3000
G1 X47.533 Y162.667 E163.9811 F3000
G1 X47.570 Y165.333 E164.0691 F3000
G1 X47.633 Y168.000 E164.1571 F3000
G1 X47.721 Y170.667 E164.2452 F3000
G1 X47.834 Y173.333 E164.3333 F3000
G1 X47.971 Y176.000 E164.4214 F3000
G1 X48.134 Y178.667 E164.5095 F3000
G1 X48.322 Y181.333 E164.5978 F3000
G1 X48.535 Y184.000 E164.6860 F3000
G1 X48.773 Y186.667 E164.7744 F3000
G1 X49.036 Y189.333 E164.8628 F3000
G1 X49.323 Y192.000 E164.9513 F3000
G1 X49.636 Y194.667 E165.0399 F3000
G1 X49.974 Y197.333 E165.1286 F3000
G1 X50.338 Y200.000 E165.2174 F3000
G1 X50.727 Y202.667 E165.3064 F3000
G1 X51.142 Y205.333 E165.3954 F3000
G1 X51.583 Y208.000 E165.4846 F3000
G1 X52.052 Y210.667 E165.5740 F3000
G1 X52.548 Y213.333 E165.6635 F3000
G1 X53.074 Y216.000 E165.7532 F3000
G1 X53.632 Y218.667 E165.8431 F3000
G1 X54.223 Y221.333 E165.9332 F3000
G1 X54.851 Y224.000 E166.0236 F3000
G1 X55.522 Y226.667 E166.1144 F3000
G1 X56.244 Y229.333 E166.2056 F3000
G1 X57.030 Y232.000 E166.2973 F3000
G1 X57.908 Y234.667 E166.3899 F3000
G1 X58.941 Y237.333 E166.4843 F3000
G1 X59.500 Y240.000 E166.5742 F3000
G1 X60.500 Y240.000 E166.6072 F3000
G1 X61.059 Y237.333 E166.6971 F3000
G1 X62.092 Y234.667 E166.7915 F3000
G1 X62.970 Y232.000 E166.8842 F3000
G1 X63.756 Y229.333 E166.9759 F3000
G1 X64.478 Y226.667 E167.0671 F3000
G1 X65.149 Y224.000 E167.1578 F3000
G1 X65.777 Y221.333 E167.2482 F3000
G1 X66.368 Y218.667 E167.3384 F3000
G1 X66.926 Y216.000 E167.4283 F3000
G1 X67.452 Y213.333 E167.5180 F3000
G1 X67.948 Y210.667 E167.6075 F3000
G1 X68.417 Y208.000 E167.6968 F3000
G1 X68.858 Y205.333 E167.7860 F3000
G1 X69.273 Y202.667 E167.8751 F3000
G1 X69.662 Y200.000 E167.9640 F3000
G1 X70.026 Y197.333 E168.0528 F3000
G1 X70.364 Y194.667 E168.1415 F3000
G1 X70.677 Y192.000 E168.2301 F3000
G1 X70.964 Y189.333 E168.3186 F3000
G1 X71.227 Y186.667 E168.4071 F3000
G1 X71.465 Y184.000 E168.4954 F3000
G1 X71.678 Y181.333 E168.5837 F3000
G1 X71.866 Y178.667 E168.6719 F3000
G1 X72.029 Y176.000 E168.7601 F3000
G1 X72.166 Y173.333 E168.8482 F3000
G1 X72.279 Y170.667 E168.9363 F3000
G1 X72.367 Y168.000 E169.0243 F3000
G1 X72.430 Y165.333 E169.1123 F3000
G1 X72.467 Y162.667 E169.2004 F3000
G1 X72.480 Y160.000 E169.2884 F3000
G1 X72.467 Y157.333 E169.3764 F3000
G1 X72.430 Y154.667 E169.4644 F3000
G1 X72.367 Y152.000 E169.5524 F3000
G1 X72.279 Y149.333 E169.6404 F3000
G1 X72.166 Y146.667 E169.7285 F3000
G1 X72.029 Y144.000 E169.8166 F3000
G1 X71.866 Y141.333 E169.9048 F3000
G1 X71.678 Y138.667 E169.9930 F3000
G1 X71.465 Y136.000 E170.0813 F3000
G1 X71.227 Y133.333 E170.1696 F3000
G1 X70.964 Y130.667 E170.2581 F3000
G1 X70.677 Y128.000 E170.3466 F3000
G1 X70.364 Y125.333 E170.4352 F3000
G1 X70.026 Y122.667 E170.5239 F3000
G1 X69.662 Y120.000 E170.6127 F3000
G1 X69.273 Y117.333 E170.7016 F3000
G1 X68.858 Y114.667 E170.7907 F3000
G1 X68.417 Y112.000 E170.8799 F3000
G1 X67.948 Y109.333 E170.9692 F3000
G1 X67.452 Y106.667 E171.0588 F3000
G1 X66.926 Y104.000 E171.1485 F3000
G1 X66.368 Y101.333 E171.2384 F3000
G1 X65.777 Y98.667 E171.3285 F3000
G1 X65.149 Y96.000 E171.4189 F3000
G1 X64.478 Y93.333 E171.5096 F3000
G1 X63.756 Y90.667 E171.6008 F3000
G1 X62.970 Y88.000 E171.6926 F3000
G1 X62.092 Y85.333 E171.7852 F3000
G1 X61.059 Y82.667 E171.8796 F3000
G1 X60.500 Y80.000 E171.9695 F3000
G1 X59.500 Y80.000 Z2.400 F6000
G1 X58.541 Y82.667 E172.0630 F3000
G1 X57.508 Y85.333 E172.1574 F3000
G1 X56.630 Y88.000 E172.2500 F3000
G1 X55.844 Y90.667 E172.3418 F3000
G1 X55.122 Y93.333 E172.4329 F3000
G1 X54.451 Y96.000 E172.5237 F3000
G1 X53.823 Y98.667 E172.6141 F3000
G1 X53.232 Y101.333 E172.7042 F3000
G1 X52.674 Y104.000 E172.7941 F3000
G1 X52.148 Y106.667 E172.8838 F3000
G1 X51.652 Y109.333 E172.9733 F3000
G1 X51.183 Y112.000 E173.0627 F3000
G1 X50.742 Y114.667 E173.1519 F3000
G1 X50.327 Y117.333 E173.2409 F3000
G1 X49.938 Y120.000 E173.3299 F3000
G1 X49.574 Y122.667 E173.4187 F3000
G1 X49.236 Y125.333 E173.5074 F3000
G1 X48.923 Y128.000 E173.5960 F3000
G1 X48.636 Y130.667 E173.6845 F3000
G1 X48.373 Y133.333 E173.7729 F3000
G1 X48.135 Y136.000 E173.8613 F3000
G1 X47.922 Y138.667 E173.9496 F3000
G1 X47.734 Y141.333 E174.0378 F3000
G1 X47.571 Y144.000 E174.1259 F3000
G1 X47.434 Y146.667 E174.2141 F3000
G1 X47.321 Y149.333 E174.3021 F3000
G1 X47.233 Y152.000 E174.3902 F3000
G1 X47.170 Y154.667 E174.4782 F3000
G1 X47.133 Y157.333 E174.5662 F3000
G1 X47.120 Y160.000 E174.6542 F3000
G1 X47.133 Y162.667 E174.7422 F3000
G1 X47.170 Y165.333 E174.8302 F3000
G1 X47.233 Y168.000 E174.9182 F3000
G1 X47.321 Y170.667 E175.0063 F3000
G1 X47.434 Y173.333 E175.0944 F3000
G1 X47.571 Y176.000 E175.1825 F3000
G1 X47.734 Y178.667 E175.2707 F3000
G1 X47.922 Y181.333 E175.3589 F3000
G1 X48.135 Y184.000 E175.4472 F3000
G1 X48.373 Y186.667 E175.5355 F3000
G1 X48.636 Y189.333 E175.6239 F3000
G1 X48.923 Y192.000 E175.7124 F3000
G1 X49.236 Y194.667 E175.8010 F3000
G1 X49.574 Y197.333 E175.8897 F3000
G1 X49.938 Y200.000 E175.9786 F3000
G1 X50.327 Y202.667 E176.0675 F3000
G1 X50.742 Y205.333 E176.1566 F3000
G1 X51.183 Y208.000 E176.2457 F3000
G1 X51.652 Y210.667 E176.3351 F3000
G1 X52.148 Y213.333 E176.4246 F3000
G1 X52.674 Y216.000 E176.5143 F3000
G1 X53.232 Y218.667 E176.6042 F3000
G1 X53.823 Y221.333 E176.6943 F3000
G1 X54.451 Y224.000 E176.7848 F3000
G1 X55.122 Y226.667 E176.8755 F3000
G1 X55.844 Y229.333 E176.9667 F3000
G1 X56.630 Y232.000 E177.0584 F3000
G1 X57.508 Y234.667 E177.1511 F3000
G1 X58.541 Y237.333 E177.2454 F3000
G1 X59.500 Y240.000 E177.3389 F3000
G1 X60.500 Y240.000 E177.3719 F3000
G1 X61.459 Y237.333 E177.4655 F3000
G1 X62.492 Y234.667 E177.5598 F3000
G1 X63.370 Y232.000 E177.6525 F3000
G1 X64.156 Y229.333 E177.7442 F3000
G1 X64.878 Y226.667 E177.8354 F3000
G1 X65.549 Y224.000 E177.9261 F3000
G1 X66.177 Y221.333 E178.0165 F3000
G1 X66.768 Y218.667 E178.1067 F3000
G1 X67.326 Y216.000 E178.1966 F3000
G1 X67.852 Y213.333 E178.2863 F3000
G1 X68.348 Y210.667 E178.3758 F3000
G1 X68.817 Y208.000 E178.4651 F3000
G1 X69.258 Y205.333 E178.5543 F3000
G1 X69.673 Y202.667 E178.6434 F3000
G1 X70.062 Y200.000 E178.7323 F3000
G1 X70.426 Y197.333 E178.8211 F3000
G1 X70.764 Y194.667 E178.9098 F3000
G1 X71.077 Y192.000 E178.9984 F3000
G1 X71.364 Y189.333 E179.0870 F3000
G1 X71.627 Y186.667 E179.1754 F3000
G1 X71.865 Y184.000 E179.2637 F3000
G1 X72.078 Y181.333 E179.3520 F3000
G1 X72.266 Y178.667 E179.4402 F3000
G1 X72.429 Y176.000 E179.5284 F3000
G1 X72.566 Y173.333 E179.6165 F3000
G1 X72.679 Y170.667 E179.7046 F3000
G1 X72.767 Y168.000 E179.7926 F3000
G1 X72.830 Y165.333 E179.8807 F3000
G1 X72.867 Y162.667 E179.9687 F3000
G1 X72.880 Y160.000 E180.0567 F3000
G1 X72.867 Y157.333 E180.1447 F3000
G1 X72.830 Y154.667 E180.2327 F3000
G1 X72.767 Y152.000 E180.3207 F3000
G1 X72.679 Y149.333 E180.4088 F3000
G1 X72.566 Y146.667 E180.4968 F3000
G1 X72.429 Y144.000 E180.5850 F3000
G1 X72.266 Y141.333 E180.6731 F3000
G1 X72.078 Y138.667 E180.7613 F3000
G1 X71.865 Y136.000 E180.8496 F3000
G1 X71.627 Y133.333 E180.9380 F3000
G1 X71.364 Y130.667 E181.0264 F3000
G1 X71.077 Y128.000 E181.1149 F3000
G1 X70.764 Y125.333 E181.2035 F3000
G1 X70.426 Y122.667 E181.2922 F3000
G1 X70.062 Y120.000 E181.3810 F3000
G1 X69.673 Y117.333 E181.4700 F3000
G1 X69.258 Y114.667 E181.5590 F3000
G1 X68.817 Y112.000 E181.6482 F3000
G1 X68.348 Y109.333 E181.7376 F3000
G1 X67.852 Y106.667 E181.8271 F3000
G1 X67.326 Y104.000 E181.9168 F3000
G1 X66.768 Y101.333 E182.0067 F3000
G1 X66.177 Y98.667 E182.0968 F3000
G1 X65.549 Y96.000 E182.1872 F3000
G1 X64.878 Y93.333 E182.2780 F3000
G1 X64.156 Y90.667 E182.3691 F3000
G1 X63.370 Y88.000 E182.4609 F3000
G1 X62.492 Y85.333 E182.5535 F3000
G1 X61.459 Y82.667 E182.6479 F3000
G1 X60.500 Y80.000 E182.7414 F3000
; LAYER:8
G1 X59.500 Y80.000 Z2.700 F6000
G1 X58.924 Y82.667 E182.8314 F3000
G1 X57.880 Y85.333 E182.9259 F3000
G1 X56.993 Y88.000 E183.0187 F3000
G1 X56.199 Y90.667 E183.1105 F3000
G1 X55.469 Y93.333 E183.2017 F3000
G1 X54.792 Y96.000 E183.2925 F3000
G1 X54.157 Y98.667 E183.3830 F3000
G1 X53.560 Y101.333 E183.4732 F3000
G1 X52.997 Y104.000 E183.5631 F3000
G1 X52.465 Y106.667 E183.6528 F3000
G1 X51.963 Y109.333 E183.7424 F3000
G1 X51.490 Y112.000 E183.8318 F3000
G1 X51.044 Y114.667 E183.9210 F3000
G1 X50.625 Y117.333 E184.0101 F3000
G1 X50.232 Y120.000 E184.0990 F3000
G1 X49.865 Y122.667 E184.1878 F3000
G1 X49.523 Y125.333 E184.2766 F3000
G1 X49.207 Y128.000 E184.3652 F3000
G1 X48.916 Y130.667 E184.4537 F3000
G1 X48.651 Y133.333 E184.5421 F3000
G1 X48.411 Y136.000 E184.6305 F3000
G1 X48.196 Y138.667 E184.7188 F3000
G1 X48.006 Y141.333 E184.8070 F3000
G1 X47.841 Y144.000 E184.8952 F3000
G1 X47.702 Y146.667 E184.9833 F3000
G1 X47.588 Y149.333 E185.0714 F3000
G1 X47.499 Y152.000 E185.1594 F3000
G1 X47.436 Y154.667 E185.2474 F3000
G1 X47.398 Y157.333 E185.3355 F3000
G1 X47.385 Y160.000 E185.4235 F3000
G1 X47.398 Y162.667 E185.5115 F3000
G1 X47.436 Y165.333 E185.5995 F3000
G1 X47.499 Y168.000 E185.6875 F3000
G1 X47.588 Y170.667 E185.7755 F3000
G1 X47.702 Y173.333 E185.8636 F3000
G1 X47.841 Y176.000 E185.9517 F3000
G1 X48.006 Y178.667 E186.0399 F3000
G1 X48.196 Y181.333 E186.1281 F3000
G1 X48.411 Y184.000 E186.2164 F3000
G1 X48.651 Y186.667 E186.3048 F3000
G1 X48.916 Y189.333 E186.3932 F3000
G1 X49.207 Y192.000 E186.4817 F3000
G1 X49.523 Y194.667 E186.5703 F3000
G1 X49.865 Y197.333 E186.6591 F3000
G1 X50.232 Y200.000 E186.7479 F3000
G1 X50.625 Y202.667 E186.8368 F3000
G1 X51.044 Y205.333 E186.9259 F3000
G1 X51.490 Y208.000 E187.0151 F3000
G1 X51.963 Y210.667 E187.1045 F3000
G1 X52.465 Y213.333 E187.1941 F3000
G1 X52.997 Y216.000 E187.2838 F3000
G1 X53.560 Y218.667 E187.3737 F3000
G1 X54.157 Y221.333 E187.4639 F3000
G1 X54.792 Y224.000 E187.5544 F3000
G1 X55.469 Y226.667 E187.6452 F3000
G1 X56.199 Y229.333 E187.7364 F3000
G1 X56.993 Y232.000 E187.8282 F3000
G1 X57.880 Y234.667 E187.9210 F3000
G1 X58.924 Y237.333 E188.0155 F3000
G1 X59.500 Y240.000 E188.1055 F3000
G1 X60.500 Y240.000 E188.1385 F3000
G1 X61.076 Y237.333 E188.2285 F3000
G1 X62.120 Y234.667 E188.3230 F3000
G1 X63.007 Y232.000 E188.4158 F3000
G1 X63.801 Y229.333 E188.5076 F3000
G1 X64.531 Y226.667 E188.5988 F3000
G1 X65.208 Y224.000 E188.6896 F3000
G1 X65.843 Y221.333 E188.7801 F3000
G1 X66.440 Y218.667 E188.8703 F3000
G1 X67.003 Y216.000 E188.9602 F3000
G1 X67.535 Y213.333 E189.0499 F3000
G1 X68.037 Y210.667 E189.1395 F3000
G1 X68.510 Y208.000 E189.2288 F3000
G1 X68.956 Y205.333 E189.3181 F3000
G1 X69.375 Y202.667 E189.4072 F3000
G1 X69.768 Y200.000 E189.4961 F3000
G1 X70.135 Y197.333 E189.5849 F3000
G1 X70.477 Y194.667 E189.6737 F3000
G1 X70.793 Y192.000 E189.7623 F3000
G1 X71.084 Y189.333 E189.8508 F3000
G1 X71.349 Y186.667 E189.9392 F3000
G1 X71.589 Y184.000 E190.0276 F3000
G1 X71.804 Y181.333 E190.1159 F3000
G1 X71.994 Y178.667 E190.2041 F3000
G1 X72.159 Y176.000 E190.2923 F3000
G1 X72.298 Y173.333 E190.3804 F3000
G1 X72.412 Y170.667 E190.4685 F3000
G1 X72.501 Y168.000 E190.5565 F3000
G1 X72.564 Y165.333 E190.6445 F3000
G1 X72.602 Y162.667 E190.7325 F3000
G1 X72.615 Y160.000 E190.8205 F3000
G1 X72.602 Y157.333 E190.9085 F3000
G1 X72.564 Y154.667 E190.9966 F3000
G1 X72.501 Y152.000 E191.0846 F3000
G1 X72.412 Y149.333 E191.1726 F3000
G1 X72.298 Y146.667 E191.2607 F3000
G1 X72.159 Y144.000 E191.3488 F3000
G1 X71.994 Y141.333 E191.4370 F3000
G1 X71.804 Y138.667 E191.5252 F3000
G1 X71.589 Y136.000 E191.6135 F3000
G1 X71.349 Y133.333 E191.7019 F3000
G1 X71.084 Y130.667 E191.7903 F3000
G1 X70.793 Y128.000 E191.8788 F3000
G1 X70.477 Y125.333 E191.9674 F3000
G1 X70.135 Y122.667 E192.0561 F3000
G1 X69.768 Y120.000 E192.1450 F3000
G1 X69.375 Y117.333 E192.2339 F3000
G1 X68.956 Y114.667 E192.3230 F3000
G1 X68.510 Y112.000 E192.4122 F3000
G1 X68.037 Y109.333 E192.5016 F3000
G1 X67.535 Y106.667 E192.5912 F3000
G1 X67.003 Y104.000 E192.6809 F3000
G1 X66.440 Y101.333 E192.7708 F3000
G1 X65.843 Y98.667 E192.8610 F3000
G1 X65.208 Y96.000 E192.9515 F3000
G1 X64.531 Y93.333 E193.0423 F3000
G1 X63.801 Y90.667 E193.1335 F3000
G1 X63.007 Y88.000 E193.2253 F3000
G1 X62.120 Y85.333 E193.3181 F3000
G1 X61.076 Y82.667 E193.4126 F3000
G1 X60.500 Y80.000 E193.5026 F3000
G1 X59.500 Y80.000 Z2.700 F6000
G1 X58.524 Y82.667 E193.5963 F3000
G1 X57.480 Y85.333 E193.6908 F3000
G1 X56.593 Y88.000 E193.7835 F3000
G1 X55.799 Y90.667 E193.8754 F3000
G1 X55.069 Y93.333 E193.9666 F3000
G1 X54.392 Y96.000 E194.0574 F3000
G1 X53.757 Y98.667 E194.1478 F3000
G1 X53.160 Y101.333 E194.2380 F3000
G1 X52.597 Y104.000 E194.3280 F3000
G1 X52.065 Y106.667 E194.4177 F3000
G1 X51.563 Y109.333 E194.5072 F3000
G1 X51.090 Y112.000 E194.5966 F3000
G1 X50.644 Y114.667 E194.6858 F3000
G1 X50.225 Y117.333 E194.7749 F3000
G1 X49.832 Y120.000 E194.8639 F3000
G1 X49.465 Y122.667 E194.9527 F3000
G1 X49.123 Y125.333 E195.0414 F3000
G1 X48.807 Y128.000 E195.1300 F3000
G1 X48.516 Y130.667 E195.2186 F3000
G1 X48.251 Y133.333 E195.3070 F3000
G1 X48.011 Y136.000 E195.3953 F3000
G1 X47.796 Y138.667 E195.4836 F3000
G1 X47.606 Y141.333 E195.5719 F3000
G1 X47.441 Y144.000 E195.6600 F3000
G1 X47.302 Y146.667 E195.7481 F3000
G1 X47.188 Y149.333 E195.8362 F3000
G1 X47.099 Y152.000 E195.9243 F3000
G1 X47.036 Y154.667 E196.0123 F3000
G1 X46.998 Y157.333 E196.1003 F3000
G1 X46.985 Y160.000 E196.1883 F3000
G1 X46.998 Y162.667 E196.2763 F3000
G1 X47.036 Y165.333 E196.3643 F3000
G1 X47.099 Y168.000 E196.4523 F3000
G1 X47.188 Y170.667 E196.5404 F3000
G1 X47.302 Y173.333 E196.6285 F3000
G1 X47.441 Y176.000 E196.7166 F3000
G1 X47.606 Y178.667 E196.8048 F3000
G1 X47.796 Y181.333 E196.8930 F3000
G1 X48.011 Y184.000 E196.9813 F3000
G1 X48.251 Y186.667 E197.0696 F3000
G1 X48.516 Y189.333 E197.1581 F3000
G1 X48.807 Y192.000 E197.2466 F3000
G1 X49.123 Y194.667 E197.3352 F3000
G1 X49.465 Y197.333 E197.4239 F3000
G1 X49.832 Y200.000 E197.5127 F3000
G1 X50.225 Y202.667 E197.6017 F3000
G1 X50.644 Y205.333 E197.6908 F3000
G1 X51.090 Y208.000 E197.7800 F3000
G1 X51.563 Y210.667 E197.8694 F3000
G1 X52.065 Y213.333 E197.9589 F3000
G1 X52.597 Y216.000 E198.0487 F3000
G1 X53.160 Y218.667 E198.1386 F3000
G1 X53.757 Y221.333 E198.2288 F3000
G1 X54.392 Y224.000 E198.3192 F3000
G1 X55.069 Y226.667 E198.4100 F3000
G1 X55.799 Y229.333 E198.5013 F3000
G1 X56.593 Y232.000 E198.5931 F3000
G1 X57.480 Y234.667 E198.6858 F3000
G1 X58.524 Y237.333 E198.7803 F3000
G1 X59.500 Y240.000 E198.8740 F3000
G1 X60.500 Y240.000 E198.9070 F3000
G1 X61.476 Y237.333 E199.0007 F3000
G1 X62.520 Y234.667 E199.0952 F3000
G1 X63.407 Y232.000 E199.1880 F3000
G1 X64.201 Y229.333 E199.2798 F3000
G1 X64.931 Y226.667 E199.3710 F3000
G1 X65.608 Y224.000 E199.4618 F3000
G1 X66.243 Y221.333 E199.5523 F3000
G1 X66.840 Y218.667 E199.6425 F3000
G1 X67.403 Y216.000 E199.7324 F3000
G1 X67.935 Y213.333 E199.8221 F3000
G1 X68.437 Y210.667 E199.9117 F3000
G1 X68.910 Y208.000 E200.0011 F3000
G1 X69.356 Y205.333 E200.0903 F3000
G1 X69.775 Y202.667 E200.1794 F3000
G1 X70.168 Y200.000 E200.2683 F3000
G1 X70.535 Y197.333 E200.3571 F3000
G1 X70.877 Y194.667 E200.4459 F3000
G1 X71.193 Y192.000 E200.5345 F3000
G1 X71.484 Y189.333 E200.6230 F3000
G1 X71.749 Y186.667 E200.7114 F3000
G1 X71.989 Y184.000 E200.7998 F3000
G1 X72.204 Y181.333 E200.8881 F3000
G1 X72.394 Y178.667 E200.9763 F3000
G1 X72.559 Y176.000 E201.0645 F3000
G1 X72.698 Y173.333 E201.1526 F3000
G1 X72.812 Y170.667 E201.2407 F3000
G1 X72.901 Y168.000 E201.3287 F3000
G1 X72.964 Y165.333 E201.4167 F3000
G1 X73.002 Y162.667 E201.5048 F3000
G1 X73.015 Y160.000 E201.5928 F3000
G1 X73.002 Y157.333 E201.6808 F3000
G1 X72.964 Y154.667 E201.7688 F3000
G1 X72.901 Y152.000 E201.8568 F3000
G1 X72.812 Y149.333 E201.9448 F3000
G1 X72.698 Y146.667 E202.0329 F3000
G1 X72.559 Y144.000 E202.1210 F3000
G1 X72.394 Y141.333 E202.2092 F3000
G1 X72.204 Y138.667 E202.2974 F3000
G1 X71.989 Y136.000 E202.3857 F3000
G1 X71.749 Y133.333 E202.4741 F3000
G1 X71.484 Y130.667 E202.5625 F3000
G1 X71.193 Y128.000 E202.6510 F3000
G1 X70.877 Y125.333 E202.7396 F3000
G1 X70.535 Y122.667 E202.8284 F3000
G1 X70.168 Y120.000 E202.9172 F3000
G1 X69.775 Y117.333 E203.0061 F3000
G1 X69.356 Y114.667 E203.0952 F3000
G1 X68.910 Y112.000 E203.1844 F3000
G1 X68.437 Y109.333 E203.2738 F3000
G1 X67.935 Y106.667 E203.3634 F3000
G1 X67.403 Y104.000 E203.4531 F3000
G1 X66.840 Y101.333 E203.5430 F3000
G1 X66.243 Y98.667 E203.6332 F3000
G1 X65.608 Y96.000 E203.7237 F3000
G1 X64.931 Y93.333 E203.8145 F3000
G1 X64.201 Y90.667 E203.9057 F3000
G1 X63.407 Y88.000 E203.9975 F3000
G1 X62.520 Y85.333 E204.0903 F3000
G1 X61.476 Y82.667 E204.1848 F3000
G1 X60.500 Y80.000 E204.2785 F3000
G1 X57.393 Y88.000 Z2.700 F6000
G1 X62.607 Y88.000 E204.4505 F3000
G1 X55.192 Y96.000 Z2.700 F6000
G1 X64.808 Y96.000 E204.7679 F3000
G1 X53.397 Y104.000 Z2.700 F6000
G1 X66.603 Y104.000 E205.2037 F3000
G1 X51.890 Y112.000 Z2.700 F6000
G1 X68.110 Y112.000 E205.7389 F3000
G1 X50.632 Y120.000 Z2.700 F6000
G1 X69.368 Y120.000 E206.3573 F3000
G1 X49.607 Y128.000 Z2.700 F6000
G1 X70.393 Y128.000 E207.0432 F3000
G1 X48.811 Y136.000 Z2.700 F6000
G1 X71.189 Y136.000 E207.7817 F3000
G1 X48.241 Y144.000 Z2.700 F6000
G1 X71.759 Y144.000 E208.5578 F3000
G1 X47.899 Y152.000 Z2.700 F6000
G1 X72.101 Y152.000 E209.3564 F3000
G1 X47.785 Y160.000 Z2.700 F6000
G1 X72.215 Y160.000 E210.1626 F3000
G1 X47.899 Y168.000 Z2.700 F6000
G1 X72.101 Y168.000 E210.9613 F3000
G1 X48.241 Y176.000 Z2.700 F6000
G1 X71.759 Y176.000 E211.7374 F3000
G1 X48.811 Y184.000 Z2.700 F6000
G1 X71.189 Y184.000 E212.4759 F3000
G1 X49.607 Y192.000 Z2.700 F6000
G1 X70.393 Y192.000 E213.1618 F3000
G1 X50.632 Y200.000 Z2.700 F6000
G1 X69.368 Y200.000 E213.7801 F3000
G1 X51.890 Y208.000 Z2.700 F6000
G1 X68.110 Y208.000 E214.3154 F3000
G1 X53.397 Y216.000 Z2.700 F6000
G1 X66.603 Y216.000 E214.7512 F3000
G1 X55.192 Y224.000 Z2.700 F6000
G1 X64.808 Y224.000 E215.0685 F3000
G1 X57.393 Y232.000 Z2.700 F6000
G1 X62.607 Y232.000 E215.2406 F3000
; LAYER:9
G1 X59.500 Y80.000 Z3.000 F6000
G1 X58.907 Y82.667 E215.3307 F3000
G1 X57.852 Y85.333 E215.4254 F3000
G1 X56.957 Y88.000 E215.5182 F3000
G1 X56.154 Y90.667 E215.6101 F3000
G1 X55.417 Y93.333 E215.7014 F3000
G1 X54.732 Y96.000 E215.7923 F3000
G1 X54.091 Y98.667 E215.8828 F3000
G1 X53.488 Y101.333 E215.9730 F3000
G1 X52.919 Y104.000 E216.0630 F3000
G1 X52.382 Y106.667 E216.1527 F3000
G1 X51.875 Y109.333 E216.2423 F3000
G1 X51.397 Y112.000 E216.3317 F3000
G1 X50.946 Y114.667 E216.4210 F3000
G1 X50.523 Y117.333 E216.5101 F3000
G1 X50.126 Y120.000 E216.5990 F3000
G1 X49.755 Y122.667 E216.6879 F3000
G1 X49.410 Y125.333 E216.7766 F3000
G1 X49.091 Y128.000 E216.8652 F3000
G1 X48.797 Y130.667 E216.9538 F3000
G1 X48.529 Y133.333 E217.0422 F3000
G1 X48.286 Y136.000 E217.1306 F3000
G1 X48.069 Y138.667 E217.2189 F3000
G1 X47.877 Y141.333 E217.3071 F3000
G1 X47.711 Y144.000 E217.3953 F3000
G1 X47.570 Y146.667 E217.4834 F3000
G1 X47.455 Y149.333 E217.5715 F3000
G1 X47.365 Y152.000 E217.6595 F3000
G1 X47.301 Y154.667 E217.7475 F3000
G1 X47.263 Y157.333 E217.8356 F3000
G1 X47.250 Y160.000 E217.9236 F3000
G1 X47.263 Y162.667 E218.0116 F3000
G1 X47.301 Y165.333 E218.0996 F3000
G1 X47.365 Y168.000 E218.1876 F3000
G1 X47.455 Y170.667 E218.2756 F3000
G1 X47.570 Y173.333 E218.3637 F3000
G1 X47.711 Y176.000 E218.4518 F3000
G1 X47.877 Y178.667 E218.5400 F3000
G1 X48.069 Y181.333 E218.6282 F3000
G1 X48.286 Y184.000 E218.7165 F3000
G1 X48.529 Y186.667 E218.8049 F3000
G1 X48.797 Y189.333 E218.8933 F3000
G1 X49.091 Y192.000 E218.9819 F3000
G1 X49.410 Y194.667 E219.0705 F3000
G1 X49.755 Y197.333 E219.1592 F3000
G1 X50.126 Y200.000 E219.2481 F3000
G1 X50.523 Y202.667 E219.3371 F3000
G1 X50.946 Y205.333 E219.4262 F3000
G1 X51.397 Y208.000 E219.5154 F3000
G1 X51.875 Y210.667 E219.6048 F3000
G1 X52.382 Y213.333 E219.6944 F3000
G1 X52.919 Y216.000 E219.7842 F3000
G1 X53.488 Y218.667 E219.8741 F3000
G1 X54.091 Y221.333 E219.9644 F3000
G1 X54.732 Y224.000 E220.0549 F3000
G1 X55.417 Y226.667 E220.1457 F3000
G1 X56.154 Y229.333 E220.2370 F3000
G1 X56.957 Y232.000 E220.3289 F3000
G1 X57.852 Y234.667 E220.4217 F3000
G1 X58.907 Y237.333 E220.5164 F3000
G1 X59.500 Y240.000 E220.6065 F3000
G1 X60.500 Y240.000 E220.6395 F3000
G1 X61.093 Y237.333 E220.7297 F3000
G1 X62.148 Y234.667 E220.8243 F3000
G1 X63.043 Y232.000 E220.9171 F3000
G1 X63.846 Y229.333 E221.0090 F3000
G1 X64.583 Y226.667 E221.1003 F3000
G1 X65.268 Y224.000 E221.1912 F3000
G1 X65.909 Y221.333 E221.2817 F3000
G1 X66.512 Y218.667 E221.3719 F3000
G1 X67.081 Y216.000 E221.4619 F3000
G1 X67.618 Y213.333 E221.5517 F3000
G1 X68.125 Y210.667 E221.6412 F3000
G1 X68.603 Y208.000 E221.7307 F3000
G1 X69.054 Y205.333 E221.8199 F3000
G1 X69.477 Y202.667 E221.9090 F3000
G1 X69.874 Y200.000 E221.9980 F3000
G1 X70.245 Y197.333 E222.0868 F3000
G1 X70.590 Y194.667 E222.1756 F3000
G1 X70.909 Y192.000 E222.2642 F3000
G1 X71.203 Y189.333 E222.3527 F3000
G1 X71.471 Y186.667 E222.4412 F3000
G1 X71.714 Y184.000 E222.5295 F3000
G1 X71.931 Y181.333 E222.6178 F3000
G1 X72.123 Y178.667 E222.7060 F3000
G1 X72.289 Y176.000 E222.7942 F3000
G1 X72.430 Y173.333 E222.8823 F3000
G1 X72.545 Y170.667 E222.9704 F3000
G1 X72.635 Y168.000 E223.0585 F3000
G1 X72.699 Y165.333 E223.1465 F3000
G1 X72.737 Y162.667 E223.2345 F3000
G1 X72.750 Y160.000 E223.3225 F3000
G1 X72.737 Y157.333 E223.4105 F3000
G1 X72.699 Y154.667 E223.4985 F3000
G1 X72.635 Y152.000 E223.5865 F3000
G1 X72.545 Y149.333 E223.6746 F3000
G1 X72.430 Y146.667 E223.7627 F3000
G1 X72.289 Y144.000 E223.8508 F3000
G1 X72.123 Y141.333 E223.9390 F3000
G1 X71.931 Y138.667 E224.0272 F3000
G1 X71.714 Y136.000 E224.1155 F3000
G1 X71.471 Y133.333 E224.2038 F3000
G1 X71.203 Y130.667 E224.2923 F3000
G1 X70.909 Y128.000 E224.3808 F3000
G1 X70.590 Y125.333 E224.4694 F3000
G1 X70.245 Y122.667 E224.5582 F3000
G1 X69.874 Y120.000 E224.6470 F3000
G1 X69.477 Y117.333 E224.7360 F3000
G1 X69.054 Y114.667 E224.8251 F3000
G1 X68.603 Y112.000 E224.9144 F3000
G1 X68.125 Y109.333 E225.0038 F3000
G1 X67.618 Y106.667 E225.0933 F3000
G1 X67.081 Y104.000 E225.1831 F3000
G1 X66.512 Y101.333 E225.2731 F3000
G1 X65.909 Y98.667 E225.3633 F3000
G1 X65.268 Y96.000 E225.4538 F3000
G1 X64.583 Y93.333 E225.5447 F3000
G1 X63.846 Y90.667 E225.6360 F3000
G1 X63.043 Y88.000 E225.7279 F3000
G1 X62.148 Y85.333 E225.8207 F3000
G1 X61.093 Y82.667 E225.9153 F3000
G1 X60.500 Y80.000 E226.0055 F3000
G1 X59.500 Y80.000 Z3.000 F6000
G1 X58.507 Y82.667 E226.0994 F3000
G1 X57.452 Y85.333 E226.1940 F3000
G1 X56.557 Y88.000 E226.2868 F3000
G1 X55.754 Y90.667 E226.3787 F3000
G1 X55.017 Y93.333 E226.4700 F3000
G1 X54.332 Y96.000 E226.5609 F3000
G1 X53.691 Y98.667 E226.6514 F3000
G1 X53.088 Y101.333 E226.7416 F3000
G1 X52.519 Y104.000 E226.8316 F3000
G1 X51.982 Y106.667 E226.9214 F3000
G1 X51.475 Y109.333 E227.0109 F3000
G1 X50.997 Y112.000 E227.1004 F3000
G1 X50.546 Y114.667 E227.1896 F3000
G1 X50.123 Y117.333 E227.2787 F3000
G1 X49.726 Y120.000 E227.3677 F3000
G1 X49.355 Y122.667 E227.4565 F3000
G1 X49.010 Y125.333 E227.5453 F3000
G1 X48.691 Y128.000 E227.6339 F3000
G1 X48.397 Y130.667 E227.7224 F3000
G1 X48.129 Y133.333 E227.8109 F3000
G1 X47.886 Y136.000 E227.8992 F3000
G1 X47.669 Y138.667 E227.9875 F3000
G1 X47.477 Y141.333 E228.0757 F3000
G1 X47.311 Y144.000 E228.1639 F3000
G1 X47.170 Y146.667 E228.2520 F3000
G1 X47.055 Y149.333 E228.3401 F3000
G1 X46.965 Y152.000 E228.4282 F3000
G1 X46.901 Y154.667 E228.5162 F3000
G1 X46.863 Y157.333 E228.6042 F3000
G1 X46.850 Y160.000 E228.6922 F3000
G1 X46.863 Y162.667 E228.7802 F3000
G1 X46.901 Y165.333 E228.8682 F3000
G1 X46.965 Y168.000 E228.9562 F3000
G1 X47.055 Y170.667 E229.0443 F3000
G1 X47.170 Y173.333 E229.1324 F3000
G1 X47.311 Y176.000 E229.2205 F3000
G1 X47.477 Y178.667 E229.3087 F3000
G1 X47.669 Y181.333 E229.3969 F3000
G1 X47.886 Y184.000 E229.4852 F3000
G1 X48.129 Y186.667 E229.5735 F3000
G1 X48.397 Y189.333 E229.6620 F3000
G1 X48.691 Y192.000 E229.7505 F3000
G1 X49.010 Y194.667 E229.8391 F3000
G1 X49.355 Y197.333 E229.9279 F3000
G1 X49.726 Y200.000 E230.0167 F3000
G1 X50.123 Y202.667 E230.1057 F3000
G1 X50.546 Y205.333 E230.1948 F3000
G1 X50.997 Y208.000 E230.2840 F3000
G1 X51.475 Y210.667 E230.3735 F3000
G1 X51.982 Y213.333 E230.4630 F3000
G1 X52.519 Y216.000 E230.5528 F3000
G1 X53.088 Y218.667 E230.6428 F3000
G1 X53.691 Y221.333 E230.7330 F3000
G1 X54.332 Y224.000 E230.8235 F3000
G1 X55.017 Y226.667 E230.9144 F3000
G1 X55.754 Y229.333 E231.0057 F3000
G1 X56.557 Y232.000 E231.0976 F3000
G1 X57.452 Y234.667 E231.1904 F3000
G1 X58.507 Y237.333 E231.2850 F3000
G1 X59.500 Y240.000 E231.3789 F3000
G1 X60.500 Y240.000 E231.4119 F3000
G1 X61.493 Y237.333 E231.5058 F3000
G1 X62.548 Y234.667 E231.6005 F3000
G1 X63.443 Y232.000 E231.6933 F3000
G1 X64.246 Y229.333 E231.7852 F3000
G1 X64.983 Y226.667 E231.8765 F3000
G1 X65.668 Y224.000 E231.9673 F3000
G1 X66.309 Y221.333 E232.0579 F3000
G1 X66.912 Y218.667 E232.1481 F3000
G1 X67.481 Y216.000 E232.2381 F3000
G1 X68.018 Y213.333 E232.3278 F3000
G1 X68.525 Y210.667 E232.4174 F3000
G1 X69.003 Y208.000 E232.5068 F3000
G1 X69.454 Y205.333 E232.5961 F3000
G1 X69.877 Y202.667 E232.6852 F3000
G1 X70.274 Y200.000 E232.7741 F3000
G1 X70.645 Y197.333 E232.8630 F3000
G1 X70.990 Y194.667 E232.9517 F3000
G1 X71.309 Y192.000 E233.0403 F3000
G1 X71.603 Y189.333 E233.1289 F3000
G1 X71.871 Y186.667 E233.2173 F3000
G1 X72.114 Y184.000 E233.3057 F3000
G1 X72.331 Y181.333 E233.3940 F3000
G1 X72.523 Y178.667 E233.4822 F3000
G1 X72.689 Y176.000 E233.5704 F3000
G1 X72.830 Y173.333 E233.6585 F3000
G1 X72.945 Y170.667 E233.7466 F3000
G1 X73.035 Y168.000 E233.8346 F3000
G1 X73.099 Y165.333 E233.9226 F3000
G1 X73.137 Y162.667 E234.0107 F3000
G1 X73.150 Y160.000 E234.0987 F3000
G1 X73.137 Y157.333 E234.1867 F3000
G1 X73.099 Y154.667 E234.2747 F3000
G1 X73.035 Y152.000 E234.3627 F3000
G1 X72.945 Y149.333 E234.4507 F3000
G1 X72.830 Y146.667 E234.5388 F3000
G1 X72.689 Y144.000 E234.6269 F3000
G1 X72.523 Y141.333 E234.7151 F3000
G1 X72.331 Y138.667 E234.8033 F3000
G1 X72.114 Y136.000 E234.8916 F3000
G1 X71.871 Y133.333 E234.9800 F3000
G1 X71.603 Y130.667 E235.0684 F3000
G1 X71.309 Y128.000 E235.1570 F3000
G1 X70.990 Y125.333 E235.2456 F3000
G1 X70.645 Y122.667 E235.3343 F3000
G1 X70.274 Y120.000 E235.4232 F3000
G1 X69.877 Y117.333 E235.5122 F3000
G1 X69.454 Y114.667 E235.6013 F3000
G1 X69.003 Y112.000 E235.6905 F3000
G1 X68.525 Y109.333 E235.7799 F3000
G1 X68.018 Y106.667 E235.8695 F3000
G1 X67.481 Y104.000 E235.9592 F3000
G1 X66.912 Y101.333 E236.0492 F3000
G1 X66.309 Y98.667 E236.1395 F3000
G1 X65.668 Y96.000 E236.2300 F3000
G1 X64.983 Y93.333 E236.3208 F3000
G1 X64.246 Y90.667 E236.4121 F3000
G1 X63.443 Y88.000 E236.5040 F3000
G1 X62.548 Y85.333 E236.5968 F3000
G1 X61.493 Y82.667 E236.6915 F3000
G1 X60.500 Y80.000 E236.7854 F3000
; LAYER:10
G1 X59.500 Y80.000 Z3.300 F6000
G1 X58.890 Y82.667 E236.8757 F3000
G1 X57.825 Y85.333 E236.9704 F3000
G1 X56.920 Y88.000 E237.0633 F3000
G1 X56.109 Y90.667 E237.1553 F3000
G1 X55.365 Y93.333 E237.2467 F3000
G1 X54.673 Y96.000 E237.3376 F3000
G1 X54.025 Y98.667 E237.4282 F3000
G1 X53.416 Y101.333 E237.5184 F3000
G1 X52.841 Y104.000 E237.6084 F3000
G1 X52.299 Y106.667 E237.6982 F3000
G1 X51.787 Y109.333 E237.7879 F3000
G1 X51.304 Y112.000 E237.8773 F3000
G1 X50.849 Y114.667 E237.9666 F3000
G1 X50.421 Y117.333 E238.0557 F3000
G1 X50.020 Y120.000 E238.1447 F3000
G1 X49.645 Y122.667 E238.2335 F3000
G1 X49.297 Y125.333 E238.3223 F3000
G1 X48.974 Y128.000 E238.4109 F3000
G1 X48.678 Y130.667 E238.4995 F3000
G1 X48.407 Y133.333 E238.5879 F3000
G1 X48.162 Y136.000 E238.6763 F3000
G1 X47.942 Y138.667 E238.7646 F3000
G1 X47.748 Y141.333 E238.8528 F3000
G1 X47.580 Y144.000 E238.9410 F3000
G1 X47.438 Y146.667 E239.0291 F3000
G1 X47.322 Y149.333 E239.1172 F3000
G1 X47.231 Y152.000 E239.2053 F3000
G1 X47.167 Y154.667 E239.2933 F3000
G1 X47.128 Y157.333 E239.3813 F3000
G1 X47.115 Y160.000 E239.4693 F3000
G1 X47.128 Y162.667 E239.5573 F3000
G1 X47.167 Y165.333 E239.6453 F3000
G1 X47.231 Y168.000 E239.7333 F3000
G1 X47.322 Y170.667 E239.8214 F3000
G1 X47.438 Y173.333 E239.9095 F3000
G1 X47.580 Y176.000 E239.9976 F3000
G1 X47.748 Y178.667 E240.0858 F3000
G1 X47.942 Y181.333 E240.1740 F3000
G1 X48.162 Y184.000 E240.2623 F3000
G1 X48.407 Y186.667 E240.3507 F3000
G1 X48.678 Y189.333 E240.4391 F3000
G1 X48.974 Y192.000 E240.5277 F3000
G1 X49.297 Y194.667 E240.6163 F3000
G1 X49.645 Y197.333 E240.7050 F3000
G1 X50.020 Y200.000 E240.7939 F3000
G1 X50.421 Y202.667 E240.8829 F3000
G1 X50.849 Y205.333 E240.9720 F3000
G1 X51.304 Y208.000 E241.0613 F3000
G1 X51.787 Y210.667 E241.1507 F3000
G1 X52.299 Y213.333 E241.2403 F3000
G1 X52.841 Y216.000 E241.3301 F3000
G1 X53.416 Y218.667 E241.4202 F3000
G1 X54.025 Y221.333 E241.5104 F3000
G1 X54.673 Y224.000 E241.6010 F3000
G1 X55.365 Y226.667 E241.6919 F3000
G1 X56.109 Y229.333 E241.7833 F3000
G1 X56.920 Y232.000 E241.8752 F3000
G1 X57.825 Y234.667 E241.9682 F3000
G1 X58.890 Y237.333 E242.0629 F3000
G1 X59.500 Y240.000 E242.1532 F3000
G1 X60.500 Y240.000 E242.1862 F3000
G1 X61.110 Y237.333 E242.2765 F3000
G1 X62.175 Y234.667 E242.3712 F3000
G1 X63.080 Y232.000 E242.4642 F3000
G1 X63.891 Y229.333 E242.5561 F3000
G1 X64.635 Y226.667 E242.6475 F3000
G1 X65.327 Y224.000 E242.7384 F3000
G1 X65.975 Y221.333 E242.8290 F3000
G1 X66.584 Y218.667 E242.9193 F3000
G1 X67.159 Y216.000 E243.0093 F3000
G1 X67.701 Y213.333 E243.0991 F3000
G1 X68.213 Y210.667 E243.1887 F3000
G1 X68.696 Y208.000 E243.2781 F3000
G1 X69.151 Y205.333 E243.3674 F3000
G1 X69.579 Y202.667 E243.4565 F3000
G1 X69.980 Y200.000 E243.5455 F3000
G1 X70.355 Y197.333 E243.6344 F3000
G1 X70.703 Y194.667 E243.7231 F3000
G1 X71.026 Y192.000 E243.8118 F3000
G1 X71.322 Y189.333 E243.9003 F3000
G1 X71.593 Y186.667 E243.9887 F3000
G1 X71.838 Y184.000 E244.0771 F3000
G1 X72.058 Y181.333 E244.1654 F3000
G1 X72.252 Y178.667 E244.2536 F3000
G1 X72.420 Y176.000 E244.3418 F3000
G1 X72.562 Y173.333 E244.4299 F3000
G1 X72.678 Y170.667 E244.5180 F3000
G1 X72.769 Y168.000 E244.6061 F3000
G1 X72.833 Y165.333 E244.6941 F3000
G1 X72.872 Y162.667 E244.7821 F3000
G1 X72.885 Y160.000 E244.8701 F3000
G1 X72.872 Y157.333 E244.9581 F3000
G1 X72.833 Y154.667 E245.0461 F3000
G1 X72.769 Y152.000 E245.1342 F3000
G1 X72.678 Y149.333 E245.2222 F3000
G1 X72.562 Y146.667 E245.3103 F3000
G1 X72.420 Y144.000 E245.3984 F3000
G1 X72.252 Y141.333 E245.4866 F3000
G1 X72.058 Y138.667 E245.5748 F3000
G1 X71.838 Y136.000 E245.6631 F3000
G1 X71.593 Y133.333 E245.7515 F3000
G1 X71.322 Y130.667 E245.8399 F3000
G1 X71.026 Y128.000 E245.9285 F3000
G1 X70.703 Y125.333 E246.0171 F3000
G1 X70.355 Y122.667 E246.1059 F3000
G1 X69.980 Y120.000 E246.1947 F3000
G1 X69.579 Y117.333 E246.2837 F3000
G1 X69.151 Y114.667 E246.3729 F3000
G1 X68.696 Y112.000 E246.4621 F3000
G1 X68.213 Y109.333 E246.5516 F3000
G1 X67.701 Y106.667 E246.6412 F3000
G1 X67.159 Y104.000 E246.7310 F3000
G1 X66.584 Y101.333 E246.8210 F3000
G1 X65.975 Y98.667 E246.9113 F3000
G1 X65.327 Y96.000 E247.0018 F3000
G1 X64.635 Y93.333 E247.0927 F3000
G1 X63.891 Y90.667 E247.1841 F3000
G1 X63.080 Y88.000 E247.2761 F3000
G1 X62.175 Y85.333 E247.3690 F3000
G1 X61.110 Y82.667 E247.4638 F3000
G1 X60.500 Y80.000 E247.5540 F3000
G1 X59.500 Y80.000 Z3.300 F6000
G1 X58.490 Y82.667 E247.6481 F3000
G1 X57.425 Y85.333 E247.7429 F3000
G1 X56.520 Y88.000 E247.8358 F3000
G1 X55.709 Y90.667 E247.9278 F3000
G1 X54.965 Y93.333 E248.0192 F3000
G1 X54.273 Y96.000 E248.1101 F3000
G1 X53.625 Y98.667 E248.2006 F3000
G1 X53.016 Y101.333 E248.2909 F3000
G1 X52.441 Y104.000 E248.3809 F3000
G1 X51.899 Y106.667 E248.4707 F3000
G1 X51.387 Y109.333 E248.5603 F3000
G1 X50.904 Y112.000 E248.6498 F3000
G1 X50.449 Y114.667 E248.7390 F3000
G1 X50.021 Y117.333 E248.8282 F3000
G1 X49.620 Y120.000 E248.9172 F3000
G1 X49.245 Y122.667 E249.0060 F3000
G1 X48.897 Y125.333 E249.0948 F3000
G1 X48.574 Y128.000 E249.1834 F3000
G1 X48.278 Y130.667 E249.2719 F3000
G1 X48.007 Y133.333 E249.3604 F3000
G1 X47.762 Y136.000 E249.4488 F3000
G1 X47.542 Y138.667 E249.5371 F3000
G1 X47.348 Y141.333 E249.6253 F3000
G1 X47.180 Y144.000 E249.7135 F3000
G1 X47.038 Y146.667 E249.8016 F3000
G1 X46.922 Y149.333 E249.8897 F3000
G1 X46.831 Y152.000 E249.9777 F3000
G1 X46.767 Y154.667 E250.0658 F3000
G1 X46.728 Y157.333 E250.1538 F3000
G1 X46.715 Y160.000 E250.2418 F3000
G1 X46.728 Y162.667 E250.3298 F3000
G1 X46.767 Y165.333 E250.4178 F3000
G1 X46.831 Y168.000 E250.5058 F3000
G1 X46.922 Y170.667 E250.5939 F3000
G1 X47.038 Y173.333 E250.6819 F3000
G1 X47.180 Y176.000 E250.7701 F3000
G1 X47.348 Y178.667 E250.8582 F3000
G1 X47.542 Y181.333 E250.9465 F3000
G1 X47.762 Y184.000 E251.0348 F3000
G1 X48.007 Y186.667 E251.1231 F3000
G1 X48.278 Y189.333 E251.2116 F3000
G1 X48.574 Y192.000 E251.3001 F3000
G1 X48.897 Y194.667 E251.3888 F3000
G1 X49.245 Y197.333 E251.4775 F3000
G1 X49.620 Y200.000 E251.5664 F3000
G1 X50.021 Y202.667 E251.6554 F3000
G1 X50.449 Y205.333 E251.7445 F3000
G1 X50.904 Y208.000 E251.8338 F3000
G1 X51.387 Y210.667 E251.9232 F3000
G1 X51.899 Y213.333 E252.0128 F3000
G1 X52.441 Y216.000 E252.1026 F3000
G1 X53.016 Y218.667 E252.1926 F3000
G1 X53.625 Y221.333 E252.2829 F3000
G1 X54.273 Y224.000 E252.3735 F3000
G1 X54.965 Y226.667 E252.4644 F3000
G1 X55.709 Y229.333 E252.5557 F3000
G1 X56.520 Y232.000 E252.6477 F3000
G1 X57.425 Y234.667 E252.7406 F3000
G1 X58.490 Y237.333 E252.8354 F3000
G1 X59.500 Y240.000 E252.9295 F3000
G1 X60.500 Y240.000 E252.9625 F3000
G1 X61.510 Y237.333 E253.0566 F3000
G1 X62.575 Y234.667 E253.1514 F3000
G1 X63.480 Y232.000 E253.2443 F3000
G1 X64.291 Y229.333 E253.3363 F3000
G1 X65.035 Y226.667 E253.4276 F3000
G1 X65.727 Y224.000 E253.5186 F3000
G1 X66.375 Y221.333 E253.6091 F3000
G1 X66.984 Y218.667 E253.6994 F3000
G1 X67.559 Y216.000 E253.7894 F3000
G1 X68.101 Y213.333 E253.8792 F3000
G1 X68.613 Y210.667 E253.9688 F3000
G1 X69.096 Y208.000 E254.0582 F3000
G1 X69.551 Y205.333 E254.1475 F3000
G1 X69.979 Y202.667 E254.2366 F3000
G1 X70.380 Y200.000 E254.3256 F3000
G1 X70.755 Y197.333 E254.4145 F3000
G1 X71.103 Y194.667 E254.5032 F3000
G1 X71.426 Y192.000 E254.5919 F3000
G1 X71.722 Y189.333 E254.6804 F3000
G1 X71.993 Y186.667 E254.7689 F3000
G1 X72.238 Y184.000 E254.8573 F3000
G1 X72.458 Y181.333 E254.9455 F3000
G1 X72.652 Y178.667 E255.0338 F3000
G1 X72.820 Y176.000 E255.1220 F3000
G1 X72.962 Y173.333 E255.2101 F3000
G1 X73.078 Y170.667 E255.2982 F3000
G1 X73.169 Y168.000 E255.3862 F3000
G1 X73.233 Y165.333 E255.4742 F3000
G1 X73.272 Y162.667 E255.5623 F3000
G1 X73.285 Y160.000 E255.6503 F3000
G1 X73.272 Y157.333 E255.7383 F3000
G1 X73.233 Y154.667 E255.8263 F3000
G1 X73.169 Y152.000 E255.9143 F3000
G1 X73.078 Y149.333 E256.0023 F3000
G1 X72.962 Y146.667 E256.0904 F3000
G1 X72.820 Y144.000 E256.1785 F3000
G1 X72.652 Y141.333 E256.2667 F3000
G1 X72.458 Y138.667 E256.3550 F3000
G1 X72.238 Y136.000 E256.4433 F3000
G1 X71.993 Y133.333 E256.5316 F3000
G1 X71.722 Y130.667 E256.6201 F3000
G1 X71.426 Y128.000 E256.7086 F3000
G1 X71.103 Y125.333 E256.7973 F3000
G1 X70.755 Y122.667 E256.8860 F3000
G1 X70.380 Y120.000 E256.9749 F3000
G1 X69.979 Y117.333 E257.0639 F3000
G1 X69.551 Y114.667 E257.1530 F3000
G1 X69.096 Y112.000 E257.2423 F3000
G1 X68.613 Y109.333 E257.3317 F3000
G1 X68.101 Y106.667 E257.4213 F3000
G1 X67.559 Y104.000 E257.5111 F3000
G1 X66.984 Y101.333 E257.6011 F3000
G1 X66.375 Y98.667 E257.6914 F3000
G1 X65.727 Y96.000 E257.7819 F3000
G1 X65.035 Y93.333 E257.8729 F3000
G1 X64.291 Y90.667 E257.9642 F3000
G1 X63.480 Y88.000 E258.0562 F3000
G1 X62.575 Y85.333 E258.1491 F3000
G1 X61.510 Y82.667 E258.2439 F3000
G1 X60.500 Y80.000 E258.3380 F3000
G1 X57.320 Y88.000 Z3.300 F6000
G1 X62.680 Y88.000 E258.5149 F3000
G1 X55.073 Y96.000 Z3.300 F6000
G1 X64.927 Y96.000 E258.8401 F3000
G1 X53.241 Y104.000 Z3.300 F6000
G1 X66.759 Y104.000 E259.2861 F3000
G1 X51.704 Y112.000 Z3.300 F6000
G1 X68.296 Y112.000 E259.8337 F3000
G1 X50.420 Y120.000 Z3.300 F6000
G1 X69.580 Y120.000 E260.4660 F3000
G1 X49.374 Y128.000 Z3.300 F6000
G1 X70.626 Y128.000 E261.1673 F3000
G1 X48.562 Y136.000 Z3.300 F6000
G1 X71.438 Y136.000 E261.9222 F3000
G1 X47.980 Y144.000 Z3.300 F6000
G1 X72.020 Y144.000 E262.7155 F3000
G1 X47.631 Y152.000 Z3.300 F6000
G1 X72.369 Y152.000 E263.5318 F3000
G1 X47.515 Y160.000 Z3.300 F6000
G1 X72.485 Y160.000 E264.3558 F3000
G1 X47.631 Y168.000 Z3.300 F6000
G1 X72.369 Y168.000 E265.1722 F3000
G1 X47.980 Y176.000 Z3.300 F6000
G1 X72.020 Y176.000 E265.9655 F3000
G1 X48.562 Y184.000 Z3.300 F6000
G1 X71.438 Y184.000 E266.7204 F3000
G1 X49.374 Y192.000 Z3.300 F6000
G1 X70.626 Y192.000 E267.4217 F3000
G1 X50.420 Y200.000 Z3.300 F6000
G1 X69.580 Y200.000 E268.0540 F3000
G1 X51.704 Y208.000 Z3.300 F6000
G1 X68.296 Y208.000 E268.6015 F3000
G1 X53.241 Y216.000 Z3.300 F6000
G1 X66.759 Y216.000 E269.0476 F3000
G1 X55.073 Y224.000 Z3.300 F6000
G1 X64.927 Y224.000 E269.3728 F3000
G1 X57.320 Y232.000 Z3.300 F6000
G1 X62.680 Y232.000 E269.5497 F3000
; LAYER:11
G1 X59.500 Y80.000 Z3.600 F6000
G1 X58.873 Y82.667 E269.6401 F3000
G1 X57.797 Y85.333 E269.7350 F3000
G1 X56.883 Y88.000 E269.8280 F3000
G1 X56.064 Y90.667 E269.9201 F3000
G1 X55.312 Y93.333 E270.0115 F3000
G1 X54.614 Y96.000 E270.1025 F3000
G1 X53.959 Y98.667 E270.1931 F3000
G1 X53.344 Y101.333 E270.2834 F3000
G1 X52.764 Y104.000 E270.3734 F3000
G1 X52.216 Y106.667 E270.4633 F3000
G1 X51.699 Y109.333 E270.5529 F3000
G1 X51.211 Y112.000 E270.6424 F3000
G1 X50.751 Y114.667 E270.7317 F3000
G1 X50.319 Y117.333 E270.8208 F3000
G1 X49.914 Y120.000 E270.9098 F3000
G1 X49.536 Y122.667 E270.9987 F3000
G1 X49.184 Y125.333 E271.0875 F3000
G1 X48.858 Y128.000 E271.1761 F3000
G1 X48.558 Y130.667 E271.2647 F3000
G1 X48.285 Y133.333 E271.3532 F3000
G1 X48.037 Y136.000 E271.4415 F3000
